<?xml version="1.0" encoding="UTF-8"?>
<map version="1.10" tiledversion="1.11.2" orientation="orthogonal" renderorder="right-down" width="21" height="18" tilewidth="16" tileheight="16" infinite="0" nextlayerid="3" nextobjectid="6">
 <tileset firstgid="1" source="../tilesets/gfx/Overworld.tsx"/>
 <layer id="1" name="ground" width="21" height="18">
  <data encoding="csv">
497,497,497,497,497,497,497,497,497,497,497,497,497,497,497,497,497,497,497,497,497,
497,497,497,497,497,497,497,497,497,497,497,497,497,497,497,497,497,497,497,497,497,
497,497,497,497,497,497,497,497,497,497,497,497,497,497,497,497,497,497,497,497,497,
497,497,497,497,497,497,497,497,497,497,497,497,497,497,497,497,497,497,497,497,497,
497,497,497,497,497,497,497,497,497,497,497,497,497,497,497,497,497,497,497,497,497,
497,497,497,497,497,497,497,497,497,497,497,497,497,497,497,497,497,497,497,497,497,
497,497,497,497,497,497,497,497,497,497,497,497,497,497,497,497,497,497,497,497,497,
497,497,497,497,497,497,497,497,497,497,497,497,497,497,497,497,497,497,497,497,497,
497,497,497,497,497,497,497,497,497,497,497,497,497,497,497,497,497,497,497,497,497,
497,497,497,497,497,497,497,497,497,497,497,497,497,497,497,497,497,497,497,497,497,
497,497,497,497,497,497,497,497,497,497,497,497,497,497,497,497,497,497,497,497,497,
497,497,497,497,497,497,497,497,497,497,497,497,497,497,497,497,497,497,497,497,497,
497,497,497,497,497,497,497,497,497,497,497,497,497,497,497,497,497,497,497,497,497,
497,497,497,497,497,497,497,497,497,497,497,497,497,497,497,497,497,497,497,497,497,
497,497,497,497,497,497,497,497,497,497,497,497,497,497,497,497,497,497,497,497,497,
497,497,497,497,497,497,497,497,497,497,497,497,497,497,497,497,497,497,497,497,497,
497,497,497,497,497,497,497,497,497,497,497,497,497,497,497,497,497,497,497,497,497,
497,497,497,497,497,497,497,497,497,497,497,497,497,497,497,497,497,497,497,497,497
</data>
 </layer>
 <objectgroup id="2" name="collider">
  <object id="1" x="0.485164" y="0.485164" width="14.5549" height="287.702"/>
  <object id="2" x="0.485164" y="270.721" width="335.733" height="16.0104"/>
  <object id="3" x="318.752" y="0" width="17.4659" height="286.732"/>
  <object id="5" x="0.970327" y="0.485164" width="333.793" height="16.0104"/>
 </objectgroup>
</map>
