<?xml version="1.0" encoding="UTF-8"?>
<map version="1.10" tiledversion="1.11.2" orientation="orthogonal" renderorder="right-down" width="16" height="11" tilewidth="16" tileheight="16" infinite="0" nextlayerid="7" nextobjectid="23">
 <tileset firstgid="1" source="../gfx/Inner.tsx"/>
 <tileset firstgid="1001" source="HouseInterior.tsx"/>
 <layer id="1" name="ground" width="16" height="11">
  <data encoding="csv">
247,247,247,247,247,247,247,247,247,247,247,247,247,247,247,248,
287,287,287,287,287,287,287,287,287,287,287,287,287,287,287,288,
41,41,41,41,41,41,41,41,41,41,41,41,41,41,41,41,
41,41,41,41,41,41,41,41,41,41,41,41,41,41,41,41,
246,247,247,247,247,248,41,41,41,41,41,41,41,41,41,41,
286,287,287,287,287,288,41,41,41,41,41,41,41,41,41,41,
41,41,41,41,41,41,41,41,41,41,41,41,41,41,41,41,
41,41,41,41,41,41,41,41,41,41,41,41,41,41,41,41,
41,41,41,41,41,41,41,41,41,41,41,41,41,41,41,41,
246,247,247,247,247,247,247,247,247,247,247,248,47,48,246,248,
286,287,287,287,287,287,287,287,287,287,287,288,41,41,286,288
</data>
 </layer>
 <layer id="5" name="decoration 3" width="16" height="11">
  <data encoding="csv">
0,0,0,0,0,0,0,0,0,0,0,0,0,0,0,0,
0,0,0,0,0,0,0,0,0,0,0,0,0,0,0,0,
0,0,0,0,0,0,0,0,0,0,0,0,0,0,0,0,
0,0,0,0,0,0,0,0,0,0,0,0,0,0,0,0,
0,0,0,0,0,0,0,0,0,0,0,0,0,0,0,0,
0,0,0,0,176,0,0,0,0,0,0,0,0,0,0,0,
0,0,0,0,216,0,0,0,0,0,0,0,0,0,0,0,
0,0,0,0,256,0,0,0,0,0,0,0,0,0,0,0,
0,0,0,0,0,0,0,0,0,0,0,0,0,0,0,0,
0,0,0,0,0,0,0,0,0,0,0,0,0,0,0,0,
0,0,0,0,0,0,0,0,0,0,0,0,0,0,0,0
</data>
 </layer>
 <layer id="3" name="decoration" width="16" height="11">
  <data encoding="csv">
0,0,170,171,0,0,1086,1087,1088,1089,403,0,170,171,0,0,
0,0,210,211,0,0,1100,1101,1102,1103,443,0,210,211,1019,1020,
0,0,0,0,0,0,1114,1115,1116,1117,0,0,0,0,1033,1034,
0,0,0,0,0,0,1128,1129,1130,1131,0,0,0,0,1047,1048,
1096,1097,0,0,0,0,0,0,0,0,0,0,0,0,0,0,
1110,1111,0,0,0,0,0,0,0,0,0,0,0,0,0,0,
1124,1125,0,1184,1185,1186,0,0,0,0,0,0,0,0,0,0,
0,0,0,1198,1199,1200,0,0,0,0,0,0,0,0,0,0,
0,0,0,0,0,0,0,0,0,0,0,0,0,0,0,0,
0,0,0,0,0,0,0,0,0,0,0,0,0,0,0,0,
0,0,0,0,0,0,0,0,0,0,0,0,0,0,0,0
</data>
 </layer>
 <layer id="4" name="decoration 2" width="16" height="11">
  <data encoding="csv">
481,483,0,0,605,0,0,0,0,0,0,605,0,0,0,0,
521,523,0,0,645,0,0,0,0,0,0,645,0,0,0,0,
561,563,0,0,0,0,0,0,0,0,0,0,0,452,0,0,
0,0,0,0,0,0,0,0,0,0,0,1234,1235,1236,0,0,
0,0,172,0,0,0,0,0,0,0,0,1248,1249,1250,0,488,
0,0,212,0,0,0,0,0,0,0,0,1262,1263,1264,0,528,
0,0,0,0,178,0,0,0,0,0,0,1276,1277,1278,0,568,
0,0,0,0,218,0,0,0,0,0,0,1290,1291,1292,0,608,
0,0,0,0,258,0,0,0,0,0,0,0,0,0,0,0,
0,0,0,0,0,0,0,0,0,0,0,0,0,0,0,0,
0,0,0,0,0,0,0,0,0,0,0,0,0,0,0,0
</data>
 </layer>
 <objectgroup id="6" name="collider">
  <object id="2" x="1" y="144.667" width="189" height="31.6667"/>
  <object id="3" x="-0.333333" y="0" width="256.333" height="31.6667"/>
  <object id="4" x="240.333" y="70" width="15.6667" height="46"/>
  <object id="10" x="226" y="144.667" width="29.3333" height="31.3333"/>
  <object id="11" x="107" y="32" width="42.6667" height="12.6667"/>
  <object id="12" x="137.667" y="39" width="12.3333" height="14.6667"/>
  <object id="13" x="0.333333" y="63.6667" width="94" height="31.3333"/>
  <object id="14" x="62.6667" y="97.3333">
   <polygon points="0,0 -6.66667,2.66667 -8.33333,13 -3.66667,22.3333 9.66667,24.6667 28,18 29,7.33333 21,0.666667"/>
  </object>
  <object id="17" x="64.3333" y="121.667" width="15" height="11"/>
  <object id="18" x="211.667" y="37" width="9.33333" height="9.66667"/>
  <object id="19" x="229.333" y="32" width="19" height="18.6667"/>
  <object id="21" x="-0.333333" y="0.333333" width="2.33333" height="174.667"/>
  <object id="22" x="253" y="1.33333" width="2" height="174.333"/>
 </objectgroup>
</map>
