<?xml version="1.0" encoding="UTF-8"?>
<map version="1.10" tiledversion="1.11.2" orientation="orthogonal" renderorder="right-down" width="36" height="24" tilewidth="16" tileheight="16" infinite="0" nextlayerid="6" nextobjectid="18">
 <tileset firstgid="1" source="../tilesets/gfx/Overworld.tsx"/>
 <layer id="1" name="ground" width="36" height="24">
  <data encoding="csv">
1,1,1,1,1,1,1,1,1,1,1,1,1,1,1,1,1,1,1,1,1,1,1,1,1,1,1,1,1,1,1,1,1,1,1,1,
1,1,1,1,1,1,1,1,1,1,1,1,1,1,1,1,1,1,1,1,1,1,1,1,1,1,1,1,1,1,1,1,1,1,1,1,
1,1,1,1,1,1,1,1,1,1,1,1,1,1,1,1,1,1,1,1,1,1,1,1,1,1,1,1,1,1,1,1,1,1,1,1,
1,1,1,1,1,1,1,1,1,1,1,1,1,1,1,1,1,1,1,1,1,1,1,1,1,1,1,1,1,1,1,1,1,1,1,1,
1,1,1,1,1,1,1,1,1,1,1,1,1,1,1,1,1,1,1,1,1,1,1,1,1,1,1,1,1,1,1,1,1,1,1,1,
1,1,1,1,1,1,1,1,1,1,1,1,1,1,1,1,1,1,1,1,1,1,1,1,1,1,1,1,1,1,1,1,1,1,1,1,
1,1,1,1,1,1,1,1,1,1,1,1,1,1,1,1,1,1,1,1,1,1,1,1,1,1,1,1,1,1,1,1,1,1,1,1,
1,1,1,1,1,1,1,1,1,1,1,1,1,1,1,1,1,1,1,1,1,1,1,1,1,1,1,1,1,1,1,1,1,1,1,1,
1,1,1,1,1,1,1,1,1,1,1,1,1,1,1,1,1,1,1,1,1,1,1,1,1,1,1,1,1,1,1,1,1,1,1,1,
1,1,1,1,1,1,1,1,1,1,1,1,1,1,1,1,1,1,1,1,1,1,1,1,1,1,1,1,1,1,1,1,1,1,1,1,
1,1,1,1,1,1,1,1,1,1,1,1,1,1,1,1,1,1,1,1,1,1,1,1,1,1,1,1,1,1,1,1,1,1,1,1,
1,1,1,1,1,1,1,1,1,1,1,1,1,1,1,1,1,1,1,1,1,1,1,1,1,1,1,1,1,1,1,1,1,1,1,1,
1,1,1,1,1,1,1,1,1,1,1,1,1,1,1,1,1,1,1,1,1,1,1,1,1,1,1,1,1,1,1,1,1,1,1,1,
1,1,1,1,1,1,1,1,1,1,1,1,1,1,1,1,1,1,1,1,1,1,1,1,1,1,1,1,1,1,1,1,1,1,1,1,
1,1,1,1,1,1,1,1,1,1,1,1,1,1,1,1,1,1,1,1,1,1,1,1,1,1,1,1,1,1,1,1,1,1,1,1,
1,1,1,1,1,1,1,1,1,1,1,1,1,1,1,1,1,1,1,1,1,1,1,1,1,1,1,1,1,1,1,1,1,1,1,1,
1,1,1,1,1,1,1,1,1,1,1,1,1,1,1,1,1,1,1,1,1,1,1,1,1,1,1,1,1,1,1,1,1,1,1,1,
1,1,1,1,1,1,1,1,1,1,1,1,1,1,1,1,1,1,1,1,1,1,1,1,1,1,1,1,1,1,1,1,1,1,1,1,
1,1,1,1,1,1,1,1,1,1,1,1,1,1,1,1,1,1,1,1,1,1,1,1,1,1,1,1,1,1,1,1,1,1,1,1,
1,1,1,1,1,1,1,1,1,1,1,1,1,1,1,1,1,1,1,1,1,1,1,1,1,1,1,1,1,1,1,1,1,1,1,1,
1,1,1,1,1,1,1,1,1,1,1,1,1,1,1,1,1,1,1,1,1,1,1,1,1,1,1,1,1,1,1,1,1,1,1,1,
1,1,1,1,1,1,1,1,1,1,1,1,1,1,1,1,1,1,1,1,1,1,1,1,1,1,1,1,1,1,1,1,1,1,1,1,
1,1,1,1,1,1,1,1,1,1,1,1,1,1,1,1,1,1,1,1,1,1,1,1,1,1,1,1,1,1,1,1,1,1,1,1,
1,1,1,1,1,1,1,1,1,1,1,1,1,1,1,1,1,1,1,1,1,1,1,1,1,1,1,1,1,1,1,1,1,1,1,1
</data>
 </layer>
 <layer id="2" name="water" width="36" height="24">
  <data encoding="csv">
0,0,0,0,0,0,0,0,0,0,0,0,0,0,0,0,0,0,0,0,0,0,0,0,0,0,0,0,0,0,0,0,0,0,0,0,
0,0,0,0,0,0,0,0,0,0,0,0,0,0,0,0,0,0,0,0,0,0,0,0,0,0,0,0,0,0,0,0,0,0,0,0,
0,0,0,0,0,0,0,0,0,0,0,0,0,0,0,0,0,0,0,0,0,0,0,0,0,0,0,0,0,0,0,0,0,0,0,0,
0,0,0,0,0,0,0,0,0,0,0,0,0,0,0,0,0,0,0,0,0,0,0,0,0,0,0,0,0,0,0,0,0,0,0,0,
0,0,0,0,0,0,0,0,0,0,0,0,0,0,0,0,0,0,0,0,0,0,0,0,0,0,0,0,0,0,0,0,0,0,0,0,
0,0,0,0,0,0,0,0,0,0,0,0,0,0,0,0,0,0,0,0,0,0,0,0,0,0,0,0,0,0,0,0,0,0,0,0,
0,0,0,0,0,0,0,0,0,0,0,0,0,0,0,0,0,0,0,0,0,0,0,0,0,0,0,0,0,0,0,0,0,0,0,0,
0,0,0,0,0,0,0,0,0,0,0,0,0,0,0,0,0,0,0,0,0,0,0,0,0,0,0,0,0,0,0,0,0,0,0,0,
0,0,0,0,0,0,0,0,0,0,0,0,0,0,0,0,0,0,0,0,0,0,0,0,0,0,0,0,0,284,284,284,284,284,284,284,
0,0,0,0,0,0,0,0,0,0,0,0,0,0,0,0,0,0,0,0,0,0,0,0,0,0,284,284,284,284,284,284,284,284,284,284,
0,0,0,0,0,0,0,0,0,0,0,0,0,0,0,0,0,0,0,0,0,0,0,0,0,0,284,284,284,284,284,284,284,284,284,284,
0,0,0,0,0,0,0,0,0,0,0,0,0,0,0,0,0,0,0,0,0,0,0,0,0,0,0,284,284,284,284,284,284,284,284,284,
0,0,0,0,0,0,0,0,0,0,0,0,0,0,0,0,0,0,0,0,0,0,0,0,0,0,0,284,284,284,284,284,284,284,284,284,
0,0,0,0,0,0,0,0,0,0,0,0,0,0,0,0,0,0,0,0,0,284,0,0,0,0,284,284,284,284,284,284,284,284,284,284,
0,0,0,0,0,0,0,0,0,0,0,0,0,0,0,0,0,0,0,284,284,284,284,284,284,284,284,284,284,284,284,284,284,284,284,284,
0,0,0,0,0,0,0,0,0,0,0,0,0,0,0,0,0,0,284,284,284,284,284,284,284,284,284,284,284,284,284,284,284,284,284,284,
0,0,0,0,0,0,0,0,0,0,0,0,0,0,0,0,284,284,284,284,284,284,284,284,284,284,284,284,284,284,284,284,284,284,284,284,
0,0,0,0,0,0,0,0,0,0,0,0,0,0,0,284,284,284,284,284,284,284,284,284,284,284,284,284,284,284,284,284,284,284,284,284,
0,0,0,0,0,0,0,0,0,0,0,0,0,0,0,284,284,284,284,284,284,284,284,284,284,284,284,284,284,284,284,284,284,284,284,284,
0,0,0,0,0,0,0,0,0,0,0,0,0,0,0,284,284,284,284,284,284,284,284,284,284,284,284,284,284,284,284,284,284,284,284,284,
0,0,0,0,0,0,0,0,0,0,0,0,0,0,0,284,284,284,284,284,284,284,284,284,284,284,284,284,284,284,284,284,284,284,284,284,
0,0,0,0,0,0,0,0,0,0,0,0,0,0,284,284,284,284,284,284,284,284,284,284,284,284,284,284,284,284,284,284,284,284,284,284,
0,0,0,0,0,0,0,0,0,0,0,0,0,0,284,284,284,284,284,284,284,284,284,284,284,284,284,284,284,284,284,284,284,284,284,284,
0,0,0,0,0,0,0,0,0,0,0,0,0,0,284,284,284,284,284,284,284,284,284,284,284,284,284,284,284,284,284,284,284,284,284,284
</data>
 </layer>
 <layer id="3" name="sand" width="36" height="24">
  <data encoding="csv">
0,0,0,0,0,0,0,0,0,0,0,0,0,0,0,0,0,0,0,0,0,0,0,0,0,0,0,0,0,0,0,0,0,0,0,0,
0,0,0,0,0,0,0,0,0,0,0,0,0,0,0,0,0,0,0,0,0,0,0,0,0,0,0,0,0,0,0,0,0,0,0,0,
0,0,0,0,0,0,0,0,0,0,0,0,0,0,0,0,0,0,0,0,0,0,0,0,0,0,0,0,0,0,0,0,0,0,0,0,
0,0,0,0,0,0,0,0,0,0,0,0,0,0,0,0,0,0,0,0,0,0,0,0,0,0,0,0,0,0,0,0,0,0,0,0,
0,0,0,0,0,0,0,0,0,0,0,0,0,0,0,0,0,0,0,0,0,0,0,0,0,0,0,0,0,0,0,0,0,0,0,0,
0,0,0,0,0,0,0,0,0,0,0,0,0,0,0,0,0,0,0,0,0,0,0,0,0,0,0,0,0,0,0,0,0,0,0,0,
0,0,0,0,0,0,0,0,0,0,0,0,0,0,0,0,0,0,0,0,0,0,0,0,0,0,0,121,122,122,122,122,122,122,122,122,
0,0,0,0,0,0,0,0,0,0,0,0,0,0,0,0,0,0,0,0,0,0,0,0,121,122,122,282,162,162,162,162,162,162,162,162,
0,0,0,0,0,0,0,0,0,0,0,0,0,0,0,0,0,0,0,0,0,0,0,0,161,162,162,162,162,256,257,257,257,257,257,257,
0,0,0,0,0,0,0,0,0,0,0,0,0,0,0,0,0,0,0,0,0,0,0,0,161,162,256,257,257,417,0,0,0,0,0,0,
0,0,0,0,0,0,0,0,0,0,0,0,0,0,0,0,0,0,0,0,0,0,0,0,161,162,296,0,0,0,0,0,0,0,0,0,
0,0,0,0,0,0,0,0,0,0,0,0,0,0,0,0,0,0,0,0,0,0,0,0,161,162,336,377,0,0,0,0,0,0,0,0,
0,0,0,0,0,0,0,0,0,0,0,0,0,0,0,0,0,0,0,121,122,122,122,122,282,162,162,296,0,0,0,0,0,0,0,0,
0,0,0,0,0,0,0,0,0,0,0,0,0,0,0,0,121,122,122,282,162,162,162,162,162,256,257,417,0,0,0,0,0,0,0,0,
0,0,0,0,0,0,0,0,0,0,0,0,0,0,121,122,282,162,256,257,257,257,257,257,257,417,0,0,0,0,0,0,0,0,0,0,
0,0,0,0,0,0,0,0,0,0,0,0,0,121,282,162,162,256,417,0,0,0,0,0,0,0,0,0,0,0,0,0,0,0,0,0,
0,0,0,0,0,0,0,0,0,0,0,0,0,161,162,162,162,296,0,0,0,0,0,0,0,0,0,0,0,0,0,0,0,0,0,0,
0,0,0,0,0,0,0,0,0,0,0,0,0,161,162,162,162,296,0,0,0,0,0,0,0,0,0,0,0,0,0,0,0,162,162,162,
0,0,0,0,0,0,0,0,0,0,0,0,0,161,162,162,256,417,0,0,0,0,0,0,0,0,0,0,0,0,0,162,162,162,162,162,
0,0,0,0,0,0,0,0,0,0,0,0,121,282,162,162,296,0,0,0,0,0,0,0,0,0,0,0,0,0,162,162,162,162,162,162,
0,0,0,0,0,0,0,0,0,0,0,121,282,162,256,257,417,0,0,0,0,0,0,0,0,0,0,0,0,162,162,162,162,162,162,162,
0,0,0,0,0,0,0,0,0,0,0,161,162,256,417,0,0,0,0,0,0,0,0,0,0,0,0,0,0,162,162,162,162,162,162,162,
0,0,0,0,0,0,0,0,0,0,0,161,162,296,0,0,0,0,0,0,0,0,0,0,0,0,0,0,0,162,162,162,162,162,162,162,
0,0,0,0,0,0,0,0,0,0,0,161,162,296,0,0,0,0,0,0,0,0,0,0,0,0,0,0,0,162,162,162,162,162,162,162
</data>
 </layer>
 <objectgroup id="4" name="collisions">
  <object id="1" x="218.667" y="347.667" width="21.3333" height="35.6667"/>
  <object id="2" x="235.667" y="333.333" width="36.6667" height="15.3333"/>
  <object id="5" x="268" y="298.667" width="19.3333" height="50.3333"/>
  <object id="6" x="285" y="251.333" width="17.3333" height="48.3333"/>
  <object id="7" x="301.333" y="236.333" width="111.5" height="19"/>
  <object id="8" x="412" y="218.25" width="34.25" height="15.75"/>
  <object id="9" x="444.25" y="177.5" width="19.5" height="40.5"/>
  <object id="10" x="427.25" y="156" width="51.75" height="21"/>
  <object id="11" x="477" y="140" width="101" height="18"/>
 </objectgroup>
 <objectgroup id="5" name="collisions border">
  <object id="13" x="560" y="0" width="16.6667" height="384"/>
  <object id="14" x="-1.33333" y="368" width="578" height="16"/>
  <object id="15" x="0" y="-0.666667" width="16" height="385.333"/>
  <object id="16" x="0" y="-0.666667" width="576" height="18"/>
  <object id="17" x="341.333" y="-76.6667"/>
 </objectgroup>
</map>
