<?xml version="1.0" encoding="UTF-8"?>
<map version="1.10" tiledversion="1.11.2" orientation="orthogonal" renderorder="right-down" width="18" height="30" tilewidth="16" tileheight="16" infinite="0" nextlayerid="4" nextobjectid="8">
 <tileset firstgid="1" source="../tilesets/gfx/Overworld.tsx"/>
 <layer id="1" name="ground" width="18" height="30">
  <data encoding="csv">
1,1,1,1,1,1,1,1,1,1,1,1,1,1,1,1,1,1,
1,1,1,1,1,1,1,1,1,1,1,1,1,1,1,1,1,1,
1,1,1,1,1,1,1,1,1,1,1,1,1,1,1,1,1,1,
1,1,1,1,1,1,1,1,1,1,1,1,1,1,1,1,1,1,
1,1,1,1,1,1,1,1,1,1,1,1,1,1,1,1,1,1,
1,1,1,1,1,1,1,1,1,1,1,1,1,1,1,1,1,1,
1,1,1,1,1,1,1,1,1,1,1,1,1,1,1,1,1,1,
1,1,1,1,1,1,1,1,1,1,1,1,1,1,1,1,1,1,
1,1,1,1,1,1,1,1,1,1,1,1,1,1,1,1,1,1,
1,1,1,1,1,1,1,1,1,1,1,1,1,1,1,1,1,1,
1,1,1,1,1,1,1,1,1,1,1,1,1,1,1,1,1,1,
1,1,1,1,1,1,1,1,1,1,1,1,1,1,1,1,1,1,
1,1,1,1,1,1,1,1,1,1,1,1,1,1,1,1,1,1,
1,1,1,1,1,1,1,1,1,1,1,1,1,1,1,1,1,1,
1,1,1,1,1,1,1,1,1,1,1,1,1,1,1,1,1,1,
1,1,1,1,1,1,1,1,1,1,1,1,1,1,1,1,1,1,
1,1,1,1,1,1,1,1,1,1,1,1,1,1,1,1,1,1,
1,1,1,1,1,1,1,1,1,1,1,1,1,1,1,1,1,1,
1,1,1,1,1,1,1,1,1,1,1,1,1,1,1,1,1,1,
1,1,1,1,1,1,1,1,1,1,1,1,1,1,1,1,1,1,
1,1,1,1,1,1,1,1,1,1,1,1,1,1,1,1,1,1,
1,1,1,1,1,1,1,1,1,1,1,1,1,1,1,1,1,1,
1,1,1,1,1,1,1,1,1,1,1,1,1,1,1,1,1,1,
1,1,1,1,1,1,1,1,1,1,1,1,1,1,1,1,1,1,
1,1,1,1,1,1,1,1,1,1,1,1,1,1,1,1,1,1,
1,1,1,1,1,1,1,1,1,1,1,1,1,1,1,1,1,1,
1,1,1,1,1,1,1,1,1,1,1,1,1,1,1,1,1,1,
1,1,1,1,1,1,1,1,1,1,1,1,1,1,1,1,1,1,
1,1,1,1,1,1,1,1,1,1,1,1,1,1,1,1,1,1,
1,1,1,1,1,1,1,1,1,1,1,1,1,1,1,1,1,1
</data>
 </layer>
 <layer id="3" name="border" width="18" height="30">
  <data encoding="csv">
522,523,523,523,523,523,604,0,0,0,0,602,523,523,523,523,523,524,
562,0,0,0,0,0,0,0,0,0,0,0,0,0,0,0,0,564,
562,0,0,0,0,0,0,0,0,0,0,0,0,0,0,0,0,564,
562,0,0,0,0,0,0,0,0,0,0,0,0,0,0,0,0,564,
562,0,0,0,0,0,0,0,0,0,0,0,0,0,0,0,0,564,
562,0,0,0,0,0,0,0,0,0,0,0,0,0,0,0,0,564,
562,0,0,0,0,0,0,0,0,0,0,0,0,0,0,0,0,564,
562,0,0,0,0,0,0,0,0,0,0,0,0,0,0,0,0,564,
562,0,0,0,0,0,0,0,0,0,0,0,0,0,0,0,0,564,
562,0,0,0,0,0,0,0,0,0,0,0,0,0,0,0,0,564,
562,0,0,0,0,0,0,0,0,0,0,0,0,0,0,0,0,564,
562,0,0,0,0,0,0,0,0,0,0,0,0,0,0,0,0,564,
562,0,0,0,0,0,0,0,0,0,0,0,0,0,0,0,0,564,
562,0,0,0,0,0,0,0,0,0,0,0,0,0,0,0,0,564,
562,0,0,0,0,0,0,0,0,0,0,0,0,0,0,0,0,564,
562,0,0,0,0,0,0,0,0,0,0,0,0,0,0,0,0,564,
562,0,0,0,0,0,0,0,0,0,0,0,0,0,0,0,0,564,
562,0,0,0,0,0,0,0,0,0,0,0,0,0,0,0,0,564,
562,0,0,0,0,0,0,0,0,0,0,0,0,0,0,0,0,564,
562,0,0,0,0,0,0,0,0,0,0,0,0,0,0,0,0,564,
562,0,0,0,0,0,0,0,0,0,0,0,0,0,0,0,0,564,
562,0,0,0,0,0,0,0,0,0,0,0,0,0,0,0,0,564,
562,0,0,0,0,0,0,0,0,0,0,0,0,0,0,0,0,564,
562,0,0,0,0,0,0,0,0,0,0,0,0,0,0,0,0,564,
562,0,0,0,0,0,0,0,0,0,0,0,0,0,0,0,0,564,
562,0,0,0,0,0,0,0,0,0,0,0,0,0,0,0,0,564,
562,0,0,0,0,0,0,0,0,0,0,0,0,0,0,0,0,564,
562,0,0,0,0,0,0,0,0,0,0,0,0,0,0,0,0,564,
562,0,0,0,0,0,0,0,0,0,0,0,0,0,0,0,0,564,
602,603,603,603,603,603,524,0,0,0,0,522,523,523,523,523,523,604
</data>
 </layer>
 <objectgroup id="2" name="collider">
  <object id="1" x="-0.666667" y="-1.33333" width="16.6667" height="482"/>
  <object id="2" x="-2" y="464.667" width="290" height="14.6667"/>
  <object id="4" x="272.667" y="0.666667" width="14.6667" height="478"/>
  <object id="5" x="0" y="-2" width="111.334" height="18"/>
  <object id="6" x="142.667" y="-19.3333"/>
  <object id="7" x="176.667" y="-1" width="110.333" height="16"/>
 </objectgroup>
</map>
