<?xml version="1.0" encoding="UTF-8"?>
<map version="1.10" tiledversion="1.11.2" orientation="orthogonal" renderorder="right-down" width="22" height="17" tilewidth="16" tileheight="16" infinite="0" nextlayerid="12" nextobjectid="10">
 <tileset firstgid="1" source="Tilesheet_Shadow_colorShadow_v2.tsx"/>
 <tileset firstgid="2913" source="decorative_catacombs.tsx"/>
 <tileset firstgid="3169" source="Decorations_c1.tsx"/>
 <tileset firstgid="4789" source="House_exterior.tsx"/>
 <tileset firstgid="5758" source="Waterfall.tsx"/>
 <tileset firstgid="5839" source="32x32_WaterPlants_7.tsx"/>
 <tileset firstgid="5863" source="32x32_WaterPlants_5.tsx"/>
 <tileset firstgid="5887" source="32x32_WaterPlants_4.tsx"/>
 <tileset firstgid="5911" source="32x32_WaterPlants_2.tsx"/>
 <tileset firstgid="5935" source="16x16_Water_Plants_1.tsx"/>
 <tileset firstgid="5941" source="32x32_Rock_8.tsx"/>
 <tileset firstgid="5965" source="16x32_Rock_9.tsx"/>
 <tileset firstgid="5977" source="Cliff_WorksForAll.tsx"/>
 <layer id="1" name="Ground" width="22" height="17">
  <data encoding="csv">
678,678,539,539,539,539,539,2147484136,2147484135,2147484134,2147484239,678,678,678,597,597,597,486,487,2147484134,597,2147484188,
678,539,539,539,539,539,2147484244,2147484188,2147484187,2147484186,2147484140,597,545,597,486,487,487,489,2147484187,2147484186,2147484244,597,
678,539,539,539,542,2147484193,2147484245,2147484188,2147484187,490,540,597,545,2684355105,2684355101,539,539,539,2147484187,597,2684355105,597,
678,539,539,539,487,489,536871453,2147484242,541,678,678,678,678,678,539,539,539,539,539,2147484136,2147484135,2147484134,
678,539,2147484187,2147484187,2147484187,2147484187,2147484187,2147484186,678,678,678,678,678,678,678,539,539,539,2147484244,2147484188,2147484187,2147484186,
678,539,2147484187,2147484187,2147484187,2147484187,2147484187,678,678,678,678,678,678,678,678,678,542,2147484193,2147484245,2147484188,2147484187,490,
678,591,2147484239,2147484239,591,1610613225,678,678,678,678,678,678,678,678,678,678,678,489,536871453,2147484242,2147484188,2147484187,
678,678,131,678,678,678,678,678,678,678,678,678,678,678,678,678,678,2147484187,2147484187,2147484186,2147484240,2147484238,
678,678,131,678,678,678,678,678,678,678,678,678,678,678,678,678,678,2147484187,2147484187,540,597,2147484192,
678,678,131,131,678,678,678,678,678,678,678,678,678,678,678,678,678,1610613225,2147484187,488,597,2147484193,
678,678,597,597,2147484140,678,678,678,678,678,678,678,678,678,131,131,678,538,2147484187,540,2147484193,2147484187,
678,678,597,597,2147484244,2147484245,0,678,678,678,678,678,678,678,131,131,2147484193,2147484188,2147484187,490,489,2147484187,
678,678,597,2147484193,597,597,597,0,678,678,678,678,678,678,131,131,2147484244,2147484188,2147484187,2147484187,2147484187,2147484187,
678,678,2147484135,2147484135,2147484135,2147484134,597,597,597,678,678,678,678,678,597,597,2147484140,2147484240,2147484239,2147484239,2147484190,2147484187,
678,678,2147484239,2147484239,536871402,3758096874,2147484134,2147484244,597,597,597,678,678,678,597,597,2147484244,2147484245,2147484244,2147484192,2147484188,2147484187,
678,597,597,2147484245,2147484188,2147484187,2147484186,2147484192,597,545,597,597,597,597,597,2147484193,597,597,597,2147484141,2147484188,597,
597,597,597,2147484244,2147484240,2147484239,2147484238,493,597,597,597,597,597,597,2147484135,2147484135,2147484135,2147484134,597,597,597,544
</data>
 </layer>
 <layer id="7" name="water_details" width="22" height="17">
  <data encoding="csv">
0,0,840,0,0,0,0,0,0,0,0,0,0,0,840,0,0,0,0,0,0,0,
0,0,0,0,0,0,540,0,0,0,0,0,0,0,0,0,0,0,0,0,0,0,
0,0,0,0,0,592,0,0,0,0,0,0,0,0,0,0,0,0,0,0,0,0,
0,0,0,0,540,3221225962,0,0,0,0,0,0,0,0,0,0,0,0,0,0,0,0,
0,0,0,0,490,489,0,0,0,0,0,0,0,0,0,0,0,0,540,0,0,0,
0,0,0,0,0,0,0,0,0,0,0,0,0,0,0,0,0,592,0,0,0,0,
0,0,0,893,843,0,0,0,0,0,0,0,0,0,0,0,0,3221225962,0,0,0,0,
0,0,0,0,0,0,0,0,0,0,0,0,0,0,0,0,0,489,0,0,0,0,
0,0,0,0,0,0,0,0,0,0,0,0,0,0,0,0,0,0,0,0,0,0,
0,0,0,0,0,0,0,0,0,0,0,0,0,0,0,0,0,0,0,3221226010,0,0,
0,0,789,789,791,0,0,0,0,0,0,0,0,0,0,0,0,0,0,0,486,487,
0,0,0,0,0,0,0,0,0,0,0,0,0,0,0,0,0,0,0,0,0,0,
0,0,0,0,0,0,0,0,0,0,0,0,0,0,0,0,0,0,0,0,0,0,
0,0,486,0,0,0,0,0,0,0,0,0,0,0,789,0,0,0,0,0,0,0,
0,0,590,0,0,0,0,0,0,0,0,0,0,0,0,0,0,0,0,0,0,0,
0,0,0,0,0,0,0,0,0,0,0,0,0,0,0,0,0,0,0,0,590,591,
0,0,0,0,0,0,0,0,0,0,0,0,0,0,486,0,0,0,0,0,0,0
</data>
 </layer>
 <layer id="8" name="Grass" width="22" height="17">
  <data encoding="csv">
0,0,0,0,0,0,540,0,0,0,597,0,0,0,0,0,0,0,0,0,545,597,
0,0,0,0,0,3858,0,0,0,0,0,0,0,0,0,0,0,0,0,0,0,0,
0,0,0,0,0,5911,5912,5935,0,0,0,0,0,0,0,0,0,0,2684355050,592,0,0,
0,0,0,3855,3856,5923,5924,0,0,0,0,0,0,0,0,5863,5864,0,540,0,0,0,
0,0,0,5953,5954,3857,0,0,0,0,0,0,0,0,0,5875,5876,0,0,0,0,0,
0,0,0,0,0,5971,0,0,0,0,0,0,0,0,5729,0,0,0,0,0,0,0,
0,0,0,0,0,0,0,0,0,0,0,0,5719,0,0,0,0,0,0,0,0,0,
0,0,0,0,0,0,0,0,0,0,0,0,0,0,0,0,0,0,0,0,0,0,
0,0,0,0,0,0,0,0,0,0,0,0,0,0,0,0,0,0,0,0,0,0,
0,5729,0,0,0,0,0,0,5718,0,0,0,0,0,0,0,0,0,0,0,0,0,
0,0,5839,5840,0,0,0,0,0,0,0,0,0,0,0,0,0,0,0,0,0,0,
5717,0,5851,5852,0,0,0,0,0,0,0,0,0,0,0,0,0,0,0,0,0,0,
5727,0,0,0,0,0,0,0,0,0,0,0,5729,0,0,0,0,0,0,0,0,0,
0,0,0,5863,5864,0,0,0,0,0,0,0,0,0,0,0,5887,5888,0,0,0,0,
0,0,0,5875,5876,0,0,0,0,0,0,0,0,0,0,0,5899,5900,0,0,0,0,
0,0,0,0,0,0,0,0,0,0,0,0,0,0,0,0,0,0,0,0,0,0,
0,0,0,0,0,0,0,0,0,0,0,0,0,0,0,0,0,0,0,0,0,0
</data>
 </layer>
 <layer id="3" name="Bordes" width="22" height="17">
  <data encoding="csv">
1099,1150,1150,1150,1150,1150,1150,1150,1150,1150,1150,1150,1150,1150,1150,1150,1150,1150,1150,1150,1150,1150,
1048,1722,1722,1722,1722,1722,1722,1722,1722,1722,1722,1722,1722,1722,1722,1722,1722,1722,1722,1722,1722,1722,
1048,1569,0,0,0,0,0,0,2147484491,2147484541,893,893,893,893,843,0,0,0,0,0,0,0,
1100,1518,0,0,0,0,0,2147484491,2147484540,0,0,0,0,0,892,843,0,0,0,0,0,0,
1152,1570,0,0,0,0,2147484491,2147484540,0,0,0,0,0,0,0,892,843,0,0,0,0,0,
1204,6007,0,0,0,2147484491,2147484540,0,0,0,0,0,0,0,0,0,892,843,0,0,0,0,
1256,1257,893,893,893,894,0,0,0,0,0,0,0,0,0,0,0,840,0,0,0,0,
0,0,0,0,0,0,0,0,0,0,0,0,0,0,0,0,0,840,0,0,0,0,
0,0,0,0,0,0,0,0,0,0,0,0,0,0,0,0,0,840,0,0,0,0,
0,0,0,0,0,0,0,0,0,0,0,0,0,0,0,0,0,840,0,0,0,0,
0,0,788,789,789,790,0,0,0,0,0,0,0,0,0,0,0,840,0,0,0,0,
0,0,840,0,0,2147484439,2147484436,0,0,0,0,0,0,0,0,0,788,791,0,0,0,0,
0,0,840,0,0,0,2147484439,2147484436,0,0,0,0,0,0,0,788,791,0,0,0,0,0,
0,0,840,0,0,0,0,2147484439,2147484436,0,0,0,0,0,788,791,0,0,0,0,0,0,
0,0,840,0,0,0,0,0,2147484439,2147484437,789,789,789,789,791,0,0,0,0,0,0,0,
0,788,791,0,0,0,0,0,0,0,0,0,0,0,0,0,0,0,0,0,0,0,
788,791,0,0,0,0,0,0,0,0,0,0,0,0,0,0,0,0,0,0,0,0
</data>
 </layer>
 <layer id="5" name="Rio" width="22" height="17">
  <data encoding="csv">
0,0,0,0,0,0,0,0,0,0,0,0,0,0,0,0,0,0,0,0,0,0,
0,0,0,0,0,0,0,0,0,0,0,0,0,0,0,0,0,0,0,0,0,0,
0,0,0,0,0,0,0,0,0,0,0,0,0,0,0,0,0,0,0,0,0,0,
0,0,0,0,0,0,0,0,0,0,0,0,0,0,0,0,0,0,0,0,0,0,
0,0,0,0,0,0,0,0,0,0,0,0,0,0,0,0,0,0,0,0,0,0,
0,843,0,0,0,0,0,0,0,0,0,0,0,0,0,0,0,0,0,0,0,0,
0,892,0,0,0,0,0,0,0,0,0,0,0,0,0,0,0,0,0,0,0,0,
0,0,0,0,0,0,0,0,0,0,0,0,0,0,0,0,0,0,0,0,0,0,
0,0,0,0,0,0,0,0,0,0,0,0,0,0,0,0,0,0,0,0,0,0,
0,0,0,0,0,0,0,0,0,0,0,0,0,0,0,0,0,0,0,0,0,0,
0,0,0,0,0,0,0,0,0,0,0,0,0,0,0,0,0,0,0,0,0,0,
0,0,0,0,0,0,0,0,0,0,0,0,0,0,0,0,0,0,0,0,0,0,
0,0,0,0,0,0,0,0,0,0,0,0,0,0,0,0,0,0,0,0,0,0,
0,0,0,0,0,0,0,0,0,0,0,0,0,0,0,0,0,0,0,0,0,0,
0,0,0,0,0,0,0,0,0,0,0,0,0,0,0,0,0,0,0,0,0,0,
0,0,0,0,0,0,0,0,0,0,0,0,0,0,0,0,0,0,0,0,0,0,
0,0,0,0,0,0,0,0,0,0,0,0,0,0,0,0,0,0,0,0,0,0
</data>
 </layer>
 <layer id="4" name="Puente" width="22" height="17">
  <data encoding="csv">
0,0,0,0,0,0,0,0,0,0,0,0,0,0,0,0,0,0,0,0,0,0,
0,0,0,0,0,0,0,0,0,0,0,0,0,0,0,0,0,0,0,0,0,0,
0,0,0,0,0,0,0,0,0,0,0,0,0,0,0,0,0,0,0,0,0,0,
0,0,0,0,0,0,0,0,0,0,0,0,0,0,0,0,0,0,0,0,0,0,
0,0,0,0,0,0,0,0,0,0,0,0,0,0,0,0,0,0,0,0,0,0,
0,0,0,0,0,0,0,0,0,0,0,0,0,0,0,0,0,0,0,0,0,0,
0,0,0,0,0,0,0,0,0,0,0,0,0,0,0,0,0,0,0,0,0,0,
0,0,0,0,0,0,0,0,0,0,0,0,0,0,0,0,0,995,952,952,952,953,
0,0,0,0,0,0,0,0,0,0,0,0,0,0,0,0,0,1046,1046,1046,1046,1046,
0,0,0,0,0,0,0,0,0,0,0,0,0,0,0,0,0,1099,1004,1004,1004,1005,
0,0,0,0,0,0,0,0,0,0,0,0,0,0,0,0,0,1056,1056,1056,1056,1057,
0,0,0,0,0,0,0,0,0,0,0,0,0,0,0,0,0,0,0,0,0,0,
0,0,0,0,0,0,0,0,0,0,0,0,0,0,0,0,0,0,0,0,0,0,
0,0,0,0,0,0,0,0,0,0,0,0,0,0,0,0,0,0,0,0,0,0,
0,0,0,0,0,0,0,0,0,0,0,0,0,0,0,0,0,0,0,0,0,0,
0,0,0,0,0,0,0,0,0,0,0,0,0,0,0,0,0,0,0,0,0,0,
0,0,0,0,0,0,0,0,0,0,0,0,0,0,0,0,0,0,0,0,0,0
</data>
 </layer>
 <layer id="11" name="Player" width="22" height="17">
  <data encoding="csv">
0,0,0,0,0,0,0,0,0,0,0,0,0,0,0,0,0,0,0,0,0,0,
0,0,0,0,0,0,0,0,0,0,0,0,0,0,0,0,0,0,0,0,0,0,
0,0,0,0,0,0,0,0,0,0,0,0,0,0,0,0,0,0,0,0,0,0,
0,0,0,0,0,0,0,0,0,0,0,0,0,0,0,0,0,0,0,0,0,0,
0,0,0,0,0,0,0,0,0,0,0,0,0,0,0,0,0,0,0,0,0,0,
0,0,0,0,0,0,0,0,0,0,0,0,0,0,0,0,0,0,0,0,0,0,
0,0,0,0,0,0,0,0,0,0,0,0,0,0,0,0,0,0,0,0,0,0,
0,0,0,0,0,0,0,0,0,0,0,0,0,0,0,0,0,0,0,0,0,0,
0,0,0,0,0,0,0,0,0,0,0,0,0,0,0,0,0,0,0,0,0,0,
0,0,0,0,0,0,0,0,0,0,0,0,0,0,0,0,0,0,0,0,0,0,
0,0,0,0,0,0,0,0,0,0,0,0,0,0,0,0,0,0,0,0,0,0,
0,0,0,0,0,0,0,0,0,0,0,0,0,0,0,0,0,0,0,0,0,0,
0,0,0,0,0,0,0,0,0,0,0,0,0,0,0,0,0,0,0,0,0,0,
0,0,0,0,0,0,0,0,0,0,0,0,0,0,0,0,0,0,0,0,0,0,
0,0,0,0,0,0,0,0,0,0,0,0,0,0,0,0,0,0,0,0,0,0,
0,0,0,0,0,0,0,0,0,0,0,0,0,0,0,0,0,0,0,0,0,0,
0,0,0,0,0,0,0,0,0,0,0,0,0,0,0,0,0,0,0,0,0,0
</data>
 </layer>
 <layer id="2" name="Antorchas" width="22" height="17">
  <data encoding="csv">
0,0,0,0,0,0,0,0,0,0,0,0,0,0,0,0,0,0,0,0,0,0,
0,0,0,0,0,0,0,0,0,0,0,0,0,0,0,0,0,0,0,0,0,0,
0,0,0,0,0,0,0,0,0,0,0,0,0,0,0,0,0,0,0,0,0,0,
0,0,0,0,0,0,0,0,0,0,0,0,0,0,0,0,0,0,0,0,0,0,
0,0,0,0,0,0,0,0,0,2933,0,0,0,2933,0,0,0,0,0,0,0,0,
0,0,0,0,0,0,0,0,0,2965,0,0,0,2965,0,0,0,0,0,0,0,0,
0,0,0,0,0,0,0,0,0,0,0,0,0,0,0,0,0,0,0,0,0,0,
0,0,0,0,0,0,0,2933,0,0,0,0,0,0,0,2933,0,0,0,0,0,0,
0,0,0,0,0,0,0,2965,0,0,0,0,0,0,0,2965,0,0,0,0,0,0,
0,0,0,0,0,0,0,0,0,0,0,0,0,0,0,0,0,0,0,0,0,0,
0,0,4265,4266,0,0,0,0,0,2933,0,0,0,2933,0,0,0,0,0,0,0,0,
0,0,4310,4311,0,0,0,0,0,2965,0,0,0,2965,0,0,0,0,0,0,0,0,
0,0,0,0,0,0,0,0,0,0,0,0,0,0,0,0,0,0,0,0,0,0,
0,0,0,0,0,0,0,0,0,0,0,0,0,0,0,0,0,0,0,0,0,0,
0,0,0,0,0,0,0,0,0,0,0,0,0,0,0,0,0,0,0,0,0,0,
0,0,0,0,0,0,0,0,0,0,0,0,0,0,0,0,0,0,0,0,0,0,
0,0,0,0,0,0,0,0,0,0,0,0,0,0,0,0,0,0,0,0,0,0
</data>
 </layer>
 <objectgroup id="10" name="CollisionMask">
  <object id="1" x="111" y="140">
   <polygon points="0,0 0,1.95652 0.913043,2 0.869565,2.78261 2.17391,2.82609 2.13043,3.78261 2.21739,5.52174 13,5.52174 13.0435,4.69565 15.087,4.69565 15.1739,3.82609 16.6087,3.73913 16.6087,-0.73913 -0.173913,-0.695652"/>
  </object>
  <object id="2" x="143" y="91.875">
   <polygon points="0,0 0,1.95652 0.913043,2 0.869565,2.78261 2.17391,2.82609 2.13043,3.78261 2.21739,5.52174 13,5.52174 13.0435,4.69565 15.087,4.69565 15.1739,3.82609 16.6087,3.73913 16.6087,-0.73913 -0.173913,-0.695652"/>
  </object>
  <object id="3" x="143.375" y="187.625">
   <polygon points="0,0 0,1.95652 0.913043,2 0.869565,2.78261 2.17391,2.82609 2.13043,3.78261 2.21739,5.52174 13,5.52174 13.0435,4.69565 15.087,4.69565 15.1739,3.82609 16.6087,3.73913 16.6087,-0.73913 -0.173913,-0.695652"/>
  </object>
  <object id="4" x="207.5" y="187.625">
   <polygon points="0,0 0,1.95652 0.913043,2 0.869565,2.78261 2.17391,2.82609 2.13043,3.78261 2.21739,5.52174 13,5.52174 13.0435,4.69565 15.087,4.69565 15.1739,3.82609 16.6087,3.73913 16.6087,-0.73913 -0.173913,-0.695652"/>
  </object>
  <object id="5" x="239" y="139.75">
   <polygon points="0,0 0,1.95652 0.913043,2 0.869565,2.78261 2.17391,2.82609 2.13043,3.78261 2.21739,5.52174 13,5.52174 13.0435,4.69565 15.087,4.69565 15.1739,3.82609 16.6087,3.73913 16.6087,-0.73913 -0.173913,-0.695652"/>
  </object>
  <object id="6" x="207.5" y="92.125">
   <polygon points="0,0 0,1.95652 0.913043,2 0.869565,2.78261 2.17391,2.82609 2.13043,3.78261 2.21739,5.52174 13,5.52174 13.0435,4.69565 15.087,4.69565 15.1739,3.82609 16.6087,3.73913 16.6087,-0.73913 -0.173913,-0.695652"/>
  </object>
  <object id="7" x="0.272727" y="263.455">
   <polygon points="0,0 3.72727,-7.54545 9.27273,-8 14.6364,-9.18182 17.4545,-20.4545 30.8182,-24.6364 30.1818,-39 30.1818,-61.3636 31.0909,-63.9091 30.1818,-69.1818 29.9091,-76.5455 32.2727,-78.0909 30.4545,-83.6364 30.3636,-91.9091 37.0909,-102.364 46.9091,-104.364 54.7273,-102.727 63.3636,-104.273 70.8182,-102.818 80.1818,-104.545 92.0909,-101.182 96.6364,-90.5455 99.7273,-87.4545 107.727,-86.3636 112.545,-72.9091 117,-71.0909 123.455,-70.4545 127.091,-59.2727 131.182,-55.0909 139.818,-53.0909 143.727,-41.7273 148,-38.4545 220.909,-38.4545 229.273,-53.3636 239.727,-56.1818 244.909,-71 254.727,-72.0909 260.273,-84.4545 261.273,-87 270.091,-88.1818 273,-96 269.909,-96.7273 269.818,-103.182 271.455,-106.727 276.909,-106.818 287.091,-114.364 351.455,-114.364 351.394,8.21212 -1.27273,8.54545"/>
  </object>
  <object id="8" x="-0.0909091" y="112.273">
   <polygon points="0,0 2,-1.27273 2.27273,-2.36364 11.6364,-3.36364 15.2727,-6.18182 15.8182,-9.36364 17.8182,-9.09091 19.5455,-3.27273 22.9091,-1.72727 31.0909,-0.818182 36.0909,-1 38.7273,-2.27273 44.6364,-0.454545 92.4545,-0.545455 94.4545,-6 94.2727,-9.81818 95.4545,-14 99.6364,-17.4545 104.818,-19.2727 107.909,-18.5455 110.727,-21.6364 113.091,-28.4545 111.818,-31.2727 118.091,-34.4545 119.818,-35.8182 124.182,-34 127,-38.0909 129.727,-48.0909 136.091,-52 140.273,-50.1818 142.545,-53.9091 145.909,-65.5455 221.455,-64.7273 226.818,-51.4545 234.545,-50.5455 239,-46.6364 242.273,-35.7273 252.545,-33 255.091,-31.8182 255.636,-26.0909 260.182,-18.0909 266.545,-18.8182 271.636,-15.4545 271.818,0 280.273,1.72727 290.182,8.45455 351.818,7.90909 351.591,-112.023 0.340909,-112.523"/>
  </object>
  <object id="9" x="-1.33333" y="113.333" width="2.66667" height="162"/>
 </objectgroup>
</map>
