<?xml version="1.0" encoding="UTF-8"?>
<map version="1.10" tiledversion="1.11.2" orientation="orthogonal" renderorder="right-down" width="25" height="22" tilewidth="16" tileheight="16" infinite="0" nextlayerid="17" nextobjectid="20">
 <tileset firstgid="1" source="Tilesheet_Shadow_colorShadow_v2.tsx"/>
 <tileset firstgid="2913" source="Overworld.tsx"/>
 <tileset firstgid="4353" source="U1_decorations_c1.tsx"/>
 <tileset firstgid="4997" source="Decorations_c1.tsx"/>
 <tileset firstgid="6617" source="decorative_catacombs.tsx"/>
 <tileset firstgid="6873" source="House_exterior.tsx"/>
 <tileset firstgid="7842" source="Tailset_CaveDoor.tsx"/>
 <layer id="1" name="Ground" width="25" height="22">
  <data encoding="csv">
0,0,0,0,0,0,0,0,0,0,0,0,0,0,0,0,0,0,0,0,0,0,0,0,0,
131,131,131,131,0,0,131,131,131,131,131,131,131,131,131,131,131,131,131,131,131,131,131,131,131,
131,131,131,131,131,131,131,131,131,131,131,131,131,131,131,131,131,131,131,131,131,131,131,131,131,
131,131,131,131,131,131,131,131,131,131,131,131,131,131,131,131,131,131,131,131,131,131,682,131,131,
682,682,682,682,682,682,136,680,680,680,680,680,131,131,137,680,680,138,682,682,682,136,682,131,131,
85,85,85,85,85,85,87,680,680,680,680,680,680,680,680,680,680,88,85,85,85,87,682,131,131,
131,680,680,680,680,131,131,131,131,131,131,131,131,131,131,131,131,131,131,680,680,680,680,131,682,
131,131,131,131,131,131,183,131,131,131,131,131,131,131,131,131,131,131,131,131,131,682,682,682,682,
682,682,682,682,682,682,131,131,131,131,131,131,131,131,131,131,131,132,131,682,682,682,682,682,682,
682,682,682,682,682,682,682,131,131,183,131,131,131,131,131,131,131,131,682,682,682,680,680,682,682,
682,682,680,682,682,682,682,682,131,131,131,338,131,131,131,131,131,682,682,680,680,680,680,680,682,
682,682,682,682,682,682,682,682,682,131,131,131,131,131,131,131,682,682,680,680,680,680,680,680,680,
682,680,682,682,682,682,682,682,682,131,131,131,131,131,131,682,682,682,680,680,131,131,680,680,682,
682,680,682,682,682,682,682,682,682,131,131,131,131,682,682,682,682,680,680,131,131,131,131,680,682,
682,682,682,682,682,682,682,682,682,131,131,682,682,131,131,682,682,680,131,131,131,131,131,680,680,
682,682,682,682,682,682,682,682,682,682,682,131,131,131,131,682,682,680,131,131,131,131,131,131,680,
131,682,682,682,682,682,682,682,682,682,131,131,131,131,131,682,682,680,131,131,131,131,131,131,680,
131,682,682,682,682,682,682,682,682,682,131,131,131,131,131,682,682,680,131,131,131,131,131,680,680,
131,682,682,682,682,682,682,682,682,682,131,131,131,131,131,682,682,680,131,131,131,131,131,680,680,
131,682,682,682,682,682,682,682,682,131,131,131,131,131,131,682,682,680,680,131,131,131,680,680,131,
131,682,682,682,682,682,682,682,682,131,131,131,131,131,131,131,682,682,680,680,680,680,680,682,131,
131,131,682,682,682,682,682,682,682,131,131,131,131,131,131,131,682,682,682,682,682,682,682,131,131
</data>
 </layer>
 <layer id="13" name="Sombras" width="25" height="22">
  <data encoding="csv">
0,0,0,0,0,0,0,0,0,0,0,0,0,0,0,0,0,0,0,0,0,0,0,0,0,
0,0,0,0,0,0,0,0,0,0,0,0,0,0,0,0,0,0,0,0,0,0,0,0,0,
0,0,0,0,0,0,0,0,0,0,0,0,0,0,0,0,0,0,0,0,0,0,0,0,0,
0,0,0,0,0,0,0,0,0,0,0,0,0,0,0,0,0,0,0,0,0,0,0,0,0,
0,0,0,0,0,0,0,0,0,0,0,0,137,137,137,0,0,0,0,0,0,0,0,0,0,
0,0,0,0,0,0,0,0,0,0,0,0,0,0,79,0,0,0,0,0,0,0,0,0,0,
131,131,131,131,131,0,0,0,0,0,0,0,0,0,0,0,82,79,79,79,79,79,79,79,79,
0,0,0,136,137,183,183,391,133,0,0,0,0,0,0,0,0,134,183,183,183,183,183,183,183,
0,0,0,0,0,0,137,137,390,341,0,0,0,0,0,0,134,391,138,0,0,0,0,0,682,
0,136,0,0,0,682,136,137,137,338,183,341,0,0,0,134,184,138,0,682,0,0,0,0,682,
0,136,85,85,85,682,0,189,137,137,137,130,0,0,134,184,138,0,682,682,85,85,682,682,682,
0,682,682,682,682,682,682,0,0,136,137,130,0,0,3221225602,138,0,682,682,682,682,682,682,682,682,
0,682,682,682,682,682,682,682,0,136,137,130,0,0,3221225602,138,0,682,682,682,682,682,682,682,682,
0,682,682,682,682,682,682,682,0,136,137,130,0,0,3221225602,138,0,682,682,682,682,682,682,682,682,
0,682,682,682,682,682,682,682,682,136,137,130,0,0,3221225602,138,0,682,682,682,682,682,682,682,682,
0,682,682,682,682,682,682,682,682,136,137,130,0,0,3221225602,138,0,682,682,682,682,682,682,682,682,
0,682,682,682,682,682,682,682,682,136,137,130,0,0,3221225602,138,0,682,682,682,682,682,682,682,682,
0,682,682,682,682,682,682,682,682,136,137,130,0,0,3221225602,138,0,682,682,682,682,682,682,682,682,
682,136,682,682,682,0,682,682,0,136,137,130,0,0,3221225602,138,0,682,682,682,682,682,682,682,0,
682,188,682,682,682,682,682,682,0,136,137,130,0,0,3221225602,138,0,682,682,682,682,682,682,682,682,
682,0,682,682,682,682,682,682,0,136,137,130,0,0,3221225602,138,0,682,682,682,682,682,682,682,682,
682,682,682,682,682,682,0,0,0,3221225610,130,130,0,0,0,80,85,0,682,0,0,682,0,682,682
</data>
 </layer>
 <layer id="11" name="Plataforma" width="25" height="22">
  <data encoding="csv">
0,0,0,0,0,0,0,0,0,0,0,0,0,0,0,0,0,0,0,0,0,0,0,0,0,
0,0,0,0,0,0,0,0,0,0,0,0,0,0,0,0,0,0,0,0,0,0,0,0,0,
0,0,0,0,0,0,0,0,0,0,0,0,0,0,0,0,0,0,0,0,0,0,0,0,0,
0,0,0,0,0,0,0,0,0,0,0,0,0,0,0,0,0,0,0,0,0,0,0,0,0,
0,0,0,0,0,0,0,0,0,0,0,0,0,137,137,0,0,0,0,0,0,0,1048,1049,0,
0,0,0,0,0,0,0,78,131,82,79,79,79,79,79,82,80,0,0,0,0,138,138,138,138,
3221225655,3221225655,3221225655,3221225655,3221225655,3221225655,3221225655,81,131,131,131,131,131,131,131,131,0,0,0,0,0,0,138,138,138,
0,183,183,183,183,0,0,0,133,0,0,0,0,0,0,0,0,0,0,0,0,0,0,0,0,
189,189,189,189,189,139,0,0,0,0,0,0,0,0,0,0,0,348,189,189,189,189,189,189,0,
0,0,0,0,0,188,189,139,0,0,0,0,0,0,0,0,348,346,0,0,0,0,0,0,0,
0,682,682,682,682,682,1304,344,189,139,0,0,0,0,0,348,190,0,0,0,0,0,0,0,0,
0,682,0,682,682,682,682,1304,0,0,0,0,0,0,0,0,0,0,0,0,0,0,0,0,0,
0,0,0,0,682,682,682,682,0,0,0,0,0,0,183,0,0,0,0,0,0,0,0,0,0,
0,0,0,0,0,682,682,682,0,0,0,0,0,0,0,0,0,0,0,0,0,0,0,0,0,
0,0,0,0,0,0,682,682,0,0,0,0,0,0,0,0,0,0,0,0,0,0,0,0,0,
0,0,0,0,0,0,0,0,0,0,0,0,0,0,0,0,0,0,0,0,0,0,0,0,0,
0,0,0,0,0,0,0,0,0,0,0,0,0,0,0,0,0,0,0,0,0,0,0,0,0,
0,0,0,0,0,0,0,0,0,0,0,0,0,0,0,88,86,0,0,0,0,0,0,0,0,
0,0,0,0,0,0,0,84,85,87,0,0,0,0,0,137,88,85,86,0,0,0,0,0,0,
0,0,0,0,0,0,84,87,137,137,0,0,0,0,0,137,137,137,88,85,86,0,0,0,0,
0,0,0,84,85,85,87,137,137,137,0,0,0,0,0,137,137,137,137,137,88,85,85,85,85,
0,84,85,87,137,137,137,137,137,137,78,81,0,0,82,80,137,137,137,137,137,137,137,137,0
</data>
 </layer>
 <layer id="2" name="Grass" width="25" height="22">
  <data encoding="csv">
0,0,0,0,0,0,0,0,0,0,0,0,0,0,0,0,0,0,0,0,0,0,0,0,0,
0,0,0,0,0,0,0,0,0,0,0,0,0,0,0,0,0,0,0,0,0,0,0,0,0,
0,0,0,0,0,0,0,0,0,0,0,0,0,0,0,0,0,0,0,0,0,0,0,0,0,
0,0,0,0,0,0,0,0,0,0,0,0,0,0,0,0,0,0,0,0,0,0,0,0,0,
0,0,0,0,0,0,0,0,0,0,0,0,0,0,0,0,0,0,0,0,0,0,0,0,0,
79,0,0,0,0,0,0,0,0,0,0,0,0,0,0,289,0,0,0,0,0,0,0,0,334,
332,0,0,0,0,0,0,0,0,0,0,0,0,0,0,0,0,0,0,0,0,0,0,0,334,
332,0,0,0,0,0,0,0,0,0,0,0,0,0,0,0,0,0,0,0,0,0,0,0,334,
332,0,0,0,0,0,0,0,0,0,0,0,0,0,0,0,0,0,0,0,0,0,0,0,334,
332,0,0,0,0,0,0,0,0,0,0,0,0,0,0,0,0,397,0,0,0,0,0,0,334,
332,0,0,0,0,0,0,0,0,0,0,0,0,0,0,0,0,0,0,0,0,0,0,0,334,
332,0,0,0,0,0,0,0,0,0,0,0,0,0,0,0,0,0,0,0,0,0,0,0,334,
332,0,0,0,0,0,0,0,0,0,0,0,0,134,340,0,0,0,0,4006,0,0,0,0,334,
332,0,0,0,0,0,0,0,0,0,0,182,183,184,137,0,0,0,0,0,0,0,0,0,334,
332,0,0,0,0,0,0,0,0,0,0,137,137,137,137,0,0,0,0,0,0,0,0,0,334,
332,0,0,0,0,0,0,0,0,0,0,137,137,137,137,0,0,0,0,0,0,0,0,0,334,
332,0,0,0,0,0,0,0,0,0,0,137,137,137,137,0,0,0,0,0,0,0,0,0,334,
332,0,0,0,0,0,0,0,0,0,0,137,137,137,137,0,0,0,0,0,0,0,0,0,334,
332,0,0,0,0,0,0,0,0,0,0,78,79,79,80,0,0,0,0,0,0,0,0,0,334,
332,0,0,0,0,0,0,0,0,0,0,0,0,0,0,0,0,0,0,0,0,0,0,0,334,
332,0,0,0,0,0,0,0,0,0,0,0,0,0,0,0,0,0,0,0,0,0,0,0,334,
0,385,385,385,385,385,385,385,385,335,0,0,0,0,0,336,385,385,385,385,385,385,385,385,386
</data>
 </layer>
 <layer id="10" name="deco" width="25" height="22">
  <data encoding="csv">
0,0,0,0,0,0,0,0,0,0,0,0,0,0,0,0,0,0,0,0,0,0,0,0,0,
0,0,0,0,0,0,0,0,0,0,0,0,0,0,0,0,0,0,0,0,0,0,0,0,0,
0,0,0,0,0,0,0,0,0,0,0,0,0,0,0,0,0,0,0,0,0,0,0,0,0,
0,0,0,0,0,0,0,0,0,0,0,0,0,0,0,0,0,0,0,0,0,0,0,0,0,
0,0,0,0,0,0,0,0,0,0,0,0,0,0,5578,0,0,0,0,0,0,0,0,0,0,
0,0,0,0,0,0,0,0,289,0,0,0,0,0,0,0,0,0,7813,0,0,0,0,0,0,
0,0,0,0,0,0,0,0,7813,0,0,0,0,0,0,0,0,0,0,0,0,0,0,0,0,
0,0,0,0,0,0,0,0,0,0,0,0,0,0,0,0,0,0,0,0,0,0,0,0,0,
0,0,0,0,0,0,0,0,0,0,0,0,0,0,0,0,0,0,0,0,0,0,0,0,5576,
0,0,0,0,0,0,0,0,0,0,0,0,0,0,0,0,0,0,5578,0,0,0,0,0,0,
0,0,0,0,0,0,0,0,0,0,0,0,0,0,0,0,5742,5743,0,0,0,0,0,0,0,
0,0,0,0,0,0,0,0,0,0,7813,0,0,0,0,0,5787,5788,0,0,0,0,0,0,0,
0,0,0,0,0,0,0,0,0,0,0,0,0,0,0,0,0,0,0,0,0,0,0,0,0,
0,0,0,0,0,0,0,0,0,0,0,0,0,0,0,0,0,0,0,0,0,0,0,0,0,
0,0,0,5576,0,0,0,0,0,0,0,0,0,0,0,0,0,0,0,0,0,0,0,0,0,
0,0,0,0,0,0,0,0,0,0,0,0,0,0,0,0,0,0,0,5704,0,5575,0,0,0,
0,0,0,0,7813,0,0,5578,0,0,0,0,0,0,0,0,0,0,0,0,0,0,0,0,0,
0,0,0,0,0,0,0,2147489103,0,0,0,0,0,0,7813,0,0,0,0,0,7812,0,0,0,0,
0,0,0,0,0,0,0,0,0,0,0,0,0,0,0,0,0,0,0,0,0,0,0,0,0,
0,0,0,0,0,0,0,0,0,0,0,0,0,0,0,0,0,0,0,0,0,0,0,0,0,
5575,0,0,0,0,0,0,0,0,0,0,0,0,0,0,0,0,0,0,0,0,0,0,0,0,
0,0,0,0,0,0,0,0,0,0,0,0,0,0,0,0,0,0,0,0,0,0,0,0,0
</data>
 </layer>
 <layer id="14" name="Cave" width="25" height="22">
  <data encoding="csv">
9686,9687,9680,9681,9682,9683,9684,9685,9686,9687,9896,9897,9898,9899,9900,9901,9680,9681,9682,9683,9684,9685,9686,9687,9680,
9788,9789,9782,9783,9784,9785,9786,9787,9788,9789,9998,9999,10000,10001,10002,10003,9782,9783,9784,9785,9786,9787,9788,9789,9782,
9890,9891,9884,9885,9886,9887,9888,9889,9890,9891,10100,10101,10102,10103,10104,10105,9884,9885,9886,9887,9888,9889,9890,9891,9884,
9992,9993,9986,9987,9988,9989,9990,9991,9992,9993,10202,10203,10204,10205,10206,10207,9986,9987,9988,9989,9990,9991,9992,9993,9986,
10094,10095,10088,10089,10090,10091,10092,10093,10094,10095,10304,10305,10306,10307,10308,10309,10088,10089,10090,10091,10092,10093,10094,10095,10088,
10196,10197,10190,10191,10192,10193,10194,10195,10196,10197,0,0,0,0,0,0,10190,10191,10192,10193,10194,10195,10196,682,682,
0,0,0,0,0,0,0,0,0,0,0,0,0,0,0,0,0,0,0,0,0,0,0,682,682,
0,0,0,0,0,0,0,0,0,0,0,0,0,0,0,0,0,0,0,0,0,0,0,0,0,
0,0,0,0,0,0,0,0,0,0,0,0,0,0,0,0,0,0,0,0,0,0,0,0,0,
0,0,0,0,0,0,0,0,0,0,0,0,0,0,0,0,0,0,0,0,0,0,0,0,0,
0,0,0,0,0,0,0,0,0,0,0,0,0,0,0,0,0,0,0,0,0,0,0,0,0,
0,0,0,0,0,0,0,0,0,0,0,0,0,0,0,0,0,0,0,0,0,0,0,0,0,
0,0,0,0,0,0,0,0,0,0,0,0,0,0,0,0,0,0,0,0,0,0,0,0,0,
0,0,0,0,0,0,0,0,0,0,0,0,0,0,0,0,0,0,0,0,0,0,0,0,0,
0,0,0,0,0,0,0,0,0,0,0,0,0,0,0,0,0,0,0,0,0,0,0,0,0,
0,0,0,0,0,0,0,0,0,0,0,0,0,0,0,0,0,0,0,0,0,0,0,0,0,
0,0,0,0,0,0,0,0,0,0,0,0,0,0,0,0,0,0,0,0,0,0,0,0,0,
0,0,0,0,0,0,0,0,0,0,0,0,0,0,0,0,0,0,0,0,0,0,0,0,0,
0,0,0,0,0,0,0,0,0,0,0,0,0,0,0,0,0,0,0,0,0,0,0,0,0,
0,0,0,0,0,0,0,0,0,0,0,0,0,0,0,0,0,0,0,0,0,0,0,0,0,
0,0,0,0,0,0,0,0,0,0,0,0,0,0,0,0,0,0,0,0,0,0,0,0,0,
0,0,0,0,0,0,0,0,0,0,0,0,0,0,0,0,0,0,0,0,0,0,0,0,0
</data>
 </layer>
 <layer id="16" name="Player" width="25" height="22">
  <data encoding="csv">
0,0,0,0,0,0,0,0,0,0,0,0,0,0,0,0,0,0,0,0,0,0,0,0,0,
0,0,0,0,0,0,0,0,0,0,0,0,0,0,0,0,0,0,0,0,0,0,0,0,0,
0,0,0,0,0,0,0,0,0,0,0,0,0,0,0,0,0,0,0,0,0,0,0,0,0,
0,0,0,0,0,0,0,0,0,0,0,0,0,0,0,0,0,0,0,0,0,0,0,0,0,
0,0,0,0,0,0,0,0,0,0,0,0,0,0,0,0,0,0,0,0,0,0,0,0,0,
0,0,0,0,0,0,0,0,0,0,0,0,0,0,0,0,0,0,0,0,0,0,0,0,0,
0,0,0,0,0,0,0,0,0,0,0,0,0,0,0,0,0,0,0,0,0,0,0,0,0,
0,0,0,0,0,0,0,0,0,0,0,0,0,0,0,0,0,0,0,0,0,0,0,0,0,
0,0,0,0,0,0,0,0,0,0,0,0,0,0,0,0,0,0,0,0,0,0,0,0,0,
0,0,0,0,0,0,0,0,0,0,0,0,0,0,0,0,0,0,0,0,0,0,0,0,0,
0,0,0,0,0,0,0,0,0,0,0,0,0,0,0,0,0,0,0,0,0,0,0,0,0,
0,0,0,0,0,0,0,0,0,0,0,0,0,0,0,0,0,0,0,0,0,0,0,0,0,
0,0,0,0,0,0,0,0,0,0,0,0,0,0,0,0,0,0,0,0,0,0,0,0,0,
0,0,0,0,0,0,0,0,0,0,0,0,0,0,0,0,0,0,0,0,0,0,0,0,0,
0,0,0,0,0,0,0,0,0,0,0,0,0,0,0,0,0,0,0,0,0,0,0,0,0,
0,0,0,0,0,0,0,0,0,0,0,0,0,0,0,0,0,0,0,0,0,0,0,0,0,
0,0,0,0,0,0,0,0,0,0,0,0,0,0,0,0,0,0,0,0,0,0,0,0,0,
0,0,0,0,0,0,0,0,0,0,0,0,0,0,0,0,0,0,0,0,0,0,0,0,0,
0,0,0,0,0,0,0,0,0,0,0,0,0,0,0,0,0,0,0,0,0,0,0,0,0,
0,0,0,0,0,0,0,0,0,0,0,0,0,0,0,0,0,0,0,0,0,0,0,0,0,
0,0,0,0,0,0,0,0,0,0,0,0,0,0,0,0,0,0,0,0,0,0,0,0,0,
0,0,0,0,0,0,0,0,0,0,0,0,0,0,0,0,0,0,0,0,0,0,0,0,0
</data>
 </layer>
 <layer id="8" name="Tree" width="25" height="22">
  <data encoding="csv">
0,0,0,0,0,0,0,0,0,0,0,0,0,0,0,0,0,0,0,0,0,0,0,0,0,
0,0,0,0,0,0,0,0,0,0,0,0,0,0,0,0,0,0,0,0,0,0,5063,5064,5065,
0,0,0,0,0,0,0,0,0,0,0,0,0,0,0,0,0,0,0,0,0,0,5108,5109,5110,
0,0,0,0,0,0,0,0,0,0,0,0,0,0,0,0,0,0,0,0,0,0,5153,5154,5155,
0,4376,4377,4378,4379,4380,0,0,0,0,0,0,0,0,0,0,0,0,0,0,0,0,5198,5199,5200,
0,4404,4405,4406,4407,4408,0,0,0,0,0,0,0,0,0,0,0,0,0,0,0,0,5243,5244,5245,
0,4432,4433,4434,4435,4436,0,0,0,0,0,0,0,0,0,0,0,0,0,0,0,0,5288,5289,5290,
0,4460,4461,4462,4463,4464,0,0,0,0,0,0,0,0,0,0,0,0,0,0,0,0,5333,5334,5335,
0,4488,4489,4490,4491,4492,0,0,0,0,0,0,0,0,0,0,0,0,0,0,0,0,5378,5379,5380,
0,4516,4517,4518,4519,4520,0,0,0,0,0,0,0,0,0,0,0,0,0,0,0,0,0,0,0,
0,4544,4545,4546,4547,4548,0,0,0,0,0,0,0,0,0,0,0,0,0,0,0,0,0,5063,5064,
0,4572,4573,4574,4575,4576,0,0,0,0,0,0,0,0,0,0,0,0,0,0,0,0,4404,4405,4406,
0,4600,4601,4602,4603,4604,0,0,0,0,0,0,0,0,0,0,0,0,5499,5500,0,0,4432,4433,4434,
0,4628,4629,4630,4631,4632,0,0,0,0,0,0,0,0,0,0,0,0,5544,5545,0,0,4460,4461,4462,
0,4656,4657,4658,4659,4660,0,0,0,0,0,0,0,0,0,0,0,0,5589,5590,0,0,4488,4489,4490,
0,0,0,0,0,5596,5597,5598,0,0,0,0,0,0,0,0,0,5633,5634,5635,0,0,4516,4517,4518,
0,0,0,0,0,5641,5642,5643,0,0,0,0,0,0,0,0,0,0,0,0,0,0,4544,4545,4546,
0,0,0,0,0,0,0,0,0,0,0,0,0,0,0,0,0,0,0,0,0,0,4572,4573,4574,
0,0,0,0,0,0,0,0,0,0,0,0,0,0,0,0,0,0,0,0,0,0,4600,4601,4602,
0,0,0,0,0,0,0,0,0,0,0,0,0,0,0,0,0,0,0,0,0,0,4628,4629,4630,
0,0,0,0,0,0,0,0,0,0,0,0,0,0,0,0,0,0,0,0,0,0,4656,4657,4658,
384,0,0,0,0,0,0,0,0,0,0,0,0,0,0,0,0,0,0,0,0,0,0,0,0
</data>
 </layer>
 <layer id="9" name="Tree2" width="25" height="22">
  <data encoding="csv">
4365,4366,4367,0,0,0,0,0,0,0,0,0,0,0,0,0,0,0,0,0,0,0,0,0,0,
4393,4394,4395,0,0,0,0,0,0,0,0,0,0,0,0,0,0,0,0,0,0,0,0,0,0,
4421,4422,4423,0,0,0,0,0,0,0,0,0,0,0,0,0,0,0,0,0,0,0,0,0,0,
4449,4450,4451,0,0,0,0,0,0,0,0,0,0,0,0,0,0,0,0,4363,4364,4365,4366,4367,0,
4477,4478,4479,0,0,0,0,0,0,0,0,0,0,0,0,0,0,0,0,4391,4392,4393,4394,4395,0,
4505,4506,4507,0,0,0,0,0,0,0,0,0,0,0,0,0,0,0,0,4419,4420,4421,4422,4423,0,
4533,4534,4535,0,0,0,0,0,0,0,0,0,0,0,0,0,0,0,0,4447,4448,4449,4450,4451,0,
4561,4562,4563,0,0,0,0,0,0,0,0,0,0,0,0,0,0,0,0,4475,4476,4477,4478,4479,0,
4589,4590,4591,0,0,0,0,0,0,0,0,0,0,0,0,0,0,0,0,4503,4504,4505,4506,4507,0,
4617,4618,4619,0,0,0,0,0,0,0,0,0,0,0,0,0,0,0,0,4531,4532,4533,4534,4535,0,
4645,4646,4647,0,0,0,0,0,0,0,0,0,0,0,0,0,0,0,0,4559,4560,4561,4562,4563,0,
4673,4674,4675,0,0,0,0,0,0,0,0,0,0,0,0,0,0,0,0,4587,4588,4589,4590,4591,0,
4701,4702,4703,0,0,0,0,0,0,0,0,0,0,0,0,0,0,0,0,4615,4616,4617,4618,4619,0,
5064,5065,5066,0,0,0,0,0,0,0,0,0,0,0,0,0,0,0,0,4643,4644,4645,4646,4647,0,
5109,5110,5111,0,0,0,0,0,0,0,0,0,0,0,0,0,0,5579,5580,4671,4672,4673,4674,4675,0,
5154,5155,5156,0,0,0,0,0,0,0,0,0,0,0,0,0,0,0,5625,4699,4700,4701,4702,4703,0,
5199,5200,5201,0,0,0,0,0,0,0,0,0,0,0,0,0,0,0,0,0,0,0,0,0,0,
5244,5245,5246,0,0,0,0,0,0,0,0,0,0,0,0,0,0,0,0,0,0,0,0,0,0,
5289,5290,5291,0,0,0,0,0,0,0,0,0,0,0,0,0,0,0,0,0,0,0,0,0,0,
5334,5335,5336,0,0,0,0,0,0,0,0,0,0,0,0,0,0,0,0,0,0,0,0,0,0,
5379,5380,5381,0,0,0,0,0,0,0,0,0,0,0,0,0,0,0,0,0,0,0,0,0,0,
0,0,0,0,0,0,0,0,0,0,0,0,0,0,0,0,0,0,0,0,0,0,0,0,0
</data>
 </layer>
 <layer id="12" name="deco2" width="25" height="22">
  <data encoding="csv">
0,0,0,0,0,0,0,0,0,0,0,0,0,0,0,0,0,0,0,0,0,0,0,0,0,
0,0,5202,5203,0,0,0,0,0,0,0,0,0,0,0,0,0,0,0,0,0,0,0,0,0,
0,0,5247,5248,5249,0,0,0,0,0,0,0,0,0,0,0,0,0,0,0,0,0,0,0,0,
0,0,5292,5293,5294,0,0,0,0,0,0,0,0,0,0,0,0,0,0,0,0,0,0,0,0,
0,0,5337,5338,5339,0,0,0,0,0,0,0,0,0,0,0,0,0,0,0,0,0,0,0,0,
0,0,5382,5383,5384,0,0,0,0,0,0,0,0,0,0,0,0,0,0,0,0,0,0,0,0,
0,0,0,0,0,0,0,0,0,0,0,0,0,0,0,0,0,0,0,0,0,0,0,0,0,
0,0,0,0,0,0,0,0,0,0,0,0,0,0,0,0,0,0,0,0,0,0,0,0,0,
0,0,0,0,0,0,0,0,0,0,0,0,0,0,0,0,0,0,0,0,0,0,0,0,0,
0,0,0,0,0,0,0,0,0,0,0,0,0,0,0,0,0,0,0,0,0,0,0,0,0,
0,0,0,0,0,0,0,0,0,0,0,0,0,0,0,0,0,0,0,0,0,0,0,0,0,
0,0,0,0,0,0,0,0,0,0,0,0,0,0,0,0,0,0,0,0,0,0,0,0,0,
0,0,0,0,0,0,0,0,0,0,0,0,0,0,0,0,0,0,0,0,0,0,0,0,0,
0,0,0,0,0,0,0,0,0,0,0,0,0,0,0,0,0,0,0,0,0,0,0,0,0,
0,0,0,0,0,0,0,0,0,0,0,0,0,0,0,0,0,0,0,0,0,0,0,0,0,
0,0,0,0,0,0,0,0,0,0,0,0,0,0,0,0,0,0,0,0,0,0,0,0,0,
0,0,0,0,0,0,0,0,0,0,0,0,0,0,0,0,0,0,0,0,0,0,0,0,0,
0,0,0,0,0,0,0,0,0,0,0,0,0,0,0,0,0,0,0,0,0,0,0,0,0,
0,0,0,0,0,0,0,0,0,0,0,0,0,0,0,0,0,0,0,0,0,0,0,0,0,
0,0,0,0,0,0,0,0,0,0,0,0,0,0,0,0,0,0,0,0,0,0,0,0,0,
0,0,0,0,0,0,0,0,0,0,0,0,0,0,0,0,0,0,0,0,0,0,0,0,0,
0,0,0,0,0,0,0,0,0,0,0,0,0,0,0,0,0,0,0,0,0,0,0,0,0
</data>
 </layer>
 <objectgroup id="15" name="CollisionMask">
  <object id="1" x="153.951" y="350.521">
   <polygon points="-0.363636,1.81818 -3.3676,-5.49889 -11.1966,-10.2482 -131.805,-11.3801 -135.594,-14.3883 -133.454,-16.3435 -127.373,-17.188 -121.053,-19.2654 -119.319,-22.4346 -125.423,-30.2236 -141.587,-31.6585 -142.494,-106.15 -145.207,-107.774 -143.499,-109.772 -142.481,-114.27 -144.924,-122.02 -142.92,-128.397 -141.949,-141.449 -136.86,-146.607 -132.569,-147.604 -126.602,-148.923 -123.248,-153.626 -130.032,-162.214 -138.514,-173.714 -140.904,-269.197 -120.465,-273.546 -111.767,-273.981 -92.1967,-266.588 -72.6266,-266.153 -63.4773,-268.514 -57.9575,-269.319 -56.429,-273.241 -50.9547,-271.615 -40.0698,-271.871 -33.2739,-272.787 -25.5777,-272.309 -18.2003,-266.955 -6.52074,-266.218 4.93913,-269.028 8.95001,-274.602 16.0726,-271.743 23.2445,-272.048 25.0231,-279.773 26.169,-285.915 -153.516,-282.679 -154.014,1.30989"/>
  </object>
  <object id="2" x="39.5455" y="229.254">
   <polygon points="0.386162,0.213073 5.20666,5.2853 10.7397,10.1819 20.9587,10.3162 25.1604,6.8067 29.3905,3.44286 34.4613,-1.41159 31.372,-6.3477 2.0145,-5.99851"/>
  </object>
  <object id="3" x="80.4547" y="260.499">
   <polygon points="-1,-0.0909091 4.20639,5.56266 18.8035,8.91156 32.0074,8.13269 37.6303,11.0827 46.2236,10.4595 47.4616,2.04617 45.9165,-4.7715 39.0815,-6.00771 2.99797,-5.98271"/>
  </object>
  <object id="4" x="109.157" y="280.504">
   <polygon points="1.27273,-0.272727 7.37348,6.10812 14.4939,6.74448 20.1474,2.83047 16.9589,-1.17677 14.9681,-5.60197 5.61273,-5.56786"/>
  </object>
  <object id="5" x="277.895" y="240.929">
   <polygon points="-0.875,2.4375 3.93914,7.86205 14.4191,10.7629 23.1169,10.7629 31.677,7.84286 38.7052,3.80467 39.6765,-7.14574 8.67294,-7.11884 1.67967,-6.08324"/>
  </object>
  <object id="6" x="330.082" y="241.799">
   <polygon points="-1,2.5 5.98523,10.4427 12.4816,12.5025 17.9468,12.1233 19.0049,8.58846 28.3181,7.95969 30.2313,1.26044 26.135,-6.37747 4.84629,-6.70302"/>
  </object>
  <object id="7" x="243.973" y="352.261">
   <polygon points="0,0 15.656,-12.6118 136.121,-12.1769 142.866,-14.5728 141.688,-16.0698 140.126,-18.9851 137.972,-20.7929 133.662,-23.1305 131.468,-25.6369 135.033,-29.6818 136.419,-40.2034 148.014,-41.1832 145.623,-204.573 142.857,-207.016 136.925,-207.617 130.543,-209.234 127.053,-212.648 126.923,-215.445 131.772,-220.924 146.558,-220.924 145.688,-262.239 143.34,-269.012 131.935,-268.185 123.076,-268.272 113.701,-269.945 110.598,-273.489 100.496,-275.944 90.1252,-272.847 81.6242,-275.585 77.8242,-273.61 74.2323,-270.396 68.741,-270.307 64.7669,-268.687 58.5761,-268.371 50.6131,-269.508 44.2338,-273.96 42.7567,-275.396 40.1453,-273.929 33.4659,-273.192 23.4018,-272.584 19.0779,-274.124 17.0323,-277.158 13.2479,-277.124 10.4989,-275.619 2.44439,-275.58 -3.5364,-274.296 -10.6088,-271.463 -17.335,-272.869 -16.9607,-281.374 -7.82802,-290.072 156.56,-289.202 154.821,-1.30467"/>
  </object>
  <object id="12" x="55.5" y="87"/>
  <object id="15" x="47.5" y="207.5" width="17.5" height="15.5"/>
  <object id="16" x="115" y="236"/>
  <object id="18" x="140.5" y="341.5" width="111.5" height="10"/>
 </objectgroup>
</map>
