<?xml version="1.0" encoding="UTF-8"?>
<map version="1.10" tiledversion="1.11.2" orientation="orthogonal" renderorder="right-down" width="32" height="20" tilewidth="16" tileheight="16" infinite="0" nextlayerid="19" nextobjectid="9">
 <tileset firstgid="1" source="IceCaveObjects.tsx"/>
 <tileset firstgid="265" source="decorative_cave.tsx"/>
 <tileset firstgid="1825" source="decorative_catacombs.tsx"/>
 <tileset firstgid="2081" source="Tailset_CaveDoor.tsx"/>
 <layer id="1" name="Ground" width="32" height="20">
  <data encoding="csv">
6062,6063,6064,11319,11319,11319,7547,7548,7549,7550,7959,7960,7961,11319,11319,11319,11319,11319,11319,11319,11319,11319,11319,11319,11319,11319,11319,11319,11319,11319,11319,11319,
5960,5961,5962,11319,11319,11319,7649,7650,7651,7652,7959,7960,7961,11319,11319,11319,11319,11319,11319,11319,11319,11319,11319,11319,11319,11319,11319,11319,11319,11319,11319,11319,
6062,6063,6064,11319,11319,11319,7751,7752,7753,7754,7959,7960,7961,11319,11319,11319,11319,11319,11319,11319,11319,11319,11319,11319,11319,11319,11319,11319,11319,11319,11319,11319,
5150,5369,5369,11319,11319,11319,11319,11319,11319,11319,11319,11319,11319,11319,11319,11319,11319,11319,11319,11319,11319,11319,11319,11319,11319,11319,11319,11319,11319,11319,11319,11319,
5150,5369,5369,11319,11319,11319,11319,11319,11319,5150,11319,11319,11319,11319,11319,11319,11319,11319,11319,7564,7565,7566,11319,11319,11319,11319,11319,11319,11319,11319,11319,11319,
2904,7969,7969,11319,11319,11319,11319,11319,11319,11319,11319,11319,11319,11319,11319,11319,11319,11319,11319,7666,7667,7668,2147491214,2147491213,2147491212,11319,11319,11319,11319,11319,11319,11319,
11319,7969,5369,11319,11319,11319,11319,11319,11319,11319,11319,11319,11319,11319,11319,11319,11319,11319,11319,7768,7769,7770,2147491316,2147491315,2147491314,11319,11319,11319,11319,11319,11319,11319,
11319,7969,11319,11319,11319,11319,11319,11319,11319,11319,11319,11319,11319,11319,11319,11319,11319,11319,11319,7870,7871,7872,2147491418,2147491417,2147491416,11319,11319,11319,11319,11319,11319,11319,
11319,7969,11319,11319,11319,11319,11319,11319,11319,11319,11319,11319,11319,11319,11319,11319,11319,11319,11319,7972,7973,7974,2147491520,2147491519,2147491518,11319,11319,11319,11319,11319,11319,11319,
11319,7969,11319,11319,11319,11319,11319,11319,11319,11319,11319,11319,11319,11319,11319,11319,11319,11319,11319,8074,8075,8076,2147491622,2147491621,2147491620,11319,11319,11319,11319,11319,11319,11319,
11319,7969,11319,11319,11319,11319,11319,11319,11319,11319,11319,11319,11319,11319,11319,11319,11319,11319,11319,8176,8063,8064,8065,8066,2147491722,11319,11319,11319,11319,11319,11319,11319,
11319,7969,11319,11319,11319,11319,11319,11319,11319,11319,11319,11319,11319,11319,11319,11319,11319,11319,11319,11319,8165,8166,8167,8168,2147491824,11319,11319,11319,11319,11319,11319,11319,
11319,7969,11319,11319,11319,11319,11319,11319,11319,11319,11319,11319,11319,11319,11319,11319,11319,11319,11319,11319,8267,8268,8269,8270,11319,11319,11319,11319,11319,11319,11319,11319,
11319,7969,11319,11319,11319,11319,11319,11319,11319,11319,11319,11319,11319,11319,11319,11319,11319,7856,7857,7858,8369,8370,8371,8372,11319,11319,11319,11319,11319,11319,11319,11319,
11319,7969,11319,11319,11319,11319,11319,11319,11319,11319,11319,11319,11319,11319,11319,11319,11319,7856,7857,7858,7859,11319,11319,11319,11319,11319,11319,11319,11319,11319,11319,11319,
2904,7969,11319,11319,11319,11319,11319,11319,11319,11319,11319,11319,11319,11319,11319,11319,11319,7856,7857,7858,7859,11319,11319,11319,11319,11319,11319,11319,11319,11319,11319,11319,
11319,7969,11319,11319,11319,11319,11319,11319,11319,11319,11319,11319,11319,11319,11319,11319,11319,7856,7857,7858,7859,11319,11319,11319,11319,11319,11319,11319,11319,11319,11319,11319,
11319,7969,11319,11319,11319,11319,11319,11319,11319,11319,11319,11319,11319,11319,11319,11319,7856,7857,7858,7859,7859,11319,11319,11319,11319,11319,11319,11319,11319,11319,11319,11319,
7969,7969,11319,11319,11319,11319,11319,11319,11319,11319,11319,11319,11319,11319,11319,11319,7856,7857,7858,7859,7961,11319,11319,11319,11319,11319,11319,11319,11319,11319,11319,11319,
11319,11319,11319,11319,11319,11319,11319,11319,11319,11319,11319,11319,11319,11319,11319,11319,7958,7959,7960,7961,11319,11319,11319,11319,11319,11319,11319,11319,11319,11319,11319,11319
</data>
 </layer>
 <layer id="9" name="sombras" width="32" height="20">
  <data encoding="csv">
0,0,0,0,0,0,0,0,2147491405,0,0,0,0,2147491605,2147491605,2147491604,2147491603,2147491711,2147491710,2147491709,2147491708,2147491707,6685,6686,6687,6688,6689,6690,0,0,0,0,
0,0,0,0,0,0,0,0,2147491507,2147491310,0,0,0,2147491707,2147491707,2147491706,2147491705,2147491813,2147491812,2147491811,2147491810,2147491809,6787,6788,6789,6790,6791,6792,0,0,0,0,
0,0,0,0,0,0,0,0,2147491609,0,0,0,0,2147491809,2147491809,2147491808,2147491807,2147491915,2147491914,2147491913,2147491912,2147491911,6889,6890,6891,6892,6893,6894,0,0,0,0,
0,0,0,2147489694,11127,2147491408,2147491407,2147491406,2147491712,2147491711,2147491710,2147491709,2147491708,2147491707,2147491706,2147491705,2147492018,2147492017,2147492016,2147492015,2147492014,2147492013,6991,6992,6993,6994,6995,6996,0,0,0,0,
0,0,0,2147489796,0,0,6750,6750,6750,6750,2147491812,2147491811,2147491810,2147491809,2147491808,2147491807,0,0,0,0,0,0,7093,7094,7095,7096,7097,7098,0,0,0,0,
0,2222,2223,2224,2225,2226,6750,6750,6750,6750,2147491914,2147491913,2147491912,2147491911,2147491910,2147491909,0,0,0,0,0,0,7195,7196,7197,7198,7199,7200,0,0,0,0,
6214,2324,2325,2326,2327,2328,6750,6750,6750,2147492017,2147492016,2147492015,2147492014,2147492013,2147492012,2147492011,0,0,0,0,0,0,0,0,0,0,0,0,0,0,0,0,
0,2426,2427,2428,2429,2430,6214,6750,6750,0,0,0,0,0,0,0,0,0,0,0,0,0,0,0,0,0,0,0,0,0,0,0,
6214,2528,2529,2530,2531,2532,6750,6750,4768,4769,0,0,0,0,0,0,0,0,0,0,0,0,0,0,0,0,0,0,0,0,0,0,
6214,2630,2631,2632,2633,2634,6750,4869,4870,4871,2147492020,2147492019,0,0,2147489591,2147489590,2147489589,7547,7548,7549,7550,0,0,0,0,0,0,0,0,0,0,0,
0,2732,2733,2734,2735,2736,6750,4971,4972,0,2147489592,0,0,0,2147489693,2147489692,2147489691,7649,7650,7651,7652,8063,8064,8065,8066,2147484209,0,0,0,0,0,0,
0,2834,2835,2836,2837,2838,6750,5073,5074,0,2147489694,0,0,0,1073750085,1073750086,1073750087,7751,7752,7753,7754,8165,8166,8167,8168,0,0,0,0,0,0,0,
0,2936,2937,2938,2939,2940,0,0,0,0,2147489796,0,0,0,1073749983,1073749984,1073749985,1073749986,1073749987,1073749988,7959,7863,7864,7865,8270,0,0,0,0,0,0,0,
0,3038,3039,3040,3041,3042,0,0,0,0,2147489898,0,0,0,1073749881,1073749882,1073749883,1073749884,1073749885,1073749886,7959,7965,7966,7967,8372,0,0,0,0,0,0,0,
0,3140,3141,3142,3143,3144,0,0,0,0,0,0,0,1073749983,1073749984,1073749985,1073749985,0,0,0,0,1073749785,7656,7657,1073749788,0,0,0,0,0,0,0,
0,3242,3243,3244,3245,3246,0,0,0,0,0,0,0,1073749881,1073749882,1073749883,1073749883,0,0,0,0,1073749683,1073749684,1073749685,1073749686,0,0,0,0,0,0,0,
2221,2222,2223,2224,2225,2226,0,0,0,2147489795,2147489794,2147489793,0,1073749779,1073749780,1073749781,1073749781,2147484255,2147484254,2147484253,2147484235,1073749581,1073749582,1073749583,1073749584,0,0,0,0,0,0,0,
2323,2324,2325,2326,2327,2328,0,0,0,2147489897,2147489896,2147489895,0,1073749677,1073749678,1073749679,1073749679,2147484281,2147484280,2147484279,2147484261,1073749479,1073749483,1073749484,1073749485,0,0,0,0,0,0,0,
2425,2426,2427,2428,2429,2430,0,0,0,0,0,0,0,1073749575,1073749576,1073749577,1073749577,2147484307,2147484306,2147484305,2147484287,1073749377,1073749483,0,0,0,0,0,0,0,0,0,
2527,2528,2529,2530,2531,2532,0,0,0,0,0,0,0,0,0,0,0,0,0,0,2147484313,0,0,0,0,0,0,0,0,0,0,0
</data>
 </layer>
 <layer id="10" name="sombras2" width="32" height="20">
  <data encoding="csv">
0,0,0,0,0,0,0,0,0,0,0,0,0,0,0,0,0,0,0,0,0,0,0,0,0,0,0,0,0,0,0,0,
0,0,0,0,0,0,0,0,0,0,0,0,0,0,0,0,0,0,0,0,0,0,0,0,0,0,0,0,0,0,0,0,
0,0,0,0,0,0,0,0,0,0,0,0,0,0,0,0,0,0,0,7959,0,0,0,0,0,0,0,0,0,0,0,0,
0,0,0,0,0,0,0,0,0,0,0,0,0,0,0,0,0,0,0,7959,7959,0,0,0,0,0,0,0,0,0,0,0,
0,0,0,0,0,0,0,0,0,0,0,0,0,0,0,0,0,0,0,7959,7959,7959,0,0,0,0,0,0,0,0,0,0,
0,0,0,0,0,0,0,0,0,0,0,0,0,0,0,0,0,0,0,8263,7959,7959,0,0,0,0,0,0,0,0,0,0,
0,0,0,0,0,0,0,0,0,0,0,0,0,0,0,0,0,0,0,0,0,7959,7959,0,7549,0,0,0,0,0,0,0,
0,0,0,0,0,0,0,0,0,0,0,0,0,0,0,0,0,0,0,0,0,0,7959,7959,8066,0,0,0,0,0,0,0,
0,0,0,0,0,0,0,0,0,0,0,0,0,0,0,0,0,0,0,0,0,0,0,0,0,0,0,0,0,0,0,0,
0,0,0,0,0,0,0,0,0,0,0,0,0,0,0,0,0,0,0,7751,7959,0,0,0,1610620393,0,0,0,0,0,0,0,
0,0,0,0,0,0,0,0,0,0,0,0,0,0,0,0,0,0,0,0,0,0,2147484348,2147484347,2147484346,2147484345,2147484344,0,0,0,0,0,
0,0,0,0,0,0,0,0,0,9519,9520,0,0,0,0,0,0,0,0,0,0,0,0,0,0,0,0,0,0,0,0,0,
0,0,0,0,0,0,0,0,0,9519,9520,0,0,0,0,0,0,0,0,0,0,0,0,0,0,0,0,0,0,0,0,0,
0,0,0,0,0,0,0,0,0,9621,9622,0,0,0,0,0,0,0,0,0,0,0,0,0,0,0,0,0,0,0,0,0,
0,0,0,0,0,0,0,0,0,9825,9826,9827,0,0,0,0,0,0,0,0,4755,4756,4757,4758,0,0,0,0,0,0,0,0,
0,0,0,0,0,0,0,0,0,0,0,0,0,0,0,0,0,0,0,0,4857,4858,4859,4860,0,0,0,0,0,0,0,0,
0,0,0,0,0,0,0,0,0,0,0,0,0,0,0,0,0,2147484374,2147484373,2147484372,2147484371,2147484370,5563,5564,0,0,0,0,0,0,0,0,
0,0,0,0,0,0,0,0,0,0,0,0,0,0,0,0,0,2147484400,2147484399,2147484398,2147484397,2147484396,5665,5666,0,0,0,0,0,0,0,0,
0,0,0,0,0,0,0,0,0,0,0,0,0,0,0,0,0,2147484426,2147484425,2147484424,2147484423,2147484422,5767,5768,0,0,0,0,0,0,0,0,
0,0,0,0,0,0,0,0,0,0,0,0,0,0,0,0,0,2147484452,2147484451,2147484450,2147484449,2147484448,5869,5870,0,0,0,0,0,0,0,0
</data>
 </layer>
 <layer id="12" name="paredes2" width="32" height="20">
  <data encoding="csv">
0,0,0,0,0,6268,0,0,0,0,0,0,0,0,0,0,0,0,0,0,0,0,0,0,0,0,0,0,0,0,5560,5561,
0,0,0,0,0,6370,0,0,0,0,0,0,0,0,0,0,0,0,0,0,0,0,0,0,0,0,0,0,0,0,5662,5663,
0,0,0,0,0,0,0,0,0,0,0,0,0,0,0,0,0,0,0,0,0,0,0,0,0,0,0,0,0,0,5152,5153,
0,0,0,0,0,0,0,0,0,0,0,0,0,0,0,0,0,0,7955,7956,0,0,0,0,0,0,0,0,0,0,5254,5255,
0,0,0,0,0,0,0,0,0,0,0,0,0,0,0,0,0,0,8057,0,0,0,0,0,0,0,0,0,0,0,5356,5357,
0,0,0,0,0,0,0,0,0,0,0,0,0,0,0,0,0,0,8159,0,0,0,0,0,0,0,195,196,0,0,5458,5459,
0,0,0,0,0,0,0,0,2147489215,2147489214,2684360099,0,0,0,0,0,0,11221,0,0,0,0,0,0,0,0,217,218,0,0,5560,5561,
2147488824,0,0,0,0,0,0,0,2147489317,2147489316,2684360100,0,0,0,0,0,0,0,0,0,0,0,0,0,0,1,2,229,0,0,5662,5663,
0,0,0,0,0,0,0,0,0,0,2684361099,0,0,0,0,0,0,0,0,0,0,0,0,0,0,23,24,251,0,0,5470,5471,
0,0,0,0,0,0,0,0,0,0,2684361100,0,0,0,0,0,0,0,0,0,0,0,0,0,0,0,0,0,0,0,0,0,
0,0,0,0,0,0,0,0,0,2147493372,2147493371,0,0,0,0,0,0,0,0,0,0,0,0,0,0,0,0,0,0,0,0,0,
0,0,0,0,0,0,0,0,0,0,2147493473,0,0,0,0,0,0,0,0,0,0,0,0,0,0,0,0,0,0,0,0,0,
0,5681,0,0,0,0,5682,5683,5684,0,0,0,0,0,0,0,0,0,0,0,0,0,0,0,0,0,0,0,0,0,0,0,
0,5783,0,0,0,0,5784,5785,5786,0,0,0,0,0,0,0,0,7799,0,0,0,0,0,0,0,0,0,0,0,0,0,0,
2147489844,5885,0,0,0,0,5886,5887,5888,0,0,0,0,0,0,7799,0,7799,0,0,0,0,0,0,0,0,0,0,0,0,0,0,
0,5987,0,0,0,0,5988,5989,5990,0,0,0,0,0,0,0,0,0,0,0,0,0,0,0,0,0,0,0,0,0,0,0,
0,6089,0,0,0,0,6090,6091,6092,0,0,0,0,0,0,0,0,0,2147488408,2147488407,2147488406,2147488405,0,0,0,0,0,0,0,0,0,0,
0,6497,0,0,0,0,6498,6499,6500,0,0,0,0,0,0,0,0,0,2147488510,2147488509,2147488508,2147488507,0,0,0,0,0,0,0,0,0,0,
0,0,0,0,0,0,0,0,0,0,0,0,0,0,0,0,0,0,2147488612,2147488611,2147488610,2147488609,0,0,0,0,0,0,0,0,0,0,
0,0,0,0,0,0,0,0,0,0,0,0,0,0,0,0,0,0,2147488714,2147488713,2147488712,2147488711,0,0,0,0,0,0,2147488306,2147488305,2147488304,2147488303
</data>
 </layer>
 <layer id="13" name="Deco" width="32" height="20">
  <data encoding="csv">
5675,5676,5677,5678,5881,0,6269,6270,6271,6272,6273,6274,6269,6270,6271,6272,6273,6274,5671,5672,5673,5674,0,0,0,0,5243,5244,5245,5246,0,0,
5777,5778,5779,5780,5983,0,6371,6372,6373,6374,6375,6376,6371,6372,6373,6374,6375,6376,5773,5774,5775,5776,0,0,0,0,5345,5346,5347,5348,0,0,
5879,5880,5881,5882,0,0,6473,6474,6475,6476,6477,6478,6473,6474,6475,6476,6477,6478,5875,5876,5877,5878,0,0,0,0,5447,5448,5449,5450,0,0,
5981,5982,5983,5984,0,0,0,0,0,0,0,0,0,0,0,0,0,5976,5977,5978,5979,5980,0,0,0,0,5549,5550,5551,5552,0,0,
6083,6084,6085,6086,8700,8701,8702,8703,8704,8708,0,0,0,0,0,0,0,6078,0,0,6081,6082,0,0,0,0,5651,5652,5653,5654,0,0,
6185,6186,1033,1034,8802,8803,8804,8805,8806,8810,0,0,0,0,0,0,0,6180,0,0,0,6184,0,0,0,0,5753,5754,5755,5756,0,0,
0,0,1059,1060,8904,8905,8906,8907,8908,8912,0,0,0,0,0,0,0,0,0,0,0,0,0,0,0,0,0,5856,5857,5858,0,0,
0,0,1085,1086,9006,9007,9008,0,0,0,0,0,0,0,0,0,0,0,0,0,0,0,0,0,0,0,0,5958,5959,5960,0,0,
0,0,0,9107,9108,9109,9110,0,0,0,0,0,0,0,0,0,0,0,0,0,0,0,0,0,0,0,6059,6060,6061,6062,0,0,
0,0,0,9209,9210,9211,9212,0,0,9111,9112,0,0,0,0,0,0,0,0,0,0,0,0,0,0,0,0,0,0,0,0,0,
0,0,0,0,0,0,0,0,0,0,0,0,0,0,0,0,0,0,0,0,0,0,0,0,0,0,0,0,0,0,0,0,
0,0,0,0,0,0,0,0,0,0,0,0,0,0,0,0,0,0,0,0,0,0,0,0,0,0,0,2147484092,2147484091,0,0,0,
0,0,0,0,0,0,0,0,0,0,0,0,0,0,0,0,0,0,0,0,0,0,0,0,0,0,0,2147484118,2147484117,2147485527,0,0,
0,0,0,0,0,0,0,0,0,0,0,0,0,0,0,0,0,0,0,0,0,0,0,0,0,0,0,0,0,0,0,0,
0,0,0,0,0,0,0,0,0,536876329,0,0,0,0,0,0,0,0,0,0,0,0,0,0,0,0,0,0,0,0,0,0,
0,0,0,0,0,0,0,0,0,9825,9826,11221,0,0,0,0,0,0,0,2147484346,0,0,0,0,0,0,0,0,0,0,0,0,
0,0,0,0,0,0,0,0,0,536876328,0,0,0,0,0,2147484278,2147484277,0,0,0,0,0,0,0,0,0,0,0,0,0,0,0,
0,6603,0,0,0,0,6191,6192,6193,6194,0,0,0,0,0,2147484304,2147484303,0,0,0,0,0,0,0,0,0,0,11127,0,0,0,0,
0,6603,0,0,0,0,6603,6294,6295,6296,0,0,0,0,0,0,0,0,0,0,0,0,0,0,0,0,0,0,0,0,0,0,
0,5794,0,0,0,0,6603,6396,6397,6398,0,0,0,0,0,0,0,0,0,0,5879,5880,5881,5882,0,0,0,0,0,0,0,0
</data>
 </layer>
 <layer id="16" name="Player" width="32" height="20">
  <data encoding="csv">
0,0,0,0,0,0,0,0,0,0,0,0,0,0,0,0,0,0,0,0,0,0,0,0,0,0,0,0,0,0,0,0,
0,0,0,0,0,0,0,0,0,0,0,0,0,0,0,0,0,0,0,0,0,0,0,0,0,0,0,0,0,0,0,0,
0,0,0,0,0,0,0,0,0,0,0,0,0,0,0,0,0,0,0,0,0,0,0,0,0,0,0,0,0,0,0,0,
0,0,0,0,0,0,0,0,0,0,0,0,0,0,0,0,0,0,0,0,0,0,0,0,0,0,0,0,0,0,0,0,
0,0,0,0,0,0,0,0,0,0,0,0,0,0,0,0,0,0,0,0,0,0,0,0,0,0,0,0,0,0,0,0,
0,0,0,0,0,0,0,0,0,0,0,0,0,0,0,0,0,0,0,0,0,0,0,0,0,0,0,0,0,0,0,0,
0,0,0,0,0,0,0,0,0,0,0,0,0,0,0,0,0,0,0,0,0,0,0,0,0,0,0,0,0,0,0,0,
0,0,0,0,0,0,0,0,0,0,0,0,0,0,0,0,0,0,0,0,0,0,0,0,0,0,0,0,0,0,0,0,
0,0,0,0,0,0,0,0,0,0,0,0,0,0,0,0,0,0,0,0,0,0,0,0,0,0,0,0,0,0,0,0,
0,0,0,0,0,0,0,0,0,0,0,0,0,0,0,0,0,0,0,0,0,0,0,0,0,0,0,0,0,0,0,0,
0,0,0,0,0,0,0,0,0,0,0,0,0,0,0,0,0,0,0,0,0,0,0,0,0,0,0,0,0,0,0,0,
0,0,0,0,0,0,0,0,0,0,0,0,0,0,0,0,0,0,0,0,0,0,0,0,0,0,0,0,0,0,0,0,
0,0,0,0,0,0,0,0,0,0,0,0,0,0,0,0,0,0,0,0,0,0,0,0,0,0,0,0,0,0,0,0,
0,0,0,0,0,0,0,0,0,0,0,0,0,0,0,0,0,0,0,0,0,0,0,0,0,0,0,0,0,0,0,0,
0,0,0,0,0,0,0,0,0,0,0,0,0,0,0,0,0,0,0,0,0,0,0,0,0,0,0,0,0,0,0,0,
0,0,0,0,0,0,0,0,0,0,0,0,0,0,0,0,0,0,0,0,0,0,0,0,0,0,0,0,0,0,0,0,
0,0,0,0,0,0,0,0,0,0,0,0,0,0,0,0,0,0,0,0,0,0,0,0,0,0,0,0,0,0,0,0,
0,0,0,0,0,0,0,0,0,0,0,0,0,0,0,0,0,0,0,0,0,0,0,0,0,0,0,0,0,0,0,0,
0,0,0,0,0,0,0,0,0,0,0,0,0,0,0,0,0,0,0,0,0,0,0,0,0,0,0,0,0,0,0,0,
0,0,0,0,0,0,0,0,0,0,0,0,0,0,0,0,0,0,0,0,0,0,0,0,0,0,0,0,0,0,0,0
</data>
 </layer>
 <layer id="11" name="paredes" width="32" height="20">
  <data encoding="csv">
0,0,0,5880,0,5882,0,0,0,0,0,0,0,0,0,0,0,0,0,0,0,0,0,0,0,0,0,0,0,0,0,0,
0,0,0,5982,0,5984,0,0,0,0,0,0,0,0,0,0,0,0,0,0,0,0,0,0,0,0,0,0,0,0,0,0,
0,0,0,6084,6085,0,0,0,0,0,0,0,0,0,0,0,0,0,0,0,0,0,0,0,0,0,0,0,0,0,0,0,
0,0,0,6186,6187,6188,0,0,0,0,0,0,0,0,0,0,0,0,0,0,0,0,0,0,0,0,0,0,0,0,0,0,
0,0,0,0,0,0,0,0,0,0,0,0,0,0,0,0,0,0,0,0,0,0,0,0,0,0,0,0,0,0,0,0,
0,0,0,0,0,0,0,0,0,0,0,0,0,0,0,0,0,0,0,0,0,0,0,0,0,0,0,0,0,0,0,0,
0,0,0,0,0,0,0,0,0,0,0,0,0,0,0,0,0,0,0,0,0,0,0,0,0,0,0,0,0,0,0,0,
0,0,0,0,0,0,0,0,0,0,0,0,0,0,0,0,0,0,0,0,0,0,0,0,0,0,0,0,0,0,0,0,
0,0,0,0,0,0,0,0,0,0,0,0,0,0,0,0,0,0,0,0,0,0,0,0,0,0,0,0,0,0,0,0,
0,0,0,0,0,0,0,0,0,0,0,0,0,0,0,0,0,0,0,0,0,0,0,0,0,0,0,0,2147488604,2147488603,2147488602,2147488601,
0,0,0,0,0,0,0,0,0,0,0,0,0,0,0,0,0,0,0,0,0,0,0,0,0,0,0,0,2147488706,2147488705,2147488704,2147488703,
0,0,0,0,0,0,0,0,0,0,0,0,0,0,0,0,0,0,0,0,0,0,0,0,0,0,0,0,2147488808,2147488807,2147488806,2147488805,
0,0,0,0,0,0,0,0,0,0,0,0,0,0,0,0,0,0,0,0,0,0,0,0,0,0,0,0,2147488910,2147488909,2147488908,2147488907,
0,0,0,0,0,0,0,0,0,0,0,0,0,0,0,0,0,0,0,0,0,0,0,0,0,0,0,0,2147489012,2147489011,2147489010,2147489009,
0,0,0,0,0,0,0,0,0,0,0,0,0,0,0,0,0,0,0,0,0,0,0,0,0,0,0,0,2147489114,2147489113,2147489112,2147489111,
0,0,0,0,0,0,0,0,0,0,0,0,0,0,0,0,0,0,0,0,0,0,0,0,0,0,0,0,2147489216,2147489215,2147489214,2147489213,
0,0,0,0,0,0,0,0,0,0,0,0,0,0,0,0,0,0,2147489726,2147489725,2147489724,2147489723,0,0,0,0,0,0,2147489318,2147489317,2147489316,2147489315,
0,0,0,0,0,0,0,0,0,0,2147488386,2147488385,0,0,0,0,0,0,2147489828,2147489827,2147489826,2147489825,0,0,0,0,0,0,2147489420,2147489419,2147489418,2147489417,
0,0,0,0,0,0,0,0,0,0,2147488488,2147488487,2147490835,2147490834,2147490833,2147490832,4743,4748,0,0,0,0,0,0,0,0,0,0,2147489522,2147489521,2147489520,2147489519,
0,0,0,0,0,0,0,0,0,0,2147490939,2147490938,2147490937,2147490936,2147490935,2147490934,4845,4850,0,0,0,0,0,0,0,0,0,0,2147489624,2147489623,2147489622,2147489621
</data>
 </layer>
 <layer id="14" name="Rocks" width="32" height="20">
  <data encoding="csv">
0,0,0,0,0,0,229,230,0,0,0,0,0,0,0,229,230,0,0,0,0,0,0,0,0,0,0,0,0,0,0,0,
0,0,0,0,0,0,251,252,0,0,0,0,0,0,0,251,252,563,564,0,0,0,0,0,0,0,0,0,0,0,0,0,
0,0,0,0,0,0,0,0,0,0,0,0,0,0,0,587,588,589,590,0,0,0,0,0,0,0,0,0,0,0,0,0,
0,0,0,0,0,0,0,0,0,0,0,0,0,0,0,613,614,615,616,0,0,0,0,0,0,0,0,0,0,0,0,0,
0,0,0,0,0,0,0,0,0,0,0,0,0,0,0,639,640,641,642,0,0,0,0,0,0,0,0,0,0,0,0,0,
0,0,0,0,0,0,0,0,0,0,0,0,0,0,0,665,666,667,668,0,0,45,46,0,0,0,0,0,0,0,0,0,
0,0,0,0,0,0,0,0,0,0,0,0,0,0,0,0,0,0,0,0,0,67,68,0,0,0,0,0,0,0,0,0,
697,698,699,700,701,0,0,0,0,0,0,0,0,0,0,0,0,0,0,0,0,0,0,0,0,0,0,0,230,0,0,0,
723,724,725,726,727,0,0,0,0,0,0,0,0,0,0,0,0,0,0,0,0,0,0,0,0,0,0,0,252,0,0,0,
749,750,751,752,753,0,0,0,0,0,0,0,0,0,0,0,0,0,0,0,0,0,0,0,0,2147484064,2147484063,2147484062,2147484061,0,0,0,
775,776,777,778,779,0,0,0,0,0,0,0,0,0,0,0,0,0,0,0,0,0,0,0,0,2147484090,2147484089,2147484088,2147484087,0,0,0,
801,802,803,804,805,0,0,0,0,0,0,0,0,0,0,0,0,0,0,0,0,0,0,0,0,2147484116,2147484115,2147484114,2147484113,0,0,0,
827,828,829,830,831,0,0,0,0,0,0,0,0,0,0,0,0,0,0,0,0,0,0,0,0,2147484142,2147484141,2147484140,2147484139,0,0,0,
853,854,855,856,857,0,0,0,0,0,0,0,0,0,0,0,0,0,0,0,0,0,0,0,0,0,0,0,0,0,0,0,
879,880,881,882,883,0,0,0,0,0,0,0,0,0,0,0,0,0,0,0,0,0,0,0,0,0,0,0,0,0,0,0,
0,0,0,0,0,0,0,0,0,0,0,0,0,0,0,0,0,0,0,0,0,0,0,0,0,0,0,0,0,0,0,0,
0,0,0,0,0,0,0,0,0,0,0,0,0,0,0,0,0,0,0,0,0,0,0,0,0,0,0,0,0,0,0,0,
0,0,0,0,0,0,0,0,0,0,0,0,0,0,0,0,0,0,0,0,0,0,0,0,0,0,0,0,0,0,0,0,
0,0,0,0,0,0,0,0,0,0,0,0,0,0,0,0,0,0,0,0,0,0,0,0,0,0,0,0,0,0,0,0,
0,0,0,0,0,0,0,0,0,0,0,0,0,0,0,0,0,0,0,0,0,0,0,0,0,0,0,0,0,0,0,0
</data>
 </layer>
 <objectgroup id="15" name="CollisionMask">
  <object id="1" x="501.333" y="318">
   <polygon points="0,2 0.856259,-99.8742 -1.33333,-106.667 -7.57126,-108.067 -17.2127,-107.271 -25.3333,-107.667 -30.6674,-111.575 -34.6667,-113.333 -40.04,-113.475 -47.2083,-109.167 -57.8586,-108.54 -64,-111.667 -65.4583,-118.5 -62.6667,-122.333 -65.9434,-126.954 -77.6667,-125 -92.0834,-134.667 -85.957,-151.039 -70.125,-148.542 -63.8333,-150.167 -56.6667,-150.667 -50.9583,-154.458 -51.9312,-165.501 -54.7917,-171.021 -54.7234,-176.904 -56.8542,-180.917 -59.2698,-186.414 -59.3333,-191.333 -59.5175,-194.371 -59.75,-203.083 -66.6074,-204.793 -76,-202.333 -81.2438,-203.733 -84.9583,-207.958 -86.4166,-213.208 -84.8333,-216.875 -88.0417,-226 -80.7196,-232.146 -83.9583,-239.25 -80.7723,-243.816 -77.3986,-248.531 -74.5226,-256.019 -74.0417,-262.833 -77.3218,-271.114 -75.6403,-278.782 -69.7421,-284.452 -64.7896,-299.088 -54,-305.667 10.6667,-305 11,1.66667"/>
  </object>
  <object id="2" x="366.333" y="92.3333">
   <polygon points="9.10417,-1.58333 8.71278,2.50231 3.98933,6.37684 2.16667,7.3125 1.12346,10.6813 -0.513653,13.7491 -0.104883,19.2086 -4.27083,20.9167 -11.3555,20.6604 -18.0625,21.1042 -20.8769,17.3985 -31.6971,13.2484 -33.9539,7.61071 -32.1458,-0.895833 -30.0625,-7 -32.4796,-10.0449 -34.0885,-20.2086 -34.6458,-28.75 -43.8975,-33.2728 -47.2788,-30.0469 -52.2727,-28.8485 -56.6796,-29.9094 -60.2028,-34.2029 -61.7484,-39.0109 -66.0671,-40.4343 -70.3478,-41.8261 -70.5575,-48.6687 -72.1498,-51.0618 -71.6989,-55.2087 -73.2609,-59.8696 -74.1304,-64.2174 -76.4154,-64.8148 -81.0601,-64.1078 -89.1865,-64.0965 -94.0964,-62.4007 -102.076,-62.6541 -104.94,-64.1374 -108.232,-65.3768 -109.159,-62.3754 -110.695,-59.3358 -114.889,-59.0773 -118.957,-58.6667 -123.563,-56.9978 -130.17,-56.7068 -136.333,-58.6667 -141.129,-60.2651 -142.913,-63.0145 -146.681,-61.9326 -150.377,-63.1739 -155.072,-61.6401 -167.289,-61.6152 -168.681,-64.8179 -176.106,-64.5115 -180.09,-64.1496 -185.376,-63.674 -189.897,-61.9695 -198.202,-62.7544 -203.333,-65.2932 -206.333,-61.8795 -208.376,-59.9682 -213.392,-60.3558 -216.292,-61.3723 -217.903,-61.0235 -218.943,-59.0184 -223.077,-57.4396 -229.684,-57.917 -233.251,-60.0994 -237.222,-60.39 -239.646,-63.5393 -243.504,-61.9806 -246.903,-62.5494 -252.226,-62.0818 -255.25,-60.7374 -260.682,-60.8012 -263.77,-64.6834 -269.465,-65.7187 -277.06,-67.2314 -279.244,-72.0185 -283.506,-72.8309 -287.763,-71.8424 -288.229,-68.0523 -289.597,-65.8761 -290.722,-63.1513 -293.219,-62.233 -294.829,-62.0331 -296.131,-61.3505 -298.085,-61.4643 -300.83,-61.7452 -303.015,-64.795 -304.343,-66.223 -306.915,-65.3221 -307.45,-63.192 -308.427,-60.0209 -309.217,-56.6377 -309.317,-53.4541 -309.965,-49.951 -310.281,-47.5164 -310.454,-42.5846 -312.458,-41.5201 -315.012,-40.9718 -317.857,-40.3186 -318.638,-38.8551 -319.035,-37.1053 -318.246,-35.1945 -317.38,-32.8771 -315.312,-30.624 -313.03,-28.4848 -310.528,-26.2829 -305.502,-24.5693 -300.879,-28.0606 -300.424,2.06061 -298.417,2.17165 -214.424,2.57223 -206.606,3.30303 -205.489,4.87057 -204.702,11.97 -205.129,36.5373 -204.768,46.2722 -205.014,54.9855 -219,56.8485 -220.856,60.2109 -224.83,128.334 -223.811,132.617 -221.251,135.893 -216.546,138.317 -214.462,140.879 -216.105,143.807 -218.026,147.249 -220.294,149.691 -223.731,149.788 -225.002,152.999 -224.818,158.758 -224.513,161.529 -219.733,162.171 -219.303,168.303 -202.023,169.643 -197.453,177.685 -190.818,179.121 -184.907,180.975 -182.243,184.758 -177.192,183.211 -176.385,188.571 -177.424,192.818 -165.605,189.344 -153.461,188.539 -141.118,190.763 -128.894,189.271 -122.392,183.813 -111.727,166.396 -98.9237,176.767 -96.7757,189.994 -93.6061,197.152 -91.3067,191.793 -90.9697,185.515 -82.6667,159.667 -65.3488,160.322 -59.0547,153.087 -48.8409,156.288 -37.2629,130.125 -0.421633,126.181 16.4757,139.657 18.9166,156.417 24.9703,201.339 14,227.667 -366.667,227.333 -366,-93 1,-92 4.66667,-52.6667 5.0625,-21.3542 8.41608,-12.9581 7.07329,-7.60119"/>
  </object>
  <object id="3" x="420.182" y="138.091">
   <polygon points="0,0 -8.09091,-0.727273 -10.5455,-3.18182 -10.2727,-5.72727 -15.6364,-5.54545 -18.7273,-9.72727 -18.5455,-13.9091 -16.9091,-18.0909 -15.2727,-22 -10.6364,-23.1818 -1.09091,-16.1818 11,-16.1818 12.9091,-10.1818 8.72727,-8.18182 11.2727,-2.90909 6.28541,0.0377827"/>
  </object>
  <object id="4" x="244.727" y="88.5455">
   <polygon points="0,0 3.45455,2.90909 9.81818,7.45455 14.3636,7.27273 24.5455,7.81818 31.4545,5.45455 39.0909,2.72727 44,2.18182 44.3636,-3.09091 44.3636,-4.90909 57.0909,-13.2727 58.5455,-18.9091 56.3636,-22 53.6364,-23.8182 8,-23.2727 3.45455,-20.5455 2.18182,-17.2727 -0.363636,-8.72727"/>
  </object>
  <object id="7" x="348.667" y="4.66667" width="118.667" height="41.3333"/>
 </objectgroup>
</map>
