<?xml version="1.0" encoding="UTF-8"?>
<map version="1.10" tiledversion="1.11.2" orientation="orthogonal" renderorder="right-down" width="27" height="15" tilewidth="16" tileheight="16" infinite="0" nextlayerid="12" nextobjectid="15">
 <tileset firstgid="1" source="Tailset_CaveDoor.tsx"/>
 <tileset firstgid="9793" source="decorative_catacombs.tsx"/>
 <tileset firstgid="10049" source="IceCaveObjects.tsx"/>
 <tileset firstgid="10313" source="decorative_cave.tsx"/>
 <tileset firstgid="11873" source="alchemy.tsx"/>
 <layer id="1" name="Ground" width="27" height="15">
  <data encoding="csv">
9292,9293,9031,9032,9033,9034,9035,9036,9037,9037,9293,9294,9235,9031,9032,9033,9034,9035,9036,9037,9037,2147487130,2147487129,2147487128,2147487127,2147487126,3377,
9394,9395,9031,9032,9033,9034,9035,9036,9037,9139,9395,9396,9337,9133,9134,9135,9136,9137,9138,9139,9037,2147487232,2147487231,2147487230,2147487229,2147487228,3377,
9496,9031,9032,9033,9031,9032,9033,9034,9035,9036,9037,9498,9439,9235,9236,9141,9238,9239,9240,9241,2965,2147487334,2147487333,2147487332,2147487331,2147487330,9504,
8986,9031,9032,9033,9133,9134,9135,9136,9137,9138,9139,9037,9439,9337,9338,9339,9340,9341,9342,9343,9241,2968,2969,2970,2971,2972,8994,
9088,9031,9032,9033,9235,9236,9237,9238,9239,9240,9241,9139,9031,9439,9440,9441,9442,9443,9444,9445,2866,2867,2868,2869,2870,3074,9096,
9190,9031,9032,9141,9337,9338,9339,9340,9341,9342,9343,9241,9037,9032,9033,9034,9035,9036,9037,9139,2968,2969,2970,2971,2972,3176,9198,
9292,9031,9031,9032,9439,9440,9441,9442,9443,9444,9445,9343,9139,9032,9033,9034,9035,9036,9037,9241,3070,3071,3072,3073,3074,3278,9300,
9394,9133,9031,9032,9439,9440,9441,9442,9443,9444,9445,9445,9241,9033,9034,9035,9036,9037,9037,9343,3172,3173,3174,3175,3176,3380,2868,
9496,9235,9031,9032,9031,9032,9033,9034,9035,9036,9037,9445,9343,9141,9034,9035,9036,9037,9139,2866,3274,3275,3276,3277,3278,3482,2970,
8986,9337,9031,9031,9133,9134,9135,9136,9137,9138,9139,9444,9445,9135,9136,9137,9138,9139,9241,2968,3376,3377,3378,3379,3380,3584,3072,
9088,9439,9133,9031,9235,9236,9237,9238,9239,9240,9241,9444,9445,9237,9238,9239,9240,9241,9343,3070,3478,3479,3480,3481,3482,3686,3174,
9190,9191,9235,9133,9337,9338,9339,9340,9341,9342,9343,9337,9338,9339,9340,9341,9342,9343,9445,3172,3580,3581,3582,3583,3584,3275,3276,
9292,9293,9337,9235,9439,9440,9441,9442,9443,9444,9445,9439,9440,9441,9442,9443,9444,9445,9292,3274,3682,3683,3684,3685,3686,3377,3378,
9394,9395,9439,9337,9337,9337,9439,9439,9337,9439,9439,9440,9441,9442,9443,9444,9445,9402,9394,3376,3377,3378,3379,3380,3478,3479,3480,
9496,9497,9498,9439,9439,9439,9440,9441,9439,9440,9441,9442,9443,9444,9445,9502,9503,9504,9496,3478,3479,3480,3481,3482,3580,3581,3582
</data>
 </layer>
 <layer id="4" name="sombras" width="27" height="15">
  <data encoding="csv">
0,0,0,0,0,5671,5672,5673,5673,0,0,0,0,5473,5579,5580,5581,5582,0,0,0,0,0,0,0,0,0,
0,0,0,0,0,5773,5774,5775,5775,0,0,0,0,5575,5579,5580,5581,5582,3862,3863,3864,0,0,0,0,0,0,
0,0,0,0,0,5875,5876,5877,5877,0,0,0,0,5677,5678,5679,5680,3963,3964,3965,0,0,0,0,0,0,0,
0,0,0,0,0,5977,5978,5979,5979,0,0,0,0,5779,5780,5781,5782,4065,4066,3383,3384,3385,3386,0,0,0,0,
0,0,0,0,0,6079,6080,6081,6081,0,0,0,0,5881,5882,5883,5884,4167,4168,3485,3486,3487,3488,0,0,0,0,
0,0,0,0,0,0,5977,5978,5979,5980,5981,5982,5983,5984,5985,5986,0,0,0,3587,3588,0,0,0,0,0,0,
0,0,0,0,0,0,6079,6080,6081,6082,6083,6084,6085,6086,6087,6088,0,0,0,3689,3690,0,0,0,0,0,0,
0,0,0,0,0,0,6181,6182,6183,6184,6185,6186,6187,6188,6189,6190,0,0,0,3791,3792,0,3794,0,0,0,0,
0,0,0,0,0,0,6283,6284,6285,6286,6287,6288,6289,6290,6291,6292,0,0,0,3893,0,0,3896,0,0,0,0,
0,0,0,0,0,0,0,0,0,0,0,0,0,0,3861,3862,3863,3864,0,3995,0,0,3998,0,0,0,0,
0,10609,0,10611,10612,0,0,0,0,0,0,0,0,0,3963,3964,3965,3966,0,0,0,0,0,0,0,0,0,
0,10635,10653,10654,10655,10656,0,0,0,0,0,0,0,0,4065,4066,4067,4068,0,0,0,0,0,0,0,0,0,
0,10661,10679,10680,10681,10682,0,0,0,0,0,0,0,0,4167,4168,4169,4170,0,0,0,0,0,0,0,0,0,
0,10687,10705,10706,10707,10708,0,0,0,0,0,0,0,0,0,0,0,0,0,0,0,0,0,0,0,0,0,
0,10713,0,0,0,0,0,0,0,0,0,0,0,0,0,0,0,0,0,0,0,0,0,0,0,0,0
</data>
 </layer>
 <layer id="7" name="sombras2" width="27" height="15">
  <data encoding="csv">
0,0,0,0,0,0,0,0,0,0,0,0,0,0,0,0,0,0,0,0,0,0,0,0,0,0,0,
0,0,0,0,0,0,0,0,0,0,0,0,0,0,0,0,0,0,0,0,0,0,0,0,0,0,0,
0,0,0,0,0,0,0,0,0,0,0,0,0,0,0,0,0,0,0,0,0,0,0,0,0,0,0,
0,0,0,0,0,0,0,0,0,0,0,0,0,0,9819,0,0,0,0,0,0,0,0,0,0,0,0,
0,0,0,0,0,0,0,0,0,0,0,0,0,0,0,0,0,0,0,0,0,0,0,0,0,0,0,
0,2147494052,2147494051,2147494050,2147494049,0,0,0,0,0,0,0,0,0,0,0,0,0,0,0,0,0,0,0,0,0,0,
0,2147494078,2147494077,2147494076,2147494075,0,0,0,0,0,0,0,0,0,0,0,0,0,0,0,0,0,0,0,0,0,0,
0,2147494104,2147494103,2147494102,2147494101,0,0,0,0,0,0,0,0,0,0,0,0,0,0,0,0,0,0,0,0,0,0,
0,2147494130,2147494129,2147494128,2147494127,0,0,0,0,0,0,0,0,0,0,0,0,0,0,0,0,0,0,0,0,0,0,
0,2147494156,2147494155,2147494154,0,0,0,0,0,0,0,0,0,0,0,0,0,0,0,0,0,0,0,0,0,0,0,
10744,10745,10746,10747,0,0,0,0,0,0,0,0,0,0,0,0,0,0,0,0,0,0,0,0,0,0,0,
10770,10771,10772,10773,10774,0,0,0,0,0,0,0,0,0,0,0,0,0,0,0,0,0,0,0,0,0,0,
10796,10797,10798,10799,10800,0,0,0,0,0,0,0,0,0,0,0,0,0,0,0,0,0,0,0,0,0,0,
10822,10823,10824,10825,10826,0,0,0,0,0,0,0,0,0,0,0,0,0,0,0,0,0,0,0,0,0,0,
10848,10849,10850,10851,10852,0,0,0,0,0,0,0,0,0,0,0,0,0,0,0,0,0,0,0,0,0,0
</data>
 </layer>
 <layer id="6" name="rocks" width="27" height="15">
  <data encoding="csv">
0,0,0,0,0,0,0,0,0,0,0,0,0,0,0,0,0,0,0,0,0,0,0,0,0,0,0,
0,0,0,0,0,0,0,0,0,0,0,0,0,0,0,0,0,0,0,0,0,0,0,0,0,0,0,
0,0,0,0,0,0,0,0,0,0,0,0,0,0,0,0,0,0,0,0,0,0,0,0,0,0,0,
0,0,0,0,0,0,0,0,0,0,0,0,0,0,0,0,0,0,0,0,0,0,0,0,0,0,0,
0,0,0,0,0,0,0,0,0,0,0,0,0,0,0,0,0,0,0,0,0,0,0,0,0,0,0,
0,0,0,0,0,0,0,0,0,0,0,0,0,0,0,0,0,0,0,0,0,0,0,0,0,0,0,
0,0,0,0,0,0,0,0,0,0,0,0,0,0,0,0,0,0,0,0,0,0,0,0,0,0,0,
0,0,0,0,0,0,0,0,0,0,0,0,0,0,0,0,0,0,0,0,0,0,0,0,0,0,0,
0,0,0,0,0,0,0,0,0,0,0,0,0,0,0,0,0,0,0,0,0,0,0,0,0,0,0,
0,0,0,0,0,0,0,0,0,0,0,0,0,0,0,0,0,0,0,0,0,0,0,0,0,0,0,
0,0,0,0,0,0,0,0,0,0,0,0,0,0,0,0,0,0,0,0,0,0,0,0,0,0,0,
0,0,0,0,0,0,0,0,0,0,0,0,0,0,0,0,0,0,0,0,0,0,0,0,0,0,0,
0,0,0,0,0,0,0,0,0,0,0,0,0,0,0,0,0,0,0,0,0,0,0,0,0,0,0,
0,0,0,0,0,0,0,0,0,0,0,0,0,0,0,0,0,0,0,0,0,0,0,0,0,0,0,
0,0,0,0,0,0,0,0,0,0,0,0,0,0,0,0,0,0,0,0,0,0,0,0,0,0,0
</data>
 </layer>
 <layer id="2" name="paredes" width="27" height="15">
  <data encoding="csv">
0,0,0,0,0,0,0,0,3677,3678,3679,3680,3687,3688,0,0,0,0,0,0,0,0,0,0,0,0,0,
0,0,0,0,0,0,0,0,3779,3780,3781,3782,3789,3790,0,0,0,0,0,0,0,0,0,0,0,0,0,
0,0,0,0,0,0,0,0,3881,3882,3883,3884,3891,3892,0,0,0,0,3753,3754,0,0,0,0,0,0,0,
0,0,0,0,0,0,0,0,3983,3984,3985,3986,3993,3994,0,0,0,0,3855,3856,0,0,0,0,0,0,0,
0,0,0,0,0,0,0,0,4085,4086,4087,4088,4095,4096,0,0,0,2699,2700,0,0,0,0,0,0,0,0,
0,0,0,0,0,0,0,0,4187,4188,4189,4190,4197,4198,0,0,0,2801,2802,2803,2804,0,0,0,0,0,0,
0,0,0,0,0,0,0,0,4289,4290,4291,4292,4299,4300,0,0,0,2903,2904,2905,2906,0,0,0,0,0,0,
0,0,0,0,0,0,0,0,4391,4392,4393,4394,0,0,0,0,0,3005,3006,3007,3008,0,0,0,0,0,0,
0,0,0,0,0,0,0,0,0,0,0,0,0,0,0,0,0,3107,3108,3109,3110,0,0,0,0,0,0,
0,0,0,0,0,0,0,0,0,0,0,0,0,0,0,0,0,3209,3210,3211,3212,0,0,0,0,0,0,
0,0,0,0,0,0,0,0,0,0,0,0,0,0,0,0,0,3311,3312,3313,3314,0,0,0,0,0,0,
0,0,0,0,0,0,0,0,0,0,0,0,0,0,0,0,0,3413,3414,3415,3416,3518,0,0,0,0,0,
0,0,0,0,0,0,0,0,0,0,0,0,0,0,2657,2658,2659,3515,3516,3517,3518,0,0,0,0,0,0,
0,0,0,0,2147486316,2147486315,2147486314,2147486313,2147486312,2147486311,5104,5105,5106,5107,2759,2760,2761,3617,3618,3619,3620,0,0,0,0,0,0,
0,0,0,0,2147486418,2147486417,2147486416,2147486415,2147486414,2147486413,5206,5207,5208,5209,5210,5211,5212,3719,3720,3721,3722,0,0,0,0,0,0
</data>
 </layer>
 <layer id="3" name="paredes2" width="27" height="15">
  <data encoding="csv">
0,0,10461,10462,10463,10464,0,0,0,0,0,0,0,0,0,0,0,0,4161,4162,2402,0,0,2959,2960,2961,2962,
0,0,10487,10488,10489,10490,0,0,0,0,0,0,0,0,0,0,0,0,4263,4264,2965,0,0,3061,3062,3063,3064,
0,0,10513,10514,10515,10516,0,0,0,0,0,0,0,0,0,0,0,0,0,2657,2658,0,0,3163,3164,3165,3166,
0,0,10539,10540,10541,10542,0,0,0,0,0,0,0,0,0,0,0,7031,7032,2871,2916,0,0,3265,3266,3267,3268,
0,0,0,0,0,0,0,0,0,0,0,0,0,0,0,0,0,7133,7134,3075,0,0,0,3367,3368,3369,3370,
0,0,0,0,0,0,0,0,0,0,0,0,0,0,0,0,0,7235,7236,7237,0,0,0,3469,3470,3471,3472,
0,0,0,0,0,0,0,0,0,0,0,0,0,0,0,0,0,7337,7338,7339,0,0,0,3571,3572,3573,3574,
0,0,0,0,0,0,0,0,0,0,0,0,0,0,0,0,0,7439,7440,7441,0,0,0,3186,3602,3603,3604,
0,0,0,0,0,0,0,0,0,0,0,0,0,0,0,0,0,7541,7542,7543,0,0,0,0,3704,3705,3706,
0,0,0,0,0,0,0,0,0,0,0,0,0,0,0,0,0,7643,7644,7645,0,0,0,0,3806,3807,3808,
0,0,0,0,0,0,0,0,0,0,0,0,0,0,0,0,0,7745,7746,7747,0,0,0,3907,3908,3909,3910,
0,0,0,0,0,0,0,0,0,0,0,0,0,0,0,0,0,0,0,0,0,0,0,4009,4010,4011,4012,
0,0,0,0,0,0,0,0,0,0,0,0,0,0,0,0,0,0,0,0,0,0,0,4111,4112,4113,4114,
0,0,0,0,0,0,0,0,0,0,0,0,0,0,0,0,0,0,0,0,0,0,0,0,0,0,0,
0,0,0,0,0,0,0,0,0,0,0,0,0,0,0,0,0,0,0,0,0,0,0,0,0,0,0
</data>
 </layer>
 <layer id="10" name="Player" width="27" height="15">
  <data encoding="csv">
0,0,0,0,0,0,0,0,0,0,0,0,0,0,0,0,0,0,0,0,0,0,0,0,0,0,0,
0,0,0,0,0,0,0,0,0,0,0,0,0,0,0,0,0,0,0,0,0,0,0,0,0,0,0,
0,0,0,0,0,0,0,0,0,0,0,0,0,0,0,0,0,0,0,0,0,0,0,0,0,0,0,
0,0,0,0,0,0,0,0,0,0,0,0,0,0,0,0,0,0,0,0,0,0,0,0,0,0,0,
0,0,0,0,0,0,0,0,0,0,0,0,0,0,0,0,0,0,0,0,0,0,0,0,0,0,0,
0,0,0,0,0,0,0,0,0,0,0,0,0,0,0,0,0,0,0,0,0,0,0,0,0,0,0,
0,0,0,0,0,0,0,0,0,0,0,0,0,0,0,0,0,0,0,0,0,0,0,0,0,0,0,
0,0,0,0,0,0,0,0,0,0,0,0,0,0,0,0,0,0,0,0,0,0,0,0,0,0,0,
0,0,0,0,0,0,0,0,0,0,0,0,0,0,0,0,0,0,0,0,0,0,0,0,0,0,0,
0,0,0,0,0,0,0,0,0,0,0,0,0,0,0,0,0,0,0,0,0,0,0,0,0,0,0,
0,0,0,0,0,0,0,0,0,0,0,0,0,0,0,0,0,0,0,0,0,0,0,0,0,0,0,
0,0,0,0,0,0,0,0,0,0,0,0,0,0,0,0,0,0,0,0,0,0,0,0,0,0,0,
0,0,0,0,0,0,0,0,0,0,0,0,0,0,0,0,0,0,0,0,0,0,0,0,0,0,0,
0,0,0,0,0,0,0,0,0,0,0,0,0,0,0,0,0,0,0,0,0,0,0,0,0,0,0,
0,0,0,0,0,0,0,0,0,0,0,0,0,0,0,0,0,0,0,0,0,0,0,0,0,0,0
</data>
 </layer>
 <layer id="11" name="Techo" width="27" height="15">
  <data encoding="csv">
2873,2874,2875,2876,0,0,0,0,0,0,0,0,0,0,0,0,0,0,0,0,0,0,0,0,0,0,0,
2975,2976,2977,2978,0,0,0,0,0,0,0,0,0,0,0,0,0,0,0,0,0,0,0,0,0,0,0,
3077,3078,3079,3080,0,0,0,0,0,0,0,0,0,0,0,0,0,0,0,0,0,0,0,0,0,0,0,
3179,3180,3181,3182,0,0,0,0,0,0,0,0,0,0,0,0,0,0,0,0,0,0,0,0,0,0,0,
3281,3282,3283,3284,0,0,0,0,0,0,0,0,0,0,0,0,0,0,0,0,0,0,0,0,0,0,0,
3383,3384,3385,3386,0,0,0,0,0,0,0,0,0,0,0,0,0,0,0,0,0,0,0,0,0,0,0,
3485,3486,3487,3488,0,0,0,0,0,0,0,0,0,0,0,0,0,0,0,0,0,0,0,0,0,0,0,
3587,3588,3589,3590,0,0,0,0,0,0,0,0,0,0,0,0,0,0,0,0,0,0,0,0,0,0,0,
3689,3690,3691,3692,0,0,0,0,0,0,0,0,0,0,0,0,0,0,0,0,0,0,0,0,0,0,0,
3791,3792,3793,3794,0,0,0,0,0,0,0,0,0,0,0,0,0,0,0,0,0,0,0,0,0,0,0,
3893,3894,3895,3896,0,0,0,0,0,0,0,0,0,0,0,0,0,0,0,0,0,0,0,0,0,0,0,
3995,3996,3997,3998,0,0,0,0,0,0,0,0,0,0,0,0,0,0,0,0,0,0,0,0,0,0,0,
4097,4098,4099,4100,0,0,0,0,0,0,0,0,0,0,0,0,0,0,0,0,0,0,0,0,0,0,0,
0,0,0,0,0,0,0,0,0,0,0,0,0,0,0,0,0,0,0,0,0,0,0,0,0,0,0,
0,0,0,0,0,0,0,0,0,0,0,0,0,0,0,0,0,0,0,0,0,0,0,0,0,0,0
</data>
 </layer>
 <layer id="8" name="deco2" width="27" height="15">
  <data encoding="csv">
0,0,0,0,0,0,0,0,0,0,0,0,0,0,0,0,0,0,0,0,0,0,0,0,0,0,0,
0,0,0,0,0,0,0,0,0,0,0,0,0,0,0,0,0,0,0,0,0,0,0,0,0,0,0,
0,0,0,0,0,0,0,0,0,0,0,0,0,0,0,0,0,0,0,0,0,0,0,0,0,0,0,
0,0,0,0,0,0,0,0,0,0,0,0,0,0,0,0,0,0,0,0,0,0,0,0,0,0,0,
0,0,0,0,0,0,0,0,0,0,0,0,0,0,0,0,0,0,0,0,0,0,0,0,0,0,0,
0,0,0,0,0,0,0,0,0,0,0,0,0,0,0,0,0,0,0,0,0,0,0,0,0,0,0,
0,0,0,0,0,0,0,0,0,0,0,0,0,0,0,0,0,0,0,0,0,0,0,0,0,0,0,
0,0,0,0,0,0,0,0,0,0,0,0,0,0,0,0,0,0,0,0,0,0,0,0,0,0,0,
0,0,0,0,0,0,0,0,0,0,0,0,0,0,0,0,0,0,0,0,0,0,0,0,0,0,0,
0,0,0,0,10491,10492,0,0,0,0,0,0,0,0,0,0,0,0,0,0,0,0,0,0,0,0,0,
2575,2576,2577,2578,10517,10518,0,0,0,0,0,0,0,0,0,0,0,0,0,0,0,0,0,0,0,0,0,
2677,2678,2679,2680,0,0,0,0,0,0,0,0,0,0,0,0,0,0,0,0,0,0,0,0,0,0,0,
2779,2780,2781,2782,0,0,0,0,0,0,0,0,0,0,0,0,0,0,0,0,0,0,0,0,0,0,0,
2881,2882,2883,2884,0,0,0,0,0,0,0,0,0,0,0,0,0,0,0,0,0,0,0,0,0,0,0,
2983,2984,2985,2986,0,0,0,0,0,0,0,0,0,0,0,0,0,0,0,0,0,0,0,0,0,0,0
</data>
 </layer>
 <layer id="5" name="Deco" width="27" height="15">
  <data encoding="csv">
0,0,0,0,0,0,0,10277,10278,0,0,0,0,10277,10278,0,0,0,0,0,0,0,0,2989,2990,2991,2992,
0,0,9815,0,0,0,0,10299,10300,0,0,0,0,10299,10300,0,0,0,0,0,0,0,0,3091,3092,3093,3094,
0,0,9831,10491,10492,0,0,0,0,0,0,0,0,0,0,0,0,0,0,0,0,0,0,3193,3194,3195,3196,
0,0,9847,10517,10518,0,0,0,10277,10278,0,0,10277,10278,0,0,0,0,0,0,0,0,0,3295,3296,3297,3298,
0,0,0,0,0,0,0,0,10299,0,9818,0,10299,10300,0,0,0,0,0,0,0,0,0,0,0,0,0,
0,0,0,0,0,0,0,0,0,0,9834,0,0,10677,10678,0,0,0,0,0,0,0,0,0,0,0,0,
0,0,0,0,0,0,0,0,0,0,0,0,0,10703,10704,0,0,0,0,0,0,0,0,0,0,0,0,
0,0,0,0,0,0,0,0,0,0,0,0,0,0,0,0,0,0,0,0,0,0,0,0,0,0,0,
0,0,0,0,0,0,0,0,0,0,0,0,0,0,0,0,0,0,0,0,10863,10864,0,0,0,0,0,
0,0,0,0,0,0,0,0,0,0,0,0,0,0,0,0,0,0,0,0,10889,10890,0,0,0,0,0,
0,0,0,0,0,0,0,0,0,0,0,0,0,0,0,0,0,0,0,0,10915,10916,0,0,0,0,0,
0,0,0,0,0,10677,10678,0,0,0,0,0,0,0,0,0,0,0,0,0,10941,10942,0,0,0,0,0,
0,0,0,0,0,10703,10704,0,0,0,0,0,0,0,0,0,0,0,0,0,0,0,0,0,0,0,0,
0,0,0,0,0,0,0,0,0,0,0,0,0,0,0,0,0,0,0,0,0,0,0,0,0,0,0,
0,0,0,0,0,0,0,0,0,0,0,0,0,0,0,0,0,0,0,0,0,0,0,0,0,0,0
</data>
 </layer>
 <objectgroup id="9" name="CollisionMask">
  <object id="1" x="108.667" y="207.333">
   <polygon points="-1.54545,0.272727 -0.853974,-2.75169 -3.63636,-9.66667 -16.3333,-28.5 -17.4341,-24.5748 -18,-23.9848 -17.4654,-18.3003 -20.3068,-14.9015 -23.894,-13.3309 -27.7043,-10.7628 -38.0943,-21.5433 -44.3333,-36.5 -55.6667,-26.1667 -68.6667,-44.3333 -44.5845,-53.8394 -29.943,-70.335 -35.1667,-82.333 -90,-87.333 -85.5606,-146.106 -65,-146.667 -61.557,-147.683 -57.0909,-148.439 -57.4843,-144.245 -52,-141.167 -40.5152,-140.833 -33.6699,-143.85 -30.6667,-147.167 -30.8485,-150.167 -36.8485,-156.333 -36.5758,-160.333 -30.4545,-162.303 -24.697,-165.788 -23.2121,-172 -22.9667,-174.907 -24.8861,-179.305 -26.303,-183.545 -29.8333,-194.667 -36.3333,-206 -108.333,-206.667 -108,32.3333 162.833,32.5833 162,-12.6667 162.667,-32.3333 157.483,-27.3471 146.325,-21.4551 141.105,-21.0111 142.072,-15.8561 139.009,-13.39 133.075,-13.0121 127.586,-8.75057 123.029,-5.20689 122.405,-0.164844 117.409,2.9697 109.745,-0.252771 103.429,-1.43652 88.2427,-1.22559 82.7879,1.03451 78.0615,-1.08419 61.6102,-0.855697 56.149,1.48404 51.6096,-0.7168 38.5199,-0.534999 32.6967,2.55851 24.6148,-0.341872 13.5184,-0.187756 6.79104,2.25795 3.21963,0.944216"/>
  </object>
  <object id="2" x="303.333" y="51.3333">
   <polygon points="0,0 1.33333,188 130,188 128.667,-50.6667 12.3478,-50.7536 12.4913,-39.8124 8.42878,-43.9162 6.37445,-43.1389 4.3772,-40.9843 2.2269,-41.5649 -2.93413,-39.6442 -8.97773,-35.8149 -8.7813,-31.9548 -2.39557,-32.6354 2.93314,-29.2688 8.40003,-27.4832 10.1644,-22.9684 11.8499,-19.8867 10.2097,-17.9701 5.77609,-16.662 0.644288,-12.4791 -0.344106,-8.30894 -4.26423,-6.20246"/>
  </object>
  <object id="3" x="211.045" y="108.277">
   <polygon points="0,0 5.24285,5.37999 15.5344,5.58691 19.8958,4.99763 22.716,1.75884 23.5625,-3.1394 21.3124,-6.77677 0.388359,-5.79384"/>
  </object>
  <object id="4" x="176" y="111.455">
   <polygon points="0,1 5.81303,-0.10841 11.3864,0.380682 18.7273,-3.36364 22.419,-5.46877 27.2387,-7.72842 30.0599,-9.2769 32.8124,-9.7805 35.4665,-12.3242 36.4725,-14.2585 38.0133,-16.1754 37.6344,-22.3614 37.0215,-27.1732 38.7878,-30.2727 41.7836,-34.2772 45.2308,-38.0115 47.348,-41.4304 48.2424,-45 48.5433,-53.1122 47.6725,-59.574 47.4424,-62.7717 49.3246,-65.9308 49.7451,-69.7213 49.875,-114.017 -53.125,-110.85 -49.6205,-65.4301 -46.5975,-61.7457 -48.48,-58.2989 -48.682,-54.1202 -48.2709,-50.3817 -47.2911,-45.3668 -47.7128,-39.9714 -45.2084,-38.8415 -43.7233,-35.8268 -40.7709,-32.7609 -38.9375,-29.9337 -37.1428,-26.9895 -37.2521,-23.4782 -35.8991,-19.4985 -36.4454,-12.9218 -34.145,-10.7063 -30.7667,-10.8371 -26.25,-8.53788 -21.1217,-4.64729 -15.1352,-4.59824 -9.4963,-2.25156 -7.67797,0.598195"/>
  </object>
  <object id="5" x="270" y="173.667" width="37.6667" height="10.3333"/>
  <object id="8" x="67.5" y="160.5" width="24" height="16.5"/>
  <object id="13" x="69" y="-0.5" width="55.5" height="5.5"/>
 </objectgroup>
</map>
