<?xml version="1.0" encoding="UTF-8"?>
<map version="1.10" tiledversion="1.11.2" orientation="orthogonal" renderorder="right-down" width="25" height="22" tilewidth="16" tileheight="16" infinite="0" nextlayerid="11" nextobjectid="6">
 <tileset firstgid="1" source="IceTileSet.tsx"/>
 <tileset firstgid="685" source="IceCaveObjects.tsx"/>
 <layer id="1" name="Tile Layer 1" width="25" height="22">
  <data encoding="csv">
0,0,0,0,0,0,0,0,0,0,0,0,0,0,0,0,0,0,0,0,0,0,0,0,0,
0,0,0,0,0,0,0,0,0,0,0,0,0,0,0,0,0,0,0,0,0,0,0,0,0,
254,255,256,256,256,256,256,256,256,256,253,254,255,256,256,256,256,256,256,256,256,256,256,256,254,
253,253,253,253,253,253,253,253,253,253,253,253,253,253,253,253,253,253,253,253,254,255,256,253,254,
250,251,11,12,13,12,13,14,15,13,14,15,12,13,14,15,12,13,14,15,14,15,16,253,254,
288,289,49,50,51,50,51,52,53,51,52,53,50,51,52,53,50,51,52,53,52,53,54,253,254,
326,327,87,88,89,88,89,90,91,89,90,91,88,89,90,91,88,89,90,91,90,91,92,253,254,
364,365,87,88,89,90,127,128,129,127,128,129,126,127,128,129,126,127,128,129,90,91,92,253,254,
402,403,125,126,127,128,88,89,90,88,89,90,91,88,89,90,91,165,166,167,128,129,130,253,254,
440,441,163,164,165,166,126,127,128,126,127,128,129,126,127,128,129,89,90,91,90,91,92,253,254,
478,479,87,88,89,90,164,165,166,164,165,166,167,164,165,166,167,127,128,129,128,129,130,249,250,
516,517,125,126,127,128,88,89,90,91,90,91,88,89,90,91,88,89,90,91,90,91,92,287,288,
250,251,163,164,165,166,126,127,128,129,128,129,126,127,128,129,126,127,128,129,128,129,130,325,326,
255,256,125,126,127,126,127,128,129,126,127,128,129,126,127,128,126,127,128,129,128,129,130,363,364,
255,256,163,164,165,164,165,166,167,164,165,166,167,164,165,166,164,165,166,167,166,167,168,401,402,
255,256,201,202,203,202,203,204,205,202,203,204,205,202,203,204,202,203,204,205,204,205,206,439,440,
255,254,254,254,254,254,254,254,255,255,255,255,254,254,254,254,254,254,254,254,254,254,254,477,478,
255,256,254,254,254,254,254,254,254,254,0,0,255,255,254,254,254,254,254,254,254,254,254,515,516,
255,256,253,253,253,253,253,253,253,253,253,253,253,253,253,253,253,254,255,253,254,255,256,254,255,
255,253,254,255,256,256,256,256,256,256,256,256,256,256,256,256,253,253,253,253,254,255,256,256,256,
0,0,0,0,0,0,0,0,0,0,0,0,0,0,0,0,0,0,0,0,0,0,0,0,0,
0,0,0,0,0,0,0,0,0,0,0,0,0,0,0,0,0,0,0,0,0,0,0,0,0
</data>
 </layer>
 <layer id="2" name="borders" width="25" height="22">
  <data encoding="csv">
7,8,533,534,536,537,538,3,538,33,34,35,36,37,38,535,533,534,535,535,536,3,4,5,6,
45,46,571,572,574,575,576,41,576,71,72,73,74,75,76,573,571,572,573,573,574,41,42,43,44,
83,84,609,610,612,613,614,79,614,109,110,111,112,113,114,611,609,610,611,611,612,79,80,81,82,
121,122,647,648,650,651,652,117,652,147,148,149,150,151,152,649,647,648,649,649,650,117,118,119,120,
159,160,0,0,0,0,0,0,0,0,0,0,0,0,0,0,0,0,0,0,0,0,0,161,162,
305,306,0,0,0,0,0,0,0,0,0,0,0,0,0,0,0,0,0,0,0,0,0,309,310,
343,344,0,0,0,0,0,0,0,0,0,0,0,0,0,0,0,0,0,0,0,0,0,347,348,
343,344,0,0,0,0,0,0,0,0,0,0,0,0,0,0,0,0,0,0,0,0,0,347,348,
305,306,0,0,0,0,0,0,0,0,0,0,0,0,0,0,0,0,0,0,0,0,0,309,310,
343,344,0,0,0,0,0,0,0,0,0,0,0,0,0,0,0,0,0,0,0,0,0,347,348,
305,306,0,0,0,0,0,0,0,0,0,0,0,0,0,0,0,0,0,0,0,0,0,309,310,
343,344,0,0,0,0,0,0,0,0,0,0,0,0,0,0,0,0,0,0,0,0,0,309,310,
305,306,0,0,0,0,0,0,0,0,0,0,0,0,0,0,0,0,0,0,0,0,0,347,348,
343,344,0,0,0,0,0,0,0,0,0,0,0,0,0,0,0,0,0,0,0,0,0,347,348,
381,382,0,0,0,0,0,0,0,0,0,0,0,0,0,0,0,0,0,0,0,0,0,385,386,
419,420,0,0,0,0,0,0,0,0,0,0,0,0,0,0,0,0,0,0,0,0,0,423,424,
457,458,0,0,0,0,0,0,0,0,0,0,0,0,0,0,0,0,0,0,0,0,0,461,462,
495,496,675,676,671,672,673,674,675,676,603,604,605,606,607,608,671,672,673,674,675,676,671,499,500,
454,454,454,454,454,454,454,454,454,454,641,642,643,644,645,646,454,454,454,454,454,454,454,454,454,
454,454,454,454,454,454,454,454,454,454,679,680,681,682,683,684,454,454,454,454,454,454,454,454,454,
0,0,0,0,0,0,0,0,0,0,0,0,0,0,0,0,0,0,0,0,0,0,0,0,0,
0,0,0,0,0,0,0,0,0,0,0,0,0,0,0,0,0,0,0,0,0,0,0,0,0
</data>
 </layer>
 <layer id="3" name="Deco" width="25" height="22">
  <data encoding="csv">
0,0,0,0,0,0,0,0,0,0,685,686,0,0,0,0,0,0,0,0,0,0,0,0,0,
0,0,0,913,914,0,0,913,914,685,707,708,0,685,686,0,913,914,0,0,913,914,0,0,0,
0,0,0,935,936,0,0,935,936,707,708,0,0,707,708,0,935,936,0,0,935,936,0,0,0,
0,0,0,0,0,0,0,0,0,0,0,0,0,0,0,0,0,777,778,0,0,0,0,0,0,
0,0,0,0,0,0,0,0,0,0,0,0,0,0,0,0,0,799,800,0,0,0,0,0,0,
0,0,0,0,0,0,0,0,0,0,0,0,0,0,0,0,0,0,0,0,0,0,0,0,0,
0,0,0,0,0,0,0,0,0,0,0,0,0,0,0,0,0,0,0,0,0,0,0,0,0,
0,0,0,0,0,0,0,0,0,0,0,0,0,0,0,0,0,0,0,0,0,0,0,0,0,
0,0,0,0,0,0,0,0,0,0,0,0,0,0,0,0,0,0,0,0,0,0,0,0,0,
0,0,0,0,0,0,0,0,0,0,0,0,0,0,0,0,0,0,0,0,0,0,0,0,0,
0,0,0,0,0,0,0,0,0,0,0,0,0,0,0,0,0,0,0,0,0,0,0,0,0,
0,0,0,0,0,0,0,0,0,0,0,0,0,0,0,0,0,0,0,0,0,0,0,0,0,
0,0,0,0,0,0,0,0,0,0,0,0,0,0,0,0,0,0,0,0,0,0,0,0,0,
0,0,0,0,0,0,0,0,0,0,0,0,0,0,0,0,0,0,0,0,0,0,0,0,0,
0,0,0,0,0,0,0,0,0,0,0,0,0,0,0,0,0,0,0,0,0,0,0,0,0,
0,0,0,0,0,0,0,0,0,0,0,0,0,0,0,0,0,0,0,0,0,0,0,0,0,
0,0,0,0,0,0,0,0,0,0,0,0,0,0,0,0,0,0,0,0,0,0,0,0,0,
0,0,0,0,0,0,0,0,0,0,0,0,0,0,0,0,0,0,0,0,0,0,0,0,0,
0,0,0,0,0,0,0,0,0,0,0,0,0,0,0,0,0,0,0,0,0,0,0,0,0,
0,0,0,0,0,0,0,0,0,0,0,0,0,0,0,0,0,0,0,0,0,0,0,0,0,
0,0,0,0,0,0,0,0,0,0,0,0,0,0,0,0,0,0,0,0,0,0,0,0,0,
0,0,0,0,0,0,0,0,0,0,0,0,0,0,0,0,0,0,0,0,0,0,0,0,0
</data>
 </layer>
 <layer id="4" name="Deco2" width="25" height="22">
  <data encoding="csv">
0,0,0,0,0,0,0,0,0,0,0,0,685,686,0,0,0,0,0,0,0,0,0,0,0,
0,0,0,0,0,0,0,0,0,0,0,0,707,708,0,0,0,0,0,0,0,0,0,0,0,
0,0,0,0,0,0,0,0,0,729,730,0,0,729,730,0,0,0,0,0,0,0,0,0,0,
0,0,0,0,0,0,0,0,0,751,752,0,0,751,752,0,0,0,773,774,0,0,0,0,0,
0,0,0,0,0,0,0,0,0,773,774,0,0,773,774,0,0,0,795,796,0,0,0,0,0,
0,0,0,0,0,0,0,0,0,0,0,0,0,0,0,0,0,0,0,0,0,0,0,0,0,
0,0,0,0,0,0,0,0,0,0,0,0,0,0,0,0,0,0,0,0,0,0,0,0,0,
0,685,686,0,0,0,0,0,0,0,0,0,0,0,0,0,0,0,0,0,0,0,0,0,0,
0,707,708,0,0,0,0,0,0,0,0,0,0,0,0,0,0,0,0,0,0,0,0,0,0,
0,0,0,0,0,0,0,0,0,0,0,0,0,0,0,0,0,0,0,0,0,0,0,0,0,
0,0,0,0,0,0,0,0,0,0,0,0,0,0,0,0,0,0,0,0,0,0,0,0,0,
0,0,0,0,0,0,0,0,0,0,0,0,0,0,0,0,0,0,0,0,0,0,0,0,0,
0,0,0,0,0,0,0,0,0,0,0,0,0,0,0,0,0,0,0,0,0,0,0,0,0,
0,0,0,0,0,0,0,0,0,0,0,0,0,0,0,0,0,0,0,0,0,0,0,0,0,
0,0,0,0,0,0,0,0,0,0,0,0,0,0,0,0,0,0,0,0,0,0,0,0,0,
0,0,0,0,0,0,0,0,0,0,0,0,0,0,0,0,0,0,0,0,0,0,0,0,0,
0,0,0,0,0,0,0,0,0,0,0,0,0,0,0,0,0,0,0,0,0,0,0,0,0,
0,0,0,0,0,0,0,0,0,0,0,0,0,0,0,0,0,0,0,0,0,0,0,0,0,
0,0,0,0,0,0,0,0,0,0,0,0,0,0,0,0,0,0,0,0,0,0,0,0,0,
0,0,0,0,0,0,0,0,0,0,0,0,0,0,0,0,0,0,0,0,0,0,0,0,0,
0,0,0,0,0,0,0,0,0,0,0,0,0,0,0,0,0,0,0,0,0,0,0,0,0,
0,0,0,0,0,0,0,0,0,0,0,0,0,0,0,0,0,0,0,0,0,0,0,0,0
</data>
 </layer>
 <layer id="5" name="Salida" width="25" height="22" visible="0">
  <data encoding="csv">
0,0,0,0,0,0,0,0,0,0,0,0,0,0,0,0,0,0,0,0,0,0,0,0,0,
0,0,0,0,0,0,0,0,0,0,0,0,3221226180,3221226179,0,0,0,0,0,0,0,0,0,0,0,
0,0,0,0,0,0,0,0,0,0,729,730,3221226158,3221226157,0,0,0,0,0,0,0,0,0,0,0,
0,0,0,0,0,0,0,0,0,0,751,752,0,0,0,0,0,0,0,0,0,0,0,0,0,
0,0,0,0,0,0,0,0,0,0,0,0,0,0,0,0,0,0,0,0,0,0,0,0,0,
0,0,0,0,0,0,0,0,0,0,0,0,0,0,0,0,0,0,0,0,0,0,0,0,0,
0,0,0,0,0,0,0,0,0,0,0,0,0,0,0,0,0,0,0,0,0,0,0,0,0,
0,0,0,0,0,0,0,0,0,0,0,0,0,0,0,0,0,0,0,0,0,0,0,0,0,
0,0,0,0,0,0,0,0,0,0,0,0,0,0,0,0,0,0,0,0,0,0,0,0,0,
0,0,0,0,0,0,0,0,0,0,0,0,0,0,0,0,0,0,0,0,0,0,0,0,0,
0,0,0,0,0,0,0,0,0,0,0,0,0,0,0,0,0,0,0,0,0,0,0,0,0,
0,0,0,0,0,0,0,0,0,0,0,0,0,0,0,0,0,0,0,0,0,0,0,0,0,
0,0,0,0,0,0,0,0,0,0,0,0,0,0,0,0,0,0,0,0,0,0,0,0,0,
0,0,0,0,0,0,0,0,0,0,0,0,0,0,0,0,0,0,0,0,0,0,0,0,0,
0,0,0,0,0,0,0,0,0,0,0,0,0,0,0,0,0,0,0,0,0,0,0,0,0,
0,0,0,0,0,0,0,0,0,0,0,0,0,0,0,0,0,0,0,0,0,0,0,0,0,
0,0,0,0,0,0,0,0,0,0,0,0,0,0,0,0,0,0,0,0,0,0,0,0,0,
0,0,0,0,0,0,0,0,0,0,0,0,0,0,0,0,0,0,0,0,0,0,0,0,0,
0,0,0,0,0,0,0,0,0,0,0,0,0,0,0,0,0,0,0,0,0,0,0,0,0,
0,0,0,0,0,0,0,0,0,0,0,0,0,0,0,0,0,0,0,0,0,0,0,0,0,
0,0,0,0,0,0,0,0,0,0,0,0,0,0,0,0,0,0,0,0,0,0,0,0,0,
0,0,0,0,0,0,0,0,0,0,0,0,0,0,0,0,0,0,0,0,0,0,0,0,0
</data>
 </layer>
 <layer id="6" name="Salida2" width="25" height="22" visible="0">
  <data encoding="csv">
0,0,0,0,0,0,0,0,0,0,0,773,774,0,0,0,0,0,0,0,0,0,0,0,0,
0,0,0,0,0,0,0,0,0,0,685,795,796,0,0,0,0,0,0,0,0,0,0,0,0,
0,0,0,0,0,0,0,0,0,0,707,708,685,686,0,0,0,0,0,0,0,0,0,0,0,
0,0,0,0,0,0,0,0,0,0,0,0,707,708,0,0,0,0,0,0,0,0,0,0,0,
0,0,0,0,0,0,0,0,0,0,0,0,0,0,0,0,0,0,0,0,0,0,0,0,0,
0,0,0,0,0,0,0,0,0,0,0,0,0,0,0,0,0,0,0,0,0,0,0,0,0,
0,0,0,0,0,0,0,0,0,0,0,0,0,0,0,0,0,0,0,0,0,0,0,0,0,
0,0,0,0,0,0,0,0,0,0,0,0,0,0,0,0,0,0,0,0,0,0,0,0,0,
0,0,0,0,0,0,0,0,0,0,0,0,0,0,0,0,0,0,0,0,0,0,0,0,0,
0,0,0,0,0,0,0,0,0,0,0,0,0,0,0,0,0,0,0,0,0,0,0,0,0,
0,0,0,0,0,0,0,0,0,0,0,0,0,0,0,0,0,0,0,0,0,0,0,0,0,
0,0,0,0,0,0,0,0,0,0,0,0,0,0,0,0,0,0,0,0,0,0,0,0,0,
0,0,0,0,0,0,0,0,0,0,0,0,0,0,0,0,0,0,0,0,0,0,0,0,0,
0,0,0,0,0,0,0,0,0,0,0,0,0,0,0,0,0,0,0,0,0,0,0,0,0,
0,0,0,0,0,0,0,0,0,0,0,0,0,0,0,0,0,0,0,0,0,0,0,0,0,
0,0,0,0,0,0,0,0,0,0,0,0,0,0,0,0,0,0,0,0,0,0,0,0,0,
0,0,0,0,0,0,0,0,0,0,0,0,0,0,0,0,0,0,0,0,0,0,0,0,0,
0,0,0,0,0,0,0,0,0,0,0,0,0,0,0,0,0,0,0,0,0,0,0,0,0,
0,0,0,0,0,0,0,0,0,0,0,0,0,0,0,0,0,0,0,0,0,0,0,0,0,
0,0,0,0,0,0,0,0,0,0,0,0,0,0,0,0,0,0,0,0,0,0,0,0,0,
0,0,0,0,0,0,0,0,0,0,0,0,0,0,0,0,0,0,0,0,0,0,0,0,0,
0,0,0,0,0,0,0,0,0,0,0,0,0,0,0,0,0,0,0,0,0,0,0,0,0
</data>
 </layer>
 <layer id="7" name="Salida3" width="25" height="22" visible="0">
  <data encoding="csv">
0,0,0,0,0,0,0,0,0,0,0,0,0,0,0,0,0,0,0,0,0,0,0,0,0,
0,0,0,0,0,0,0,0,0,0,0,685,686,0,0,0,0,0,0,0,0,0,0,0,0,
0,0,0,0,0,0,0,0,0,0,0,707,708,0,0,0,0,0,0,0,0,0,0,0,0,
0,0,0,0,0,0,0,0,0,0,0,0,0,0,0,0,0,0,0,0,0,0,0,0,0,
0,0,0,0,0,0,0,0,0,0,0,0,0,0,0,0,0,0,0,0,0,0,0,0,0,
0,0,0,0,0,0,0,0,0,0,0,0,0,0,0,0,0,0,0,0,0,0,0,0,0,
0,0,0,0,0,0,0,0,0,0,0,0,0,0,0,0,0,0,0,0,0,0,0,0,0,
0,0,0,0,0,0,0,0,0,0,0,0,0,0,0,0,0,0,0,0,0,0,0,0,0,
0,0,0,0,0,0,0,0,0,0,0,0,0,0,0,0,0,0,0,0,0,0,0,0,0,
0,0,0,0,0,0,0,0,0,0,0,0,0,0,0,0,0,0,0,0,0,0,0,0,0,
0,0,0,0,0,0,0,0,0,0,0,0,0,0,0,0,0,0,0,0,0,0,0,0,0,
0,0,0,0,0,0,0,0,0,0,0,0,0,0,0,0,0,0,0,0,0,0,0,0,0,
0,0,0,0,0,0,0,0,0,0,0,0,0,0,0,0,0,0,0,0,0,0,0,0,0,
0,0,0,0,0,0,0,0,0,0,0,0,0,0,0,0,0,0,0,0,0,0,0,0,0,
0,0,0,0,0,0,0,0,0,0,0,0,0,0,0,0,0,0,0,0,0,0,0,0,0,
0,0,0,0,0,0,0,0,0,0,0,0,0,0,0,0,0,0,0,0,0,0,0,0,0,
0,0,0,0,0,0,0,0,0,0,0,0,0,0,0,0,0,0,0,0,0,0,0,0,0,
0,0,0,0,0,0,0,0,0,0,0,0,0,0,0,0,0,0,0,0,0,0,0,0,0,
0,0,0,0,0,0,0,0,0,0,0,0,0,0,0,0,0,0,0,0,0,0,0,0,0,
0,0,0,0,0,0,0,0,0,0,0,0,0,0,0,0,0,0,0,0,0,0,0,0,0,
0,0,0,0,0,0,0,0,0,0,0,0,0,0,0,0,0,0,0,0,0,0,0,0,0,
0,0,0,0,0,0,0,0,0,0,0,0,0,0,0,0,0,0,0,0,0,0,0,0,0
</data>
 </layer>
 <layer id="9" name="Player" width="25" height="22">
  <data encoding="csv">
0,0,0,0,0,0,0,0,0,0,0,0,0,0,0,0,0,0,0,0,0,0,0,0,0,
0,0,0,0,0,0,0,0,0,0,0,0,0,0,0,0,0,0,0,0,0,0,0,0,0,
0,0,0,0,0,0,0,0,0,0,0,0,0,0,0,0,0,0,0,0,0,0,0,0,0,
0,0,0,0,0,0,0,0,0,0,0,0,0,0,0,0,0,0,0,0,0,0,0,0,0,
0,0,0,0,0,0,0,0,0,0,0,0,0,0,0,0,0,0,0,0,0,0,0,0,0,
0,0,0,0,0,0,0,0,0,0,0,0,0,0,0,0,0,0,0,0,0,0,0,0,0,
0,0,0,0,0,0,0,0,0,0,0,0,0,0,0,0,0,0,0,0,0,0,0,0,0,
0,0,0,0,0,0,0,0,0,0,0,0,0,0,0,0,0,0,0,0,0,0,0,0,0,
0,0,0,0,0,0,0,0,0,0,0,0,0,0,0,0,0,0,0,0,0,0,0,0,0,
0,0,0,0,0,0,0,0,0,0,0,0,0,0,0,0,0,0,0,0,0,0,0,0,0,
0,0,0,0,0,0,0,0,0,0,0,0,0,0,0,0,0,0,0,0,0,0,0,0,0,
0,0,0,0,0,0,0,0,0,0,0,0,0,0,0,0,0,0,0,0,0,0,0,0,0,
0,0,0,0,0,0,0,0,0,0,0,0,0,0,0,0,0,0,0,0,0,0,0,0,0,
0,0,0,0,0,0,0,0,0,0,0,0,0,0,0,0,0,0,0,0,0,0,0,0,0,
0,0,0,0,0,0,0,0,0,0,0,0,0,0,0,0,0,0,0,0,0,0,0,0,0,
0,0,0,0,0,0,0,0,0,0,0,0,0,0,0,0,0,0,0,0,0,0,0,0,0,
0,0,0,0,0,0,0,0,0,0,0,0,0,0,0,0,0,0,0,0,0,0,0,0,0,
0,0,0,0,0,0,0,0,0,0,0,0,0,0,0,0,0,0,0,0,0,0,0,0,0,
0,0,0,0,0,0,0,0,0,0,0,0,0,0,0,0,0,0,0,0,0,0,0,0,0,
0,0,0,0,0,0,0,0,0,0,0,0,0,0,0,0,0,0,0,0,0,0,0,0,0,
0,0,0,0,0,0,0,0,0,0,0,0,0,0,0,0,0,0,0,0,0,0,0,0,0,
0,0,0,0,0,0,0,0,0,0,0,0,0,0,0,0,0,0,0,0,0,0,0,0,0
</data>
 </layer>
 <layer id="10" name="Deco3" width="25" height="22">
  <data encoding="csv">
0,0,0,0,0,0,0,0,0,0,0,0,0,0,0,0,0,0,0,0,0,0,0,0,0,
0,0,0,0,0,0,0,0,0,0,0,0,0,0,0,0,0,0,0,0,0,0,0,0,0,
0,0,0,0,0,0,0,0,0,0,0,0,0,0,0,0,0,0,0,0,0,0,0,0,0,
0,0,0,0,0,0,0,0,0,0,0,0,0,0,0,0,0,0,0,0,0,0,0,0,0,
0,0,0,0,0,0,0,0,0,0,0,0,0,0,0,0,0,0,0,0,0,0,0,0,0,
0,0,0,0,0,0,0,0,0,0,0,0,0,0,0,0,0,0,0,0,0,0,0,0,0,
0,0,2147484426,2147484425,0,0,0,0,0,0,0,0,0,0,0,0,0,0,0,0,0,0,0,0,0,
0,0,2147484448,2147484447,0,0,0,0,0,0,0,0,0,0,0,0,0,0,0,0,0,0,0,0,0,
0,0,0,0,0,0,0,0,0,0,0,0,0,0,0,0,0,0,0,0,0,0,0,0,0,
0,0,0,0,0,0,0,0,0,0,0,0,0,0,0,0,0,0,0,0,0,0,0,0,0,
0,0,0,0,0,0,0,0,0,0,0,0,0,0,0,0,0,0,0,0,0,0,0,0,0,
0,0,0,0,0,0,0,0,0,0,0,0,0,0,0,0,0,0,0,0,0,0,0,0,0,
0,0,0,0,0,0,0,0,0,0,0,0,0,0,0,0,0,0,0,0,0,0,0,0,0,
0,0,0,0,0,0,0,0,0,0,0,0,0,0,0,0,0,0,0,0,0,0,0,0,0,
0,0,0,0,0,0,0,0,0,0,0,0,0,0,0,0,0,0,0,0,0,0,0,0,0,
0,0,0,0,0,0,0,0,0,0,0,0,0,0,0,0,0,0,0,0,0,777,778,0,0,
0,0,0,0,0,0,913,914,0,0,0,0,0,0,0,0,0,0,913,914,0,799,800,0,0,
0,0,0,0,0,0,935,936,0,0,0,0,0,0,0,0,0,0,935,936,0,0,0,0,0,
0,0,0,0,0,0,0,0,0,0,0,0,0,0,0,0,0,0,0,0,0,0,0,0,0,
0,0,0,0,0,0,0,0,0,0,0,0,0,0,0,0,0,0,0,0,0,0,0,0,0,
0,0,0,0,0,0,0,0,0,0,0,0,0,0,0,0,0,0,0,0,0,0,0,0,0,
0,0,0,0,0,0,0,0,0,0,0,0,0,0,0,0,0,0,0,0,0,0,0,0,0
</data>
 </layer>
 <objectgroup id="8" name="CollisionMask">
  <object id="1" x="177.87" y="318.774">
   <polygon points="-4.375,0.875 -0.724346,-7.89343 -0.357537,-25.1501 -1.12046,-35.6793 -6.60934,-40.5489 -12.7055,-42.8978 -19.1317,-47.4682 -29.2814,-46.7548 -34.3439,-46.0631 -37.9963,-43.3673 -97.3638,-43.1695 -101.395,-45.164 -112.648,-47.5939 -120.374,-47.4211 -128.412,-46.8111 -133.254,-43.6325 -140.523,-44.1067 -144.709,-50.9629 -146.434,-57.9088 -145.753,-63.1294 -144.593,-70.2527 -144.454,-77.1005 -148.857,-81.189 -151.95,-80.8525 -154.415,-83.28 -158.62,-84.6786 -159.462,-89.3977 -159.379,-99.6495 -160.404,-112.524 -161.123,-116.274 -159.455,-123.527 -159.761,-138.026 -159.209,-142.402 -161.145,-147.276 -160.322,-154.399 -158.984,-159.654 -158.072,-171.4 -158.735,-178.74 -152.667,-181.277 -142.015,-180.822 -132.207,-181.409 -130.63,-185.839 -130.467,-188.742 -122.204,-190.482 -116.266,-193.295 -113.071,-199.615 -116.376,-207.062 -122.855,-208.732 -141.649,-209.052 -144.173,-200.573 -148.553,-204.913 -155.935,-207.948 -157.678,-213.38 -158.3,-260.934 -150.037,-260.934 -147.738,-257.835 -143.687,-254.464 -136.555,-253.106 -132.677,-254.376 -129.423,-257.08 -126.553,-260.934 -121.115,-261.848 -95.6758,-261.804 -94.4909,-257.585 -90.2123,-253.476 -77.2419,-253.642 -55.8569,-253.681 -36.8563,-254.155 -32.8173,-259.635 -26.1847,-255.82 -8.9567,-254.948 -4.7602,-263.84 -2.37343,-268.378 -1.10934,-271.895 -0.622678,-279.775 -0.545911,-284.163 -1.36978,-292.551 9.52516,-292.74 9.32555,-316.975 -170.912,-315.73 -173.521,0.43489"/>
  </object>
  <object id="2" x="237.885" y="319.209">
   <polygon points="0,0 2.96731,-23.0627 3.28379,-34.5255 7.90726,-39.0926 12.6107,-42.2671 16.9165,-44.5332 18.0028,-47.1806 22.1034,-48.0877 29.7516,-47.0245 34.735,-45.2782 40.8831,-44.0635 67.7437,-43.8041 89.6151,-43.7092 95.0665,-44.2181 99.2411,-46.4605 102.1,-50.0124 99.0053,-52.8459 98.7584,-58.6062 101.588,-62.2737 105.051,-61.6893 110.905,-60.1475 118.633,-59.5673 126.993,-64.4626 132.07,-65.4608 132.772,-71.0615 132.938,-76.2557 130.602,-81.2099 133.39,-83.9423 134.946,-88.7722 139.361,-87.4392 142.644,-88.2827 143.079,-250.497 142.644,-254.411 134.371,-254.047 130.607,-255.866 126.869,-254.176 121.359,-254.094 115.497,-255.876 111.24,-253.88 105.242,-253.869 100.775,-254.166 97.0555,-255.018 96.0025,-256.719 95.9208,-259.532 93.5014,-261.804 70.0173,-261.804 70.8706,-258.462 73.2592,-255.553 74.2256,-253.822 77.4052,-249.627 75.7762,-247.782 72.5457,-246.372 65.6684,-246.583 64.7387,-240.744 60.7669,-238.606 50.0124,-238.315 42.3932,-238.273 37.4005,-240.494 34.3563,-245.278 33.0516,-253.106 28.1429,-253.346 18.3305,-254.53 15.8252,-259.261 16.4764,-262.608 -0.43489,-262.674 -2.53901,-256.775 -10.5136,-254.847 -20.3253,-256.27 -23.038,-261.217 -26.4475,-261.309 -31.2966,-263.586 -32.239,-267.827 -29.9083,-272.613 -25.9608,-275.552 -27.3981,-278.33 -30.5561,-280.755 -33.3563,-284.012 -33.9761,-287.777 -32.6244,-290.768 -31.8139,-294.95 -34.9709,-294.796 -36.6978,-297.148 -35.8692,-300.458 -49.9606,-301.073 -56.7912,-317.23 153.081,-315.73 155.256,-42.6192 155.256,0"/>
  </object>
  <object id="5" x="168.5" y="286.5" width="75" height="8"/>
 </objectgroup>
</map>
