<?xml version="1.0" encoding="UTF-8"?>
<map version="1.10" tiledversion="1.11.2" orientation="orthogonal" renderorder="right-down" width="23" height="15" tilewidth="16" tileheight="16" infinite="0" nextlayerid="14" nextobjectid="5">
 <tileset firstgid="1" source="walls_floor.tsx"/>
 <tileset firstgid="177" source="beds_BR.tsx"/>
 <tileset firstgid="401" source="cabinets_LRK.tsx"/>
 <tileset firstgid="1576" source="decorations_LRK.tsx"/>
 <tileset firstgid="1696" source="doorswindowsstairs_LRK.tsx"/>
 <tileset firstgid="2432" source="Interior.tsx"/>
 <tileset firstgid="2810" source="Supplies.tsx"/>
 <tileset firstgid="3062" source="wardrobes_BR.tsx"/>
 <tileset firstgid="3545" source="Antique furniture sheet.tsx"/>
 <tileset firstgid="3830" source="Inner.tsx"/>
 <layer id="1" name="Floor" width="23" height="15">
  <data encoding="csv">
104,105,106,104,105,106,104,105,106,104,105,106,104,105,104,105,106,104,105,106,104,105,104,
115,116,117,115,116,117,115,116,117,115,116,117,115,116,115,116,117,115,116,117,115,116,115,
104,105,106,104,105,106,104,105,106,104,105,106,104,105,104,105,106,104,105,106,104,105,104,
115,116,117,115,116,117,115,116,117,115,116,117,115,116,115,116,117,115,116,117,115,116,115,
115,116,117,115,116,117,115,116,117,115,116,117,115,115,116,117,115,116,117,115,116,117,115,
115,116,117,115,115,116,117,116,117,115,116,117,115,115,116,117,115,116,117,115,116,117,115,
104,105,106,104,116,117,115,116,117,104,105,106,104,104,105,106,104,105,106,104,105,106,104,
115,116,117,115,116,117,104,105,106,115,116,117,115,115,116,117,115,116,117,115,116,117,115,
104,105,106,104,105,106,115,116,117,104,105,106,104,104,105,106,104,105,106,104,4199,4199,104,
115,116,117,115,116,117,115,116,117,115,116,117,115,115,116,117,115,116,117,115,116,117,115,
104,105,106,104,105,106,104,105,106,104,105,106,104,104,105,106,104,105,106,104,105,106,104,
115,116,117,115,116,117,115,116,117,115,116,117,115,115,116,117,115,116,117,115,116,117,115,
104,105,106,104,105,106,104,105,106,104,105,106,104,104,105,106,104,105,106,104,105,106,104,
116,117,116,117,116,117,115,116,117,115,116,117,115,116,115,116,117,115,116,117,115,116,117,
116,117,115,116,117,115,116,117,115,116,117,115,116,115,116,117,115,116,117,115,116,117,115
</data>
 </layer>
 <layer id="5" name="Deco" width="23" height="15">
  <data encoding="csv">
0,0,0,0,0,0,0,0,0,0,0,0,0,0,0,0,0,0,0,0,0,0,0,
0,0,0,0,0,0,0,0,0,0,0,0,0,0,0,0,0,0,0,0,0,0,0,
0,0,0,0,0,0,0,0,0,0,0,0,0,0,0,0,0,0,0,0,0,0,0,
0,0,0,0,0,0,0,0,0,0,0,0,0,0,0,0,0,0,0,0,0,0,0,
0,0,0,0,0,0,0,0,0,0,0,0,0,0,0,0,0,0,0,0,0,0,0,
0,0,0,0,2671,0,0,0,0,0,2677,0,0,0,0,0,0,0,0,0,0,0,0,
0,0,2933,0,2685,0,0,0,0,0,2691,0,0,0,0,0,0,0,0,0,0,0,12,
0,0,2951,0,2699,0,0,0,0,0,2705,0,0,0,0,0,0,0,0,0,0,0,12,
0,0,0,0,2713,0,0,0,0,0,2719,0,0,0,0,0,0,0,0,0,0,0,12,
0,0,0,0,0,0,0,0,0,0,0,0,0,0,0,0,0,0,0,0,0,0,0,
0,0,0,0,0,0,0,0,0,0,0,0,0,0,0,0,0,0,0,0,0,0,0,
2886,2887,0,0,0,0,0,0,0,0,0,0,0,0,0,0,0,0,0,0,0,0,0,
2904,2905,0,0,0,0,0,0,0,0,0,0,0,0,0,0,0,0,0,0,0,0,0,
0,0,0,0,0,0,0,0,0,0,0,0,0,0,0,0,0,0,0,0,0,0,12,
0,0,0,0,0,0,0,0,0,0,0,0,0,0,0,0,0,0,0,0,0,0,0
</data>
 </layer>
 <layer id="2" name="Paredes" width="23" height="15">
  <data encoding="csv">
15,24,24,24,24,24,24,24,24,24,24,24,24,24,24,24,24,24,24,24,24,24,16,
26,35,35,35,35,35,35,35,35,35,35,35,35,35,35,35,35,35,35,35,35,35,27,
37,46,46,46,46,46,46,46,46,46,46,46,46,46,46,46,46,46,46,46,46,46,38,
14,0,0,0,0,0,0,0,0,0,0,0,2892,0,0,0,0,0,0,0,0,0,12,
14,0,0,0,0,2658,2659,2660,2661,2662,0,0,2910,0,0,0,0,0,0,0,0,0,12,
14,0,0,0,0,2672,2673,2674,2675,2676,0,0,0,0,0,0,0,0,0,0,0,0,12,
14,0,2870,2871,0,2686,2687,2688,2689,2690,0,0,0,0,0,0,0,0,0,0,0,0,12,
14,2896,2888,2889,0,2700,2701,2702,2703,2704,0,0,0,0,0,0,0,0,0,0,0,0,12,
14,2914,2906,2907,0,2714,2715,2716,2717,2718,0,0,0,0,0,0,0,0,0,0,0,0,12,
14,2976,2977,2978,0,2728,2729,2730,2731,2732,0,0,0,0,0,0,0,0,0,0,0,0,12,
14,0,0,0,0,0,0,0,0,0,0,0,0,0,0,0,0,0,0,0,0,0,12,
14,0,0,0,0,0,0,0,0,0,0,0,0,0,0,0,0,0,0,0,0,0,12,
14,0,0,0,0,0,0,0,0,0,0,0,0,0,0,0,0,0,0,0,0,0,12,
0,0,0,0,0,0,0,0,0,0,0,0,0,0,0,0,0,0,0,0,0,0,0,
2,2,2,2,2,2,2,2,2,2,3,0,1,2,2,2,2,2,2,2,2,2,49
</data>
 </layer>
 <layer id="7" name="Windows" width="23" height="15">
  <data encoding="csv">
0,0,3999,4000,0,0,0,0,0,0,0,0,0,0,0,0,0,0,0,0,0,0,0,
0,0,4039,4040,0,0,0,0,0,0,0,0,0,0,0,0,0,0,0,0,0,0,0,
0,0,0,0,0,0,0,0,0,0,0,0,0,0,0,0,0,0,0,0,0,0,0,
0,0,0,0,0,0,0,0,0,0,0,0,0,0,0,0,0,0,0,0,0,0,0,
0,0,0,0,0,2671,0,0,0,0,0,0,0,0,0,0,0,0,0,0,0,0,0,
0,0,0,0,0,0,0,0,0,0,0,0,0,0,0,0,0,0,0,0,0,0,0,
0,0,0,0,0,0,0,0,0,0,0,0,0,0,0,0,0,0,0,0,0,0,0,
0,0,0,0,0,2713,0,0,0,0,0,0,0,0,0,0,0,0,0,0,0,0,0,
0,0,0,0,0,0,0,0,0,0,0,0,0,0,0,0,0,0,0,0,2786,2787,0,
0,0,0,0,0,0,0,0,0,0,0,0,0,0,0,0,0,0,0,0,0,0,0,
0,0,0,0,0,0,0,0,0,0,0,0,0,0,0,0,0,0,0,0,0,0,0,
0,0,0,0,0,0,0,0,0,0,0,0,0,0,0,0,0,0,0,0,0,0,0,
0,0,0,0,0,0,0,0,0,0,0,0,0,0,0,0,0,0,0,0,0,0,0,
0,0,0,0,0,0,0,0,0,0,0,0,0,0,0,0,0,0,0,0,0,0,0,
0,0,0,0,0,0,0,0,0,0,0,0,0,0,0,0,0,0,0,0,0,0,0
</data>
 </layer>
 <layer id="3" name="Furniture" width="23" height="15">
  <data encoding="csv">
0,0,0,0,0,0,0,0,0,0,0,0,3999,4000,0,0,0,0,0,2517,2518,2519,2520,
0,0,192,193,0,0,1013,1014,1015,1017,1018,1019,4039,4040,0,0,0,0,0,2531,2532,2533,2534,
0,0,206,207,0,1637,1060,1061,1062,1064,1065,1066,0,0,0,0,0,0,0,2545,2546,2547,2548,
0,0,220,221,0,1649,1107,1108,1109,1111,1112,1113,0,0,0,0,0,0,0,2559,2560,2561,2562,
0,0,234,235,0,0,2671,0,0,0,0,0,0,0,0,0,0,0,0,0,0,0,0,
0,0,0,0,0,0,0,0,0,0,0,0,0,0,0,0,0,0,0,0,0,0,0,
1737,1738,1739,1740,0,0,0,0,0,0,0,0,0,0,4075,4076,4076,4076,4076,4076,4076,4076,4077,
1783,1784,1785,1786,0,0,2713,0,0,0,0,0,0,0,4115,4116,4116,4116,4116,4116,4116,4116,4117,
1829,1830,1831,1832,0,0,0,2728,0,0,0,0,0,0,4155,4156,4156,4156,4156,4204,4205,4206,4157,
1875,1876,1877,1878,0,0,0,0,0,0,0,0,0,0,0,0,0,0,0,0,0,0,0,
1921,1922,1923,1924,0,0,0,0,0,0,0,0,0,0,0,0,0,0,0,0,0,0,0,
0,0,0,0,0,0,0,0,0,0,0,0,0,0,0,0,0,0,0,0,0,0,0,
0,0,0,0,0,0,0,0,0,0,0,0,0,0,0,0,0,0,0,0,0,0,0,
0,0,0,0,0,0,0,0,0,0,0,0,0,0,0,0,0,0,0,0,0,0,0,
0,0,0,0,0,0,0,0,0,0,0,0,0,0,0,0,0,0,0,0,0,0,0
</data>
 </layer>
 <layer id="6" name="Objetcs" width="23" height="15">
  <data encoding="csv">
0,0,0,0,0,4434,0,0,0,0,0,0,0,0,3105,3106,3107,4434,3999,4000,0,0,0,
0,0,0,0,0,4474,0,0,0,0,0,0,0,0,3126,3127,3128,4474,4039,4040,0,0,0,
0,0,0,0,0,0,0,0,0,0,0,0,0,0,3147,3148,3149,3692,3693,0,0,0,0,
0,0,0,0,0,0,0,0,0,0,0,0,0,0,3168,3169,3170,3711,3712,0,0,0,0,
0,0,0,0,0,0,0,0,0,0,0,0,0,0,0,0,0,0,0,0,0,0,4434,
0,0,0,0,0,0,0,0,0,0,0,0,0,0,0,0,0,0,0,0,0,0,4474,
0,0,0,0,0,0,0,0,0,0,0,0,0,0,0,4234,0,0,0,0,0,0,0,
0,0,0,0,0,0,0,0,0,0,0,0,0,0,0,4274,4242,4243,0,4124,4125,4126,0,
0,0,0,2894,0,0,0,0,0,0,0,0,0,2492,2493,0,4282,4283,0,0,2786,2787,4434,
0,0,0,2912,0,0,0,0,0,0,0,0,0,2506,2507,0,4320,4321,0,4164,4165,4166,4474,
0,0,0,0,0,0,0,0,0,0,0,0,0,0,0,0,0,0,0,0,0,0,0,
0,0,0,0,0,0,0,0,0,0,0,0,0,0,0,0,0,0,0,0,0,0,0,
0,0,0,0,0,0,0,0,0,0,0,0,0,0,0,0,0,0,0,0,0,0,4434,
0,0,0,0,0,0,0,0,0,0,0,0,0,0,0,0,0,0,0,0,0,0,4474,
0,0,0,0,0,0,0,0,0,0,3876,3877,0,0,0,0,0,0,0,0,0,0,0
</data>
 </layer>
 <layer id="8" name="Deco" width="23" height="15">
  <data encoding="csv">
0,0,0,0,0,0,0,0,0,0,0,0,0,0,0,0,0,0,0,0,0,0,0,
0,0,0,0,0,0,0,0,0,0,0,0,0,0,0,0,0,0,0,0,0,0,0,
0,0,0,0,0,0,0,0,0,0,0,0,0,0,0,0,0,0,0,0,0,0,0,
0,0,0,0,0,0,0,0,0,0,0,0,0,0,0,0,0,0,0,0,0,0,0,
0,0,0,0,0,0,0,0,0,0,0,0,0,0,0,0,0,0,0,0,0,0,0,
0,0,0,0,0,0,0,0,0,0,0,0,0,0,0,0,0,0,0,0,0,0,0,
0,0,0,0,0,0,0,0,0,0,0,0,0,0,0,0,0,0,0,2761,0,0,0,
0,0,0,0,0,0,0,0,0,0,0,0,0,0,0,0,0,0,0,2775,2794,0,0,
0,0,0,0,0,0,0,0,0,0,0,0,0,0,0,0,0,0,0,0,0,0,0,
0,0,0,0,0,0,0,0,0,0,0,0,0,0,0,0,0,0,0,0,0,0,0,
0,0,0,0,0,0,0,0,0,0,0,0,0,0,0,0,0,0,0,0,0,0,0,
0,0,0,0,0,0,0,0,0,0,0,0,0,0,0,0,0,0,0,0,0,0,0,
0,0,0,0,0,0,0,0,0,0,0,0,0,0,0,0,0,0,0,0,0,0,0,
0,0,0,0,0,0,0,0,0,0,0,0,0,0,0,0,0,0,0,0,0,0,0,
0,0,0,0,0,0,0,0,0,0,0,0,0,0,0,0,0,0,0,0,0,0,0
</data>
 </layer>
 <layer id="10" name="Player" width="23" height="15">
  <data encoding="csv">
0,0,0,0,0,0,0,0,0,0,0,0,0,0,0,0,0,0,0,0,0,0,0,
0,0,0,0,0,0,0,0,0,0,0,0,0,0,0,0,0,0,0,0,0,0,0,
0,0,0,0,0,0,0,0,0,0,0,0,0,0,0,0,0,0,0,0,0,0,0,
0,0,0,0,0,0,0,0,0,0,0,0,0,0,0,0,0,0,0,0,0,0,0,
0,0,0,0,0,0,0,0,0,0,0,0,0,0,0,0,0,0,0,0,0,0,0,
0,0,0,0,0,0,0,0,0,0,0,0,0,0,0,0,0,0,0,0,0,0,0,
0,0,0,0,0,0,0,0,0,0,0,0,0,0,0,0,0,0,0,0,0,0,0,
0,0,0,0,0,0,0,0,0,0,0,0,0,0,0,0,0,0,0,0,0,0,0,
0,0,0,0,0,0,0,0,0,0,0,0,0,0,0,0,0,0,0,0,0,0,0,
0,0,0,0,0,0,0,0,0,0,0,0,0,0,0,0,0,0,0,0,0,0,0,
0,0,0,0,0,0,0,0,0,0,0,0,0,0,0,0,0,0,0,0,0,0,0,
0,0,0,0,0,0,0,0,0,0,0,0,0,0,0,0,0,0,0,0,0,0,0,
0,0,0,0,0,0,0,0,0,0,0,0,0,0,0,0,0,0,0,0,0,0,0,
0,0,0,0,0,0,0,0,0,0,0,0,0,0,0,0,0,0,0,0,0,0,0,
0,0,0,0,0,0,0,0,0,0,0,0,0,0,0,0,0,0,0,0,0,0,0
</data>
 </layer>
 <layer id="13" name="Hada" width="23" height="15">
  <data encoding="csv">
0,0,0,0,0,0,0,0,0,0,0,0,0,0,0,0,0,0,0,0,0,0,0,
0,0,0,0,0,0,0,0,0,0,0,0,0,0,0,0,0,0,0,0,0,0,0,
0,0,0,0,0,0,0,0,0,0,0,0,0,0,0,0,0,0,0,0,0,0,0,
0,0,0,0,0,0,0,0,0,0,0,0,0,0,0,0,0,0,0,0,0,0,0,
0,0,0,0,0,0,0,0,0,0,0,0,0,0,0,0,0,0,0,0,0,0,0,
0,0,0,0,0,0,0,0,0,0,0,0,0,0,0,0,0,0,0,0,0,0,0,
0,0,0,0,0,0,0,0,0,0,0,0,0,0,0,0,0,0,0,0,0,0,0,
0,0,0,0,0,0,0,0,0,0,0,0,0,0,0,0,0,0,0,0,0,0,0,
0,0,0,0,0,0,0,0,0,0,0,0,0,0,0,0,0,0,0,0,0,0,0,
0,0,0,0,0,0,0,0,0,0,0,0,0,0,0,0,0,0,0,0,0,0,0,
0,0,0,0,0,0,0,0,0,0,0,0,0,0,0,0,0,0,0,0,0,0,0,
0,0,0,0,0,0,0,0,0,0,0,0,0,0,0,0,0,0,0,0,0,0,0,
0,0,0,0,0,0,0,0,0,0,0,0,0,0,0,0,0,0,0,0,0,0,0,
0,0,0,0,0,0,0,0,0,0,0,0,0,0,0,0,0,0,0,0,0,0,0,
0,0,0,0,0,0,0,0,0,0,0,0,0,0,0,0,0,0,0,0,0,0,0
</data>
 </layer>
 <layer id="11" name="Chairs" width="23" height="15">
  <data encoding="csv">
0,0,0,0,0,0,0,0,0,0,0,0,0,0,0,0,0,0,0,0,0,0,0,
0,0,0,0,0,0,0,0,0,0,0,0,0,0,0,0,0,0,0,0,0,0,0,
0,0,0,0,0,0,0,0,0,0,0,0,0,0,0,0,0,0,0,0,0,0,0,
0,0,0,0,0,0,0,0,0,0,0,0,0,0,0,0,0,0,0,0,0,0,0,
0,0,0,0,0,0,0,0,0,0,0,0,0,0,0,0,0,0,0,0,0,0,0,
0,0,0,0,0,0,0,0,0,0,0,0,0,0,0,0,0,0,0,0,0,0,0,
0,0,0,0,0,0,0,0,0,0,0,0,0,0,0,0,0,0,0,0,0,0,0,
0,0,0,0,0,0,0,0,0,0,0,0,0,0,0,0,0,0,0,0,0,0,0,
0,0,0,0,0,0,0,0,0,0,0,0,0,0,0,0,0,0,0,0,0,0,0,
0,0,0,0,0,0,0,0,0,0,0,0,0,0,0,0,0,0,0,0,0,0,0,
0,0,0,0,0,0,0,0,0,0,0,0,0,0,0,0,0,4006,0,0,4005,0,0,
0,0,0,0,0,0,0,0,0,0,0,0,0,0,0,0,0,4046,0,0,4045,0,0,
0,0,0,0,0,0,0,0,0,0,0,0,0,0,0,0,0,4086,0,0,4085,0,0,
0,0,0,0,0,0,0,0,0,0,0,0,0,0,0,0,0,0,0,0,0,0,0,
0,0,0,0,0,0,0,0,0,0,0,0,0,0,0,0,0,0,0,0,0,0,0
</data>
 </layer>
 <layer id="4" name="Furniture2" width="23" height="15">
  <data encoding="csv">
0,0,0,0,0,0,0,0,0,0,0,0,0,0,0,0,0,0,0,0,0,0,0,
2577,2578,2579,0,0,0,0,0,0,0,0,0,0,0,0,0,0,0,0,0,0,0,0,
2591,2592,2593,0,0,0,0,0,0,0,0,0,0,0,0,0,0,0,0,0,0,0,0,
2605,2606,2607,0,0,0,0,0,0,0,0,0,0,0,0,0,0,0,0,0,0,0,0,
0,0,0,0,0,0,0,0,0,0,0,2677,0,0,0,0,0,0,0,0,0,0,0,
0,0,0,0,0,0,2567,2568,2569,2570,0,0,0,0,0,0,0,0,0,0,0,0,0,
0,0,0,0,0,2580,2581,2582,2583,2584,0,0,0,0,0,0,0,0,0,0,0,0,12,
14,0,0,0,0,2594,2595,2596,2597,2598,0,2719,0,0,0,0,0,0,0,2757,2758,0,12,
14,0,2925,2926,2927,2928,2609,2610,2611,0,0,0,0,0,0,0,0,0,0,2771,2772,0,12,
14,0,2943,2944,2945,2946,0,0,0,0,0,0,0,0,0,0,0,0,0,0,0,0,0,
14,0,2961,2962,2963,2964,0,0,0,0,0,0,0,0,0,0,0,0,2480,2481,0,0,0,
0,0,2979,2980,2981,2982,0,0,0,0,0,0,0,0,0,0,0,0,2494,2495,0,0,0,
0,0,0,0,0,0,0,0,0,0,0,0,0,0,0,0,0,0,2508,2509,0,0,0,
14,0,0,0,0,0,0,0,0,0,0,0,0,0,0,0,0,0,0,0,0,0,0,
14,0,0,0,0,0,0,0,0,0,0,0,2,0,0,0,0,0,0,0,0,0,0
</data>
 </layer>
 <objectgroup id="9" name="CollisionMask">
  <object id="1" x="160.151" y="231.615">
   <polygon points="0,0 -149.876,0.545455 -149.157,-28.5854 -131.546,-29.6791 -131.003,-42.5116 -125.052,-47.6045 -112.881,-41.9718 -101.691,-37.1792 -92.5317,-39.378 -86.4891,-43.611 -68.1367,-45.5968 -68.1537,-72.4748 -78.2106,-73.4123 -78.5856,-93.7476 -94.1027,-93.3726 -94.5147,-103.921 -100.387,-104.18 -101.977,-121.428 -104.165,-123.057 -112.481,-122.253 -117.555,-126.893 -124.072,-127.123 -127.271,-124.241 -128.075,-119.617 -135.466,-119.19 -140.467,-120.169 -152.398,-120.634 -155.025,-121.99 -155.322,-146.967 -155.328,-165.718 -153.955,-173.737 -133.131,-172.728 -130.398,-152.481 -127.031,-148.888 -98.5145,-149.586 -92.7703,-153.222 -92.6552,-164.803 -93.0289,-183.822 -80.8875,-184.222 -81.4983,-166.68 -61.2689,-165.209 -28.398,-165.515 4.49925,-165.459 26.1109,-165.589 29.2359,-159.168 39.8923,-158.918 49.4491,-160.293 50.5741,-169.313 59.3486,-169.313 62.2236,-165.313 111.75,-165.697 139.028,-166.114 139.251,-172.438 142.876,-175.319 152.972,-173.504 180.291,-175.043 190.569,-168.947 200.339,-169.822 200.964,-138.785 200.464,-113.975 61.5572,-112.018 60.6764,-100.296 52.5969,-97.7988 49.7303,-94.2136 50.1508,-86.1709 53.1338,-77.2362 64.1082,-76.8436 72.5515,-78.5032 83.9237,-82.4578 95.3698,-82.0743 95.4948,-70.8129 127.501,-71.2049 130.3,-75.0553 129.393,-84.2532 140.728,-85.5402 149.455,-78.5685 185.674,-78.0259 193.134,-82.0913 198.265,-82.0913 200.41,-78.5201 199.916,0.707373 32.0939,-0.375007 31.7246,7.14208 208.16,7.69606 208.16,-233.447 -160.518,-230.882 -160.328,9.11934 -0.366479,7.69606"/>
  </object>
  <object id="2" x="270.462" y="180.308">
   <polygon points="0,0 0.75,19.0768 19.7253,19.9043 23.4142,21.4533 45.4763,21.5731 66.7646,20.7728 66.3896,-0.00285378 60.4379,-1.77913 27.893,-2.25239 7.35661,-1.27282"/>
  </object>
  <object id="3" x="86.4891" y="104.813">
   <polygon points="1.27273,-0.454545 1.00777,14.8677 5.08128,17.9238 13.963,17.3406 15.0224,21.0614 17.6142,27.3841 24.7912,32.6668 41.1735,33.0201 43.4594,27.2299 51.5698,26.3685 55.7901,18.5507 66.6862,15.8318 67.9123,4.50003 66.6565,-0.529688 54.6861,-0.255196 52.0137,-6.87365 41.3411,-12.3296 23.9747,-11.659 16.3453,-6.13311 12.31,-1.65212"/>
  </object>
  <object id="4" x="221.5" y="93" width="145.5" height="54.5"/>
 </objectgroup>
</map>
