<?xml version="1.0" encoding="UTF-8"?>
<map version="1.10" tiledversion="1.11.2" orientation="orthogonal" renderorder="right-down" width="14" height="30" tilewidth="16" tileheight="16" infinite="0" nextlayerid="14" nextobjectid="11">
 <tileset firstgid="1" source="IceTileSet.tsx"/>
 <tileset firstgid="685" source="IceCaveObjects.tsx"/>
 <tileset firstgid="949" source="decorative_cave.tsx"/>
 <layer id="1" name="Ground" width="14" height="30">
  <data encoding="csv">
606,606,155,155,193,231,231,155,156,606,155,156,606,606,
155,155,193,193,231,269,269,155,156,606,193,155,156,606,
193,193,155,156,269,269,270,155,156,155,231,193,194,606,
231,231,193,194,269,155,156,155,156,193,269,231,232,606,
269,269,231,232,606,193,194,155,156,231,232,269,270,606,
606,606,269,270,155,231,232,156,194,155,156,155,156,155,
606,606,606,193,155,269,270,194,232,155,156,155,155,193,
606,606,155,155,156,156,194,232,270,155,156,155,156,231,
155,156,156,193,194,194,232,270,155,156,194,155,156,269,
156,194,194,231,232,232,270,606,193,194,232,156,194,232,
194,232,232,269,270,270,194,156,231,232,270,194,232,270,
232,270,270,270,194,232,232,194,269,270,156,156,270,606,
270,606,401,402,403,404,156,557,558,559,560,194,156,156,
606,155,439,401,402,403,404,194,595,596,597,598,194,194,
606,193,194,439,440,441,442,156,232,558,559,560,232,232,
606,231,232,232,270,270,193,194,270,194,269,270,270,270,
606,269,270,270,270,270,231,232,232,232,194,606,606,269,
606,155,156,156,606,606,269,270,270,270,232,606,606,269,
606,155,156,194,606,155,156,606,155,269,270,606,155,156,
606,193,194,232,606,193,194,606,193,194,606,606,193,194,
156,231,232,270,606,231,232,606,231,232,606,606,231,232,
254,255,255,255,255,477,478,479,480,255,255,255,255,270,
254,255,255,255,255,515,516,517,518,253,255,255,255,254,
254,255,255,255,255,553,554,555,556,253,255,255,255,254,
254,253,253,253,253,591,592,593,594,253,255,255,253,254,
254,253,255,253,253,629,630,631,632,253,253,255,253,254,
254,253,253,255,247,667,668,669,670,255,253,253,253,254,
292,255,255,255,285,286,255,255,255,255,255,255,255,254,
292,292,292,292,292,475,476,292,292,292,292,292,292,292,
292,292,292,292,254,513,514,292,292,292,292,292,292,292
</data>
 </layer>
 <layer id="2" name="borders" width="14" height="30">
  <data encoding="csv">
7,8,9,9,33,34,35,36,37,38,9,9,9,10,
45,46,47,47,71,72,73,74,75,76,47,47,47,48,
83,84,85,85,109,110,111,112,113,114,85,85,85,86,
121,122,123,123,147,148,149,150,151,152,123,123,123,124,
159,160,0,0,0,0,0,0,0,0,0,0,0,162,
159,160,0,0,0,0,0,0,0,0,0,0,0,124,
21,22,23,24,25,26,27,28,29,30,23,24,31,32,
59,60,61,62,63,64,65,66,67,68,61,62,69,70,
97,98,99,100,101,102,103,104,105,106,99,100,107,108,
135,136,137,138,139,140,141,142,143,144,137,138,145,146,
173,174,175,176,177,178,179,180,181,182,175,176,183,184,
211,212,213,214,215,216,217,218,219,220,213,214,221,222,
0,0,0,0,0,0,0,0,0,0,0,0,0,0,
0,0,0,0,0,0,0,0,0,0,0,0,0,0,
0,0,0,0,0,0,0,0,0,0,0,0,0,0,
241,242,469,470,241,242,241,242,241,242,469,470,241,242,
279,280,507,508,279,280,279,280,279,280,507,508,279,280,
317,318,545,546,317,318,317,318,317,318,545,546,317,318,
355,356,583,584,355,356,355,356,355,356,583,584,355,356,
393,394,621,622,393,394,393,394,393,394,621,622,393,394,
3221225714,3221225713,3221225714,3221225713,3221225714,3221225713,3221225714,3221225713,3221225714,3221225713,3221225714,3221225713,3221225714,3221225713,
0,0,0,0,0,0,0,0,0,0,0,0,0,0,
0,0,0,0,0,0,0,0,0,0,0,0,0,0,
0,0,0,0,0,0,0,0,0,0,0,0,0,0,
0,0,0,0,0,0,0,0,0,0,0,0,0,0,
0,0,0,0,0,0,0,0,0,0,0,0,0,0,
0,0,0,0,0,0,0,0,0,0,0,0,0,0,
0,0,0,0,0,0,0,0,0,0,0,0,0,0,
0,0,0,0,0,0,0,0,0,0,0,0,0,0,
0,0,0,0,673,603,0,0,608,674,0,0,0,0
</data>
 </layer>
 <layer id="3" name="rocks" width="14" height="30" opacity="0.9">
  <data encoding="csv">
0,0,0,0,0,0,0,0,0,0,533,534,0,0,
0,0,0,0,0,0,0,0,0,0,571,572,0,0,
0,0,0,0,0,0,0,0,0,0,609,610,0,0,
0,0,0,0,0,0,0,0,0,0,647,648,0,0,
0,0,0,0,0,0,0,0,0,0,0,0,0,0,
0,0,0,0,0,0,0,0,0,0,0,0,0,0,
0,0,0,0,0,0,0,0,0,0,0,0,0,0,
0,0,0,0,0,0,0,0,0,0,0,0,0,0,
0,0,0,0,0,0,0,0,0,0,0,0,0,0,
0,0,0,0,0,0,0,0,0,0,0,0,0,0,
121,0,0,0,0,0,0,0,0,0,0,0,0,0,
313,314,0,0,0,0,0,0,0,0,0,0,0,0,
351,352,0,0,0,0,0,0,0,0,0,0,0,0,
389,390,0,0,0,0,0,0,0,0,0,0,0,0,
427,428,0,0,0,0,0,0,0,0,0,0,0,0,
603,0,0,0,0,0,0,0,0,0,0,0,0,0,
0,0,0,0,0,0,0,0,0,0,0,0,0,0,
0,0,0,0,0,0,0,0,0,0,0,0,0,0,
0,0,0,0,0,0,0,0,0,0,0,0,0,0,
0,0,0,0,0,0,0,0,0,0,0,0,0,0,
0,0,0,0,0,0,0,0,0,0,0,0,0,0,
0,0,0,0,0,0,0,0,0,0,0,0,0,0,
0,0,0,0,0,0,0,0,0,0,0,0,0,0,
0,0,0,0,0,0,0,0,0,0,0,0,0,0,
0,0,0,0,0,0,0,0,0,0,0,0,0,0,
0,0,0,0,0,0,0,0,0,0,0,0,0,0,
0,0,0,0,0,0,0,0,0,0,0,0,0,0,
0,0,0,0,0,0,0,0,0,0,0,0,0,0,
0,0,0,0,0,0,0,0,0,0,0,0,0,0,
0,0,0,0,0,0,0,0,0,0,0,0,0,0
</data>
 </layer>
 <layer id="5" name="hielo" width="14" height="30">
  <data encoding="csv">
0,0,0,0,0,0,0,0,0,0,0,0,0,0,
0,0,0,0,0,0,0,0,0,0,0,0,0,0,
0,0,0,0,0,0,0,0,0,0,0,0,0,0,
0,0,0,0,0,0,0,0,0,0,0,0,0,0,
0,0,0,0,0,0,0,0,0,0,0,0,0,0,
0,0,0,0,0,0,0,0,0,0,0,0,0,0,
0,0,0,0,0,0,0,0,0,0,0,0,0,0,
0,0,0,0,0,0,0,0,0,0,0,0,0,0,
0,0,0,0,0,0,0,0,0,0,0,0,0,0,
0,0,0,0,0,0,0,0,0,0,0,0,0,0,
0,0,0,0,0,0,0,0,0,0,0,0,0,0,
0,0,0,0,0,0,0,0,0,0,0,0,0,0,
0,0,0,0,0,0,0,0,0,0,0,0,0,0,
0,0,0,0,0,0,0,0,0,0,0,0,0,0,
0,0,0,0,0,0,0,0,0,0,0,0,0,0,
12,13,14,15,12,13,14,15,12,13,14,15,12,13,
50,51,52,53,50,51,52,53,50,51,52,53,50,51,
88,89,90,91,88,89,90,91,88,89,90,91,88,89,
126,127,128,129,126,127,128,129,126,127,128,129,126,127,
164,165,166,167,164,165,166,167,164,165,166,167,164,165,
202,203,204,205,202,203,204,205,202,203,204,205,202,203,
255,0,0,0,0,0,0,0,0,0,0,0,0,255,
255,0,0,0,0,0,0,0,0,0,0,0,0,255,
255,0,0,0,0,0,0,0,0,0,0,0,0,255,
253,0,0,0,0,0,0,0,0,0,0,0,0,255,
253,0,0,0,0,0,0,0,0,0,0,0,0,255,
255,0,0,0,0,0,0,0,0,0,0,0,0,253,
255,0,0,0,0,0,0,0,0,0,0,0,0,255,
0,0,0,0,0,0,0,0,0,0,0,0,0,0,
0,0,0,0,0,0,0,0,0,0,0,0,0,0
</data>
 </layer>
 <layer id="7" name="cave" width="14" height="30">
  <data encoding="csv">
0,0,0,0,0,0,0,0,0,0,0,0,0,0,
0,0,0,0,0,0,0,0,0,0,0,0,0,0,
0,0,0,0,0,0,0,0,0,0,0,0,0,0,
0,0,0,0,0,0,0,0,0,0,0,0,0,0,
0,0,0,0,0,0,0,0,0,0,0,0,0,0,
0,0,0,0,0,0,0,0,0,0,0,0,0,0,
0,0,0,0,0,0,0,0,0,0,0,0,0,0,
0,0,0,0,0,0,0,0,0,0,0,0,0,0,
0,0,0,0,0,0,0,0,0,0,0,0,0,0,
0,0,0,0,0,0,0,0,0,0,0,0,0,0,
0,0,0,0,0,0,0,0,0,0,0,0,0,0,
0,0,0,0,0,0,0,0,0,0,0,0,0,0,
0,0,0,0,0,0,0,0,0,0,0,0,0,0,
0,0,0,0,0,0,0,0,0,0,0,0,0,0,
0,0,0,0,0,0,0,0,0,0,0,0,0,0,
0,0,0,0,0,0,0,0,0,0,0,0,0,0,
0,0,0,0,0,0,0,0,0,0,0,0,0,0,
0,0,0,0,0,0,0,0,0,0,0,0,0,0,
0,0,0,0,0,0,0,0,0,0,0,0,0,0,
0,0,0,0,0,0,0,0,0,0,0,0,0,0,
0,0,0,0,0,0,0,0,0,0,0,0,0,0,
0,0,0,0,0,0,0,0,0,0,0,0,0,0,
0,0,0,0,0,0,0,0,0,0,0,0,0,0,
0,0,0,0,0,0,0,0,0,0,0,0,0,0,
0,0,0,0,0,0,0,0,0,0,0,0,0,0,
0,0,0,0,0,0,0,0,0,0,0,0,0,0,
0,0,0,0,0,0,0,0,0,0,0,0,0,0,
0,0,0,0,0,0,0,0,0,0,0,0,0,0,
0,0,0,0,0,0,0,0,0,0,0,0,0,0,
0,0,0,0,0,0,0,0,0,0,0,0,0,0
</data>
 </layer>
 <layer id="6" name="entry" width="14" height="30">
  <data encoding="csv">
0,0,0,0,0,0,0,0,0,0,0,0,0,0,
0,0,0,0,0,0,0,0,0,0,0,0,0,0,
0,0,0,0,0,0,0,0,0,0,0,0,0,0,
0,0,0,0,0,0,0,0,0,0,0,0,0,0,
0,0,0,0,0,0,0,0,0,0,0,0,0,0,
0,0,0,0,0,0,0,0,0,0,0,0,0,0,
0,0,0,0,0,0,0,0,0,0,0,0,0,0,
0,0,0,0,0,0,0,0,0,0,0,0,0,0,
0,0,0,0,0,0,0,0,0,0,0,0,0,0,
0,0,0,0,0,0,0,0,0,0,0,0,0,0,
0,0,0,0,0,0,0,0,0,0,0,0,0,0,
0,0,0,0,0,0,0,0,0,0,0,0,0,0,
0,0,0,0,0,0,0,0,0,0,0,0,0,0,
0,0,0,0,0,0,0,0,0,0,0,0,0,0,
186,0,0,0,0,0,0,0,0,0,0,0,0,185,
564,0,0,0,0,0,0,0,0,0,0,0,0,3221226074,
602,0,0,0,0,0,0,0,0,0,0,0,0,3221226036,
564,0,0,0,0,0,0,0,0,0,0,0,0,3221226074,
602,0,0,0,0,0,0,0,0,0,0,0,0,3221226074,
564,0,0,0,0,0,0,0,0,0,0,0,0,3221226074,
602,0,0,0,0,0,0,0,0,0,0,0,0,3221226036,
3221225657,0,0,0,0,0,0,0,0,0,0,0,0,3221225658,
0,0,0,0,0,0,0,0,0,0,0,0,0,0,
0,0,0,0,0,0,0,0,0,0,0,0,0,0,
0,0,0,0,0,0,0,0,0,0,0,0,0,0,
0,0,0,0,0,0,0,0,0,0,0,0,0,0,
0,0,0,0,0,0,0,0,0,0,0,0,0,0,
0,0,0,0,0,0,0,0,0,0,0,0,0,0,
0,0,0,0,0,0,0,0,0,0,0,0,0,0,
672,673,674,675,0,0,0,0,0,671,672,673,674,675
</data>
 </layer>
 <layer id="8" name="borders2" width="14" height="30">
  <data encoding="csv">
0,0,0,0,0,0,0,0,0,0,0,0,0,0,
0,0,0,0,0,0,0,0,0,0,0,0,0,0,
0,0,0,0,0,0,0,0,0,0,0,0,0,0,
0,0,0,0,0,0,0,0,0,0,0,0,0,0,
0,0,0,0,0,0,0,0,0,0,0,0,0,0,
0,0,0,0,0,0,0,0,0,0,0,0,0,0,
0,0,0,0,0,0,0,0,0,0,0,0,0,0,
0,0,0,0,0,0,0,0,0,0,0,0,0,0,
0,0,0,0,0,0,0,0,0,0,0,0,0,0,
0,0,0,0,0,0,0,0,0,0,0,0,0,0,
0,0,0,0,0,0,0,0,0,0,0,0,0,0,
313,314,0,0,0,0,0,0,0,0,0,0,0,0,
351,352,0,0,0,0,0,0,0,0,0,685,686,348,
389,390,0,0,0,0,0,0,0,0,0,707,708,386,
275,428,0,0,0,0,0,0,0,0,0,0,0,348,
115,1073742206,0,0,0,0,0,0,0,0,0,0,0,162,
153,1073742168,0,0,0,0,0,0,0,0,0,0,0,348,
191,1073742168,0,0,0,0,0,0,0,0,0,0,0,386,
229,1073742130,0,0,0,0,0,0,0,0,0,0,0,348,
267,1073742168,0,0,0,0,0,0,0,0,0,0,0,162,
305,1073742168,0,0,0,0,0,0,0,0,0,0,0,348,
343,1073742130,729,730,0,0,0,0,0,0,0,0,0,162,
381,344,751,752,0,0,0,0,0,0,0,0,0,348,
419,382,0,0,0,0,0,0,0,0,0,0,0,162,
305,306,0,0,0,0,0,0,0,0,0,0,0,348,
343,344,0,0,0,0,0,0,0,0,0,0,0,162,
381,382,0,0,0,0,0,0,0,0,0,0,385,386,
419,420,0,0,0,0,0,0,0,0,0,0,423,424,
457,458,0,0,0,0,0,0,0,0,0,0,461,462,
495,496,0,0,0,0,0,0,0,0,0,0,499,500
</data>
 </layer>
 <layer id="10" name="fire" width="14" height="30">
  <data encoding="csv">
0,0,0,0,0,0,0,0,0,0,0,0,0,0,
0,0,0,0,0,0,0,0,0,0,0,0,0,0,
0,0,0,0,0,0,0,0,685,686,0,0,0,0,
0,0,0,0,0,0,0,0,707,708,0,0,0,0,
0,0,0,0,0,0,0,0,0,0,0,0,0,0,
0,0,0,0,0,0,0,0,0,0,0,0,0,0,
0,0,0,0,0,0,0,0,0,0,0,0,0,0,
0,0,0,0,0,0,0,0,0,0,0,0,0,0,
0,0,0,0,0,0,0,0,0,0,0,0,0,0,
0,0,0,0,0,0,0,0,0,0,0,0,0,0,
0,0,0,0,0,0,0,0,0,0,0,0,0,0,
0,0,0,0,0,0,0,0,0,0,0,0,0,0,
0,0,0,0,0,0,0,0,0,0,0,0,0,0,
0,0,0,0,0,0,0,0,0,0,0,0,2147484562,2147484561,
0,0,0,0,0,0,0,0,0,0,0,0,2147484584,2147484583,
0,0,0,0,0,0,0,0,0,0,0,0,0,0,
0,0,0,0,0,0,0,0,0,0,0,0,0,0,
0,0,0,0,0,0,0,0,0,0,0,0,0,0,
0,0,0,0,0,0,0,0,0,0,0,0,0,0,
0,0,0,0,0,0,0,0,0,0,0,0,0,0,
0,0,0,0,0,0,0,0,0,0,0,0,0,0,
0,0,0,0,0,0,0,0,0,0,0,0,0,0,
0,0,0,0,0,0,0,0,0,0,0,0,2147484562,2147484561,
0,0,0,0,0,0,0,0,0,0,0,0,2147484584,2147484583,
0,0,0,0,0,0,0,0,0,0,0,0,0,0,
0,0,0,0,0,0,0,0,0,0,0,0,0,0,
0,0,0,0,0,0,0,0,0,0,0,0,0,0,
0,0,0,0,0,0,0,0,0,0,0,0,0,0,
0,0,0,0,0,0,0,0,0,0,0,0,0,0,
0,0,0,0,0,0,0,0,0,0,0,0,0,0
</data>
 </layer>
 <layer id="13" name="Player" width="14" height="30">
  <data encoding="csv">
0,0,0,0,0,0,0,0,0,0,0,0,0,0,
0,0,0,0,0,0,0,0,0,0,0,0,0,0,
0,0,0,0,0,0,0,0,0,0,0,0,0,0,
0,0,0,0,0,0,0,0,0,0,0,0,0,0,
0,0,0,0,0,0,0,0,0,0,0,0,0,0,
0,0,0,0,0,0,0,0,0,0,0,0,0,0,
0,0,0,0,0,0,0,0,0,0,0,0,0,0,
0,0,0,0,0,0,0,0,0,0,0,0,0,0,
0,0,0,0,0,0,0,0,0,0,0,0,0,0,
0,0,0,0,0,0,0,0,0,0,0,0,0,0,
0,0,0,0,0,0,0,0,0,0,0,0,0,0,
0,0,0,0,0,0,0,0,0,0,0,0,0,0,
0,0,0,0,0,0,0,0,0,0,0,0,0,0,
0,0,0,0,0,0,0,0,0,0,0,0,0,0,
0,0,0,0,0,0,0,0,0,0,0,0,0,0,
0,0,0,0,0,0,0,0,0,0,0,0,0,0,
0,0,0,0,0,0,0,0,0,0,0,0,0,0,
0,0,0,0,0,0,0,0,0,0,0,0,0,0,
0,0,0,0,0,0,0,0,0,0,0,0,0,0,
0,0,0,0,0,0,0,0,0,0,0,0,0,0,
0,0,0,0,0,0,0,0,0,0,0,0,0,0,
0,0,0,0,0,0,0,0,0,0,0,0,0,0,
0,0,0,0,0,0,0,0,0,0,0,0,0,0,
0,0,0,0,0,0,0,0,0,0,0,0,0,0,
0,0,0,0,0,0,0,0,0,0,0,0,0,0,
0,0,0,0,0,0,0,0,0,0,0,0,0,0,
0,0,0,0,0,0,0,0,0,0,0,0,0,0,
0,0,0,0,0,0,0,0,0,0,0,0,0,0,
0,0,0,0,0,0,0,0,0,0,0,0,0,0,
0,0,0,0,0,0,0,0,0,0,0,0,0,0
</data>
 </layer>
 <objectgroup id="12" name="CollisionMask">
  <object id="1" x="96" y="479">
   <polygon points="0.75,1.5 0.570577,-4.92409 -6,-11.625 -58,-13.125 -61.9849,-19.4184 -64.4427,-28.245 -62.7637,-40.6252 -64.125,-50 -70.9863,-49.7099 -76.5,-52 -76.3004,-232.249 -74.5,-235.5 -66.1826,-240.546 -63.5455,-247.682 -65.7424,-259.004 -66.5222,-270.791 -64.118,-281.718 -62,-287.5 -51.3585,-288.254 -34.832,-288.867 -24.1364,-290.955 -13.1818,-305.545 -12.8182,-325.364 -12.5546,-337.184 -12.1818,-345.955 -14.1364,-371.909 -19.6568,-373.142 -24.8587,-370.369 -44.7215,-370.299 -63.7972,-373.057 -72.8541,-377.187 -75.9091,-381.273 -77.1969,-388.273 -77.8937,-404.548 -77.8776,-414.715 -76,-423.5 -12.5497,-423.248 -5.5,-429.227 0.123983,-446.297 9.66266,-459.131 12.9545,-479.091 -96.5,-480 -96,0"/>
  </object>
  <object id="2" x="132.5" y="479.5">
   <polygon points="-3.18182,0.636364 0.549048,-4.15783 5.1137,-9.97342 14.5,-15 20.613,-14.4201 26.7628,-12.0237 36.2763,-13.0763 43.3038,-11.4187 56.8182,-11.4545 57.9882,-13.6339 57.9017,-18.3897 60.7516,-21.541 59.902,-33.582 62.3534,-35.2391 63.4024,-42.3079 63.0266,-46.9692 63.0909,-55.8182 66.8933,-55.8585 74.296,-50.5889 74.0909,-62.3182 73.5909,-295.318 69.1613,-293.925 62.0628,-290.908 48.0954,-290.669 32.7273,-289.955 27.205,-290.615 19.357,-294.415 12.6314,-299.183 9,-302.5 8.52926,-308.867 9.16495,-317.961 8.18154,-329.501 8.79075,-365.502 10.7273,-370.773 19.189,-370.714 35.4991,-370.125 52.0506,-370.729 61.9618,-372.495 66.7759,-375.426 73.9042,-377.285 75.0909,-381.091 74.8461,-409.851 73.4091,-422.864 45.1364,-423.318 42.6818,-415 31.4903,-414.226 23.5,-416 25.0909,-422.136 10.4614,-421.689 3,-425.409 -2.61234,-430.86 -1.17903,-438.851 -4.14024,-443.066 -10.5,-475.5 92.5,-477 91,2"/>
  </object>
  <object id="3" x="34.5" y="362.5">
   <polygon points="-3,-4.5 7.39635,4.89299 19,6.5 25.084,5.17642 27.5457,-1.33132 28.7868,-10.9127 30.125,-22.25 27.1317,-26.7331 19.45,-27.0253 12.3904,-20.2993 1.5,-20.5 -2.83348,-14.2032"/>
  </object>
  <object id="4" x="177" y="207">
   <polygon points="-1.125,-0.125 3.21175,5.4397 11.1459,10.2092 25.5,10 29.3595,-5.90979 19,-4.625 13.4801,-10.8277 0.00116308,-10.8725"/>
  </object>
  <object id="5" x="97.5" y="1" width="39" height="20.5"/>
  <object id="10" x="93.5" y="475" width="44" height="5"/>
 </objectgroup>
</map>
