<?xml version="1.0" encoding="UTF-8"?>
<map version="1.10" tiledversion="1.11.2" orientation="orthogonal" renderorder="right-down" width="16" height="38" tilewidth="16" tileheight="16" infinite="0" nextlayerid="40" nextobjectid="15">
 <tileset firstgid="1" source="Tilesheet_Shadow_colorShadow_v2.tsx"/>
 <tileset firstgid="2913" source="U1_decorations_c1.tsx"/>
 <tileset firstgid="3557" source="Decorations_c1.tsx"/>
 <tileset firstgid="5177" source="House_exterior.tsx"/>
 <tileset firstgid="6146" source="Plants.tsx"/>
 <layer id="1" name="Ground" width="16" height="38">
  <data encoding="csv">
1610612867,1610612867,1610612867,678,678,1610612867,1610612867,1610612867,1610612867,1610612867,1610612867,1610612867,1610612867,1610612867,1610612867,1610612867,
1610612867,1610612867,1610612867,678,678,1610612867,1610612867,1610612867,1610612867,1610612867,1610612867,1610612867,1610612867,1610612867,1610612867,1610612867,
1610612867,1610612867,1610612867,678,678,1610612867,1610612867,678,1610612867,1610612867,1610612867,1610612867,1610612867,1610612867,1610612867,1610612867,
1610612867,1610612867,1610612867,678,678,1610612867,678,678,1610612867,1610612867,1610612867,1610612867,1610612867,1610612867,1610612867,1610612867,
1610612867,1610612867,1610612867,678,678,1610612867,678,1610612867,1610612867,1610612867,1610612867,1610612867,1610612867,1610612867,1610612867,1610612867,
1610612867,1610612867,1610612867,678,678,678,678,1610612867,1610612867,1610612867,1610612867,1610612867,1610612867,1610612867,1610612867,1610612867,
1610612867,1610612867,1610612867,678,678,678,678,1610612867,1610612867,1610612867,1610612867,1610612867,1610612867,1610612867,1610612867,1610612867,
1610612867,1610612867,1610612867,678,678,1610612867,678,1610612867,1610612867,1610612867,1610612867,1610612867,1610612867,1610612867,1610612867,1610612867,
1610612867,1610612867,1610612867,678,678,1610612867,678,1610612867,1610612867,1610612867,1610612867,1610612867,1610612867,1610612867,1610612867,1610612867,
1610612867,1610612867,1610612867,678,678,1610612867,678,1610612867,1610612867,1610612867,1610612867,1610612867,1610612867,1610612867,1610612867,1610612867,
1610612867,1610612867,1610612867,678,678,1610612867,678,1610612867,1610612867,1610612867,1610612867,1610612867,1610612867,1610612867,1610612867,1610612867,
1610612867,1610612867,1610612867,1610612867,678,1610612867,678,1610612867,1610612867,1610612867,1610612867,1610612867,1610612867,1610612867,1610612867,1610612867,
1610612867,1610612867,1610612867,678,678,1610612867,678,1610612867,1610612867,1610612867,1610612867,1610612867,1610612867,1610612867,1610612867,1610612867,
1610612867,1610612867,1610612867,678,678,1610612867,678,1610612867,1610612867,1610612867,1610612867,1610612867,1610612867,1610612867,1610612867,1610612867,
1610612867,1610612867,1610612867,678,678,678,1610612867,1610612867,1610612867,1610612867,1610612867,1610612867,1610612867,1610612867,1610612867,1610612867,
1610612867,1610612867,1610612867,678,678,678,1610612867,1610612867,1610612867,1610612867,1610612867,1610612867,1610612867,1610612867,1610612867,1610612867,
1610612867,1610612867,1610612867,678,678,678,1610612867,1610612867,1610612867,1610612867,1610612867,1610612867,1610612867,1610612867,1610612867,1610612867,
1610612867,1610612867,1610612867,678,678,678,1610612867,1610612867,1610612867,1610612867,1610612867,1610612867,1610612867,1610612867,1610612867,1610612867,
1610612867,1610612867,1610612867,678,678,678,1610612867,1610612867,1610612867,1610612867,1610612867,1610612867,1610612867,1610612867,1610612867,1610612867,
1610612867,1610612867,1610612867,678,678,678,1610612867,1610612867,1610612867,1610612867,1610612867,1610612867,1610612867,1610612867,1610612867,1610612867,
1610612867,1610612867,1610612867,678,678,678,1610612867,1610612867,1610612867,1610612867,1610612867,1610612867,1610612867,1610612867,1610612867,1610612867,
1610612867,1610612867,1610612867,678,678,678,1610612867,1610612867,1610612867,1610612867,1610612867,1610612867,1610612867,1610612867,1610612867,1610612867,
1610612867,1610612867,1610612867,1610612867,678,678,1610612867,1610612867,1610612867,1610612867,1610612867,1610612867,1610612867,1610612867,1610612867,1610612867,
1610612867,1610612867,1610612867,1610612867,678,678,1610612867,678,1610612867,1610612867,1610612867,1610612867,1610612867,1610612867,1610612867,1610612867,
1610612867,1610612867,1610612867,1610612867,678,678,1610612867,678,1610612867,1610612867,1610612867,1610612867,1610612867,1610612867,1610612867,1610612867,
1610612867,1610612867,1610612867,1610612867,678,678,678,678,1610612867,1610612867,1610612867,1610612867,1610612867,1610612867,1610612867,1610612867,
1610612867,1610612867,1610612867,678,678,678,678,678,1610612867,1610612867,1610612867,1610612867,1610612867,1610612867,1610612867,1610612867,
1610612867,1610612867,1610612867,678,678,678,678,678,1610612867,1610612867,1610612867,1610612867,1610612867,1610612867,1610612867,1610612867,
1610612867,1610612867,1610612867,678,678,678,678,678,1610612867,1610612867,1610612867,1610612867,1610612867,1610612867,1610612867,1610612867,
1610612867,1610612867,1610612867,678,678,1610612867,678,678,1610612867,1610612867,1610612867,1610612867,1610612867,1610612867,1610612867,1610612867,
1610612867,1610612867,1610612867,678,678,678,678,678,1610612867,1610612867,1610612867,1610612867,1610612867,1610612867,1610612867,1610612867,
1610612867,1610612867,1610612867,678,678,678,678,678,1610612867,1610612867,1610612867,1610612867,1610612867,1610612867,1610612867,1610612867,
1610612867,1610612867,1610612867,678,678,678,678,678,1610612867,1610612867,1610612867,1610612867,1610612867,1610612867,1610612867,1610612867,
1610612867,1610612867,1610612867,678,678,678,1610612867,678,1610612867,1610612867,1610612867,1610612867,1610612867,1610612867,1610612867,1610612867,
1610612867,1610612867,1610612867,678,678,678,1610612867,678,1610612867,1610612867,1610612867,1610612867,1610612867,1610612867,1610612867,1610612867,
1610612867,1610612867,1610612867,678,678,678,1610612867,678,1610612867,1610612867,1610612867,1610612867,1610612867,1610612867,1610612867,1610612867,
1610612867,1610612867,1610612867,678,678,678,1610612867,678,1610612867,1610612867,1610612867,1610612867,1610612867,1610612867,1610612867,1610612867,
1610612867,1610612867,1610612867,678,678,1610612867,1610612867,678,1610612867,1610612867,1610612867,1610612867,1610612867,1610612867,1610612867,1610612867
</data>
 </layer>
 <layer id="14" name="Sombras" width="16" height="38">
  <data encoding="csv">
682,682,680,0,137,137,137,0,0,0,133,0,0,0,682,0,
682,682,680,680,137,137,137,0,0,0,0,133,0,0,680,682,
682,682,680,680,0,137,137,137,0,0,0,0,133,0,680,137,
0,682,682,680,680,137,137,137,0,0,0,0,81,680,680,137,
137,137,137,137,680,680,137,137,0,0,0,0,0,680,0,137,
137,137,682,137,137,137,137,137,0,0,0,0,0,680,0,137,
0,137,682,682,682,680,680,0,0,0,0,0,0,680,0,137,
0,682,682,682,682,682,680,0,0,0,0,0,0,680,0,137,
0,682,682,682,682,0,0,680,0,0,0,0,0,680,682,137,
0,0,0,682,682,682,0,0,0,0,0,0,0,680,682,137,
0,0,682,682,682,682,682,0,680,0,0,0,680,680,0,137,
0,0,682,0,682,682,0,0,680,0,0,680,680,682,0,137,
0,0,682,0,682,0,0,0,680,0,680,680,682,682,0,137,
137,137,682,682,682,0,0,0,680,680,680,682,682,682,137,682,
137,137,137,682,130,0,0,0,680,0,0,0,682,682,682,682,
137,131,137,137,182,133,0,0,680,0,0,0,0,0,682,682,
137,0,137,137,137,130,0,0,0,0,0,0,682,0,682,682,
137,0,137,137,680,130,0,0,0,0,0,0,682,682,682,682,
0,0,137,78,79,0,0,0,0,0,0,0,0,682,682,682,
0,0,137,130,0,0,0,0,0,0,0,0,0,0,682,682,
137,137,137,130,0,0,0,0,0,0,0,0,0,0,682,682,
0,137,137,137,130,680,0,0,0,137,0,680,0,0,682,682,
0,0,137,137,130,0,0,0,137,137,680,680,682,682,682,682,
0,0,682,137,137,137,137,680,137,137,682,682,682,190,0,0,
0,0,682,682,188,137,137,680,137,137,0,0,682,682,682,682,
0,682,682,682,682,682,188,137,138,682,682,682,682,682,682,682,
0,682,0,682,682,682,682,136,138,682,682,682,682,0,0,0,
0,682,0,0,682,682,84,680,680,85,85,682,682,682,682,0,
0,682,682,682,137,87,680,680,131,131,131,85,85,682,86,682,
682,682,682,682,137,680,680,140,680,680,680,0,682,137,86,84,
682,682,85,87,680,189,189,137,682,682,682,682,682,682,137,682,
682,84,78,680,190,682,682,682,682,682,682,682,682,682,682,682,
682,136,130,680,86,682,682,682,682,682,682,682,682,682,682,682,
682,136,130,0,680,85,86,682,682,682,682,0,682,682,682,682,
682,136,130,0,680,680,137,682,682,682,682,682,682,682,682,682,
682,136,130,0,0,680,680,85,85,682,682,682,682,682,682,682,
682,136,130,0,0,0,0,680,680,85,85,85,85,85,85,85,
682,136,182,0,0,0,0,0,680,680,680,680,680,680,682,0
</data>
 </layer>
 <layer id="23" name="Sombras2" width="16" height="38">
  <data encoding="csv">
0,0,0,0,0,0,0,0,0,0,0,0,0,0,0,0,
0,0,0,0,0,0,0,0,0,0,0,0,0,82,0,0,
0,0,0,0,0,0,0,0,0,0,0,0,0,6117,0,0,
0,0,0,0,0,0,0,0,0,0,0,0,0,0,0,0,
0,0,0,0,0,0,682,0,0,295,0,0,0,0,0,0,
0,0,0,0,0,0,0,0,0,0,0,0,0,0,0,0,
0,0,0,0,0,0,0,0,0,0,0,0,0,0,0,0,
0,0,0,0,0,0,0,0,0,0,0,0,0,0,0,0,
0,0,0,0,0,0,0,0,0,0,0,0,0,0,0,0,
0,0,0,0,0,0,0,0,0,0,0,0,0,0,0,0,
0,0,0,0,0,0,0,0,0,0,0,0,0,0,0,0,
0,0,0,0,0,0,0,0,0,0,0,0,0,0,0,0,
0,0,0,0,0,0,0,0,0,0,0,0,0,0,0,0,
0,0,0,0,0,0,0,0,0,0,0,0,0,6119,0,0,
0,0,0,0,0,0,6120,0,0,0,0,0,0,0,0,0,
0,0,0,136,0,0,0,0,0,0,0,0,0,0,0,0,
0,0,84,87,0,0,0,0,0,0,0,0,0,0,0,0,
0,0,0,0,0,0,0,0,0,0,0,0,0,0,0,0,
0,0,0,0,0,0,0,0,0,0,0,0,0,0,0,0,
0,0,0,0,0,0,0,0,0,0,0,0,0,0,0,0,
0,0,0,182,133,0,0,0,0,0,0,0,0,0,0,0,
0,189,137,137,0,0,0,0,0,131,0,0,0,0,0,0,
137,137,0,0,0,0,0,131,131,131,0,0,0,0,0,0,
189,189,189,189,182,183,183,133,134,183,0,0,0,0,0,0,
0,0,0,0,188,189,347,182,184,0,0,0,0,0,0,0,
0,0,0,0,0,0,0,347,0,190,0,0,0,0,0,0,
0,0,0,0,0,0,0,0,0,0,0,0,0,0,0,0,
0,0,0,0,0,0,0,295,0,0,0,0,0,0,0,0,
0,0,0,0,292,293,295,0,0,0,0,0,0,0,0,0,
0,0,0,0,344,137,0,140,140,189,189,189,0,0,189,0,
0,0,344,293,295,0,0,140,0,0,0,0,0,188,0,188,
0,0,87,0,0,0,0,0,0,0,0,0,0,0,0,0,
0,0,82,80,0,0,6117,0,0,0,0,0,0,0,0,0,
0,0,0,0,0,0,0,0,0,0,0,0,0,0,0,0,
0,0,0,0,0,0,346,0,0,0,0,0,0,0,0,0,
0,0,0,6117,0,0,80,0,346,0,0,0,0,0,0,0,
0,0,0,0,0,0,82,80,0,0,0,0,0,0,0,0,
0,0,0,0,0,0,0,0,79,79,79,79,0,0,79,79
</data>
 </layer>
 <layer id="37" name="detalles" width="16" height="38">
  <data encoding="csv">
189,189,189,189,189,189,189,139,182,183,183,341,0,132,137,138,
0,0,0,0,682,682,682,188,189,139,137,182,133,0,80,88,
0,0,0,0,0,682,682,682,682,188,139,137,130,0,82,80,
682,682,682,0,0,0,682,682,682,84,87,78,0,0,131,0,
682,682,682,682,682,682,4264,682,84,78,79,81,0,0,0,0,
682,682,682,682,682,84,85,85,87,130,0,0,0,0,0,0,
79,79,79,85,85,79,79,79,79,289,0,0,0,0,0,0,
0,0,0,0,79,79,0,0,0,0,0,0,0,0,0,0,
0,0,0,0,0,0,0,0,0,0,0,0,0,0,0,0,
0,0,0,0,0,0,0,0,0,0,0,0,0,0,0,0,
0,0,0,0,0,0,0,0,0,0,134,183,184,0,0,0,
0,0,0,0,0,0,0,0,0,134,184,137,137,189,189,189,
0,0,0,0,0,0,0,0,130,340,140,189,190,682,682,682,
0,0,0,0,0,0,0,0,134,184,189,0,0,0,682,682,
0,0,0,0,0,0,0,0,132,680,0,0,0,0,0,0,
0,0,0,0,0,0,0,0,0,0,0,0,0,0,0,0,
0,0,0,0,0,0,0,0,0,0,0,0,0,0,0,0,
0,0,0,0,0,0,0,0,0,0,0,0,0,0,0,0,
0,0,0,0,0,0,0,0,0,0,0,0,0,0,0,0,
0,0,0,0,0,0,0,0,0,0,0,0,0,0,0,0,
0,0,0,0,0,0,0,0,0,0,0,0,0,0,0,0,
0,0,0,0,0,0,0,0,0,0,0,0,0,0,0,0,
0,0,0,0,0,0,0,0,0,0,0,0,0,0,0,0,
0,0,0,0,347,0,0,0,0,0,0,0,0,0,0,0,
0,0,0,0,0,0,0,0,0,0,0,0,0,0,0,0,
0,0,0,0,0,0,0,0,140,0,0,0,0,0,0,0,
0,0,682,682,0,0,0,0,0,0,0,0,0,0,0,0,
0,0,682,682,682,0,0,0,296,0,0,0,0,0,0,0,
0,0,0,0,0,0,0,0,137,137,137,0,0,85,0,682,
0,0,0,0,0,0,0,137,140,0,0,0,0,139,88,86,
0,0,0,0,348,0,0,140,190,0,0,0,0,0,189,139,
0,0,0,137,138,0,0,0,0,0,0,0,0,0,0,0,
0,0,338,0,138,0,0,0,0,0,0,0,0,0,0,0,
0,0,0,132,0,0,0,0,0,0,0,682,0,0,0,0,
0,0,0,82,80,0,0,0,0,0,0,0,0,0,0,0,
0,0,0,0,82,79,296,0,0,0,0,0,0,0,84,85,
0,0,0,0,0,0,0,0,0,0,0,0,0,0,87,137,
0,188,0,0,0,0,0,0,0,0,0,0,0,0,0,0
</data>
 </layer>
 <layer id="2" name="Borders" width="16" height="38">
  <data encoding="csv">
1610613018,1610613070,1610613070,1610613070,281,1610613070,1610613020,0,0,0,1610613072,1610613070,1610613070,1610613070,1610613070,1610613122,
1610613017,0,682,682,682,4136,0,0,0,0,0,0,0,0,0,1610613121,
1610613017,0,682,682,682,0,0,6120,0,0,0,0,0,0,0,1610613121,
1610613017,0,0,682,682,682,0,0,0,0,0,0,0,678,0,1610613121,
1610613017,0,0,0,0,0,0,0,0,295,0,0,0,0,0,1610613121,
1610613017,0,0,0,0,0,0,0,0,0,0,0,0,0,0,1610613121,
1610613017,0,0,0,0,0,0,0,0,0,0,0,0,0,0,1610613121,
1610613017,0,0,0,0,0,0,0,0,0,0,0,0,0,0,1610613121,
1610613017,0,0,0,0,0,0,0,0,0,0,0,0,0,0,1610613121,
1610613017,0,0,0,0,0,0,0,0,0,0,0,0,0,0,1610613121,
1610613017,0,0,0,0,0,0,0,0,0,0,0,0,0,0,1610613121,
1610613017,0,0,0,0,0,0,0,0,0,184,0,348,0,0,1610613121,
1610613017,0,0,0,0,0,0,0,0,342,0,0,0,0,0,1610613121,
1610613017,0,0,0,0,0,0,0,0,0,138,0,0,0,0,1610613121,
1610613017,0,0,0,0,0,0,0,0,0,0,0,0,0,0,1610613121,
1610613017,0,0,0,0,0,0,0,0,0,0,0,0,0,0,1610613121,
1610613017,0,0,0,0,0,0,0,0,0,0,0,0,0,0,1610613121,
1610613017,0,0,0,0,0,0,0,0,0,0,0,0,0,0,1610613121,
1610613017,0,0,0,0,0,0,0,0,0,0,0,0,0,0,1610613121,
1610613017,0,0,0,0,0,0,0,0,0,0,0,0,0,0,1610613121,
1610613017,0,0,0,0,0,0,0,0,0,0,0,0,0,0,1610613121,
1610613017,0,0,0,0,0,0,0,0,0,0,0,0,0,0,1610613121,
1610613017,0,0,0,0,0,0,0,0,0,0,0,0,0,0,1610613121,
1610613017,0,0,0,0,0,0,0,0,0,0,0,0,0,0,1610613121,
1610613017,0,0,0,0,0,0,0,0,0,0,0,0,0,0,1610613121,
1610613017,0,0,0,0,0,0,0,0,0,0,0,0,0,0,1610613121,
1610613017,0,0,0,0,6120,0,0,0,0,0,0,0,0,0,1610613121,
1610613017,0,0,682,0,0,0,0,0,0,0,0,0,7386,0,1610613121,
1610613017,0,0,0,0,0,0,6119,0,0,0,0,0,7434,0,1610613121,
1610613017,0,0,4219,4220,0,0,0,0,0,0,0,189,0,0,1610613121,
1610613017,0,0,0,87,137,137,140,0,0,0,0,0,0,0,1610613121,
1610613017,0,0,0,140,189,189,190,0,0,0,0,0,0,0,1610613121,
1610613017,0,0,0,0,0,0,0,0,0,0,0,0,0,0,1610613121,
1610613017,0,0,0,296,0,0,0,0,0,0,0,0,0,0,1610613121,
1610613017,0,0,0,0,0,0,0,4264,0,0,0,0,0,0,1610613121,
1610613017,0,0,0,0,0,0,0,0,0,0,0,0,0,0,1610613121,
1610613017,0,0,0,0,0,0,0,296,0,0,0,0,0,0,1610613121,
1610613016,1610613068,1610613068,1610613068,385,1610613068,1610613019,82,0,0,1610613071,1610613068,1610613068,1610613068,1610613068,1610613120
</data>
 </layer>
 <layer id="39" name="Player" width="16" height="38">
  <data encoding="csv">
0,0,0,0,0,0,0,0,0,0,0,0,0,0,0,0,
0,0,0,0,0,0,0,0,0,0,0,0,0,0,0,0,
0,0,0,0,0,0,0,0,0,0,0,0,0,0,0,0,
0,0,0,0,0,0,0,0,0,0,0,0,0,0,0,0,
0,0,0,0,0,0,0,0,0,0,0,0,0,0,0,0,
0,0,0,0,0,0,0,0,0,0,0,0,0,0,0,0,
0,0,0,0,0,0,0,0,0,0,0,0,0,0,0,0,
0,0,0,0,0,0,0,0,0,0,0,0,0,0,0,0,
0,0,0,0,0,0,0,0,0,0,0,0,0,0,0,0,
0,0,0,0,0,0,0,0,0,0,0,0,0,0,0,0,
0,0,0,0,0,0,0,0,0,0,0,0,0,0,0,0,
0,0,0,0,0,0,0,0,0,0,0,0,0,0,0,0,
0,0,0,0,0,0,0,0,0,0,0,0,0,0,0,0,
0,0,0,0,0,0,0,0,0,0,0,0,0,0,0,0,
0,0,0,0,0,0,0,0,0,0,0,0,0,0,0,0,
0,0,0,0,0,0,0,0,0,0,0,0,0,0,0,0,
0,0,0,0,0,0,0,0,0,0,0,0,0,0,0,0,
0,0,0,0,0,0,0,0,0,0,0,0,0,0,0,0,
0,0,0,0,0,0,0,0,0,0,0,0,0,0,0,0,
0,0,0,0,0,0,0,0,0,0,0,0,0,0,0,0,
0,0,0,0,0,0,0,0,0,0,0,0,0,0,0,0,
0,0,0,0,0,0,0,0,0,0,0,0,0,0,0,0,
0,0,0,0,0,0,0,0,0,0,0,0,0,0,0,0,
0,0,0,0,0,0,0,0,0,0,0,0,0,0,0,0,
0,0,0,0,0,0,0,0,0,0,0,0,0,0,0,0,
0,0,0,0,0,0,0,0,0,0,0,0,0,0,0,0,
0,0,0,0,0,0,0,0,0,0,0,0,0,0,0,0,
0,0,0,0,0,0,0,0,0,0,0,0,0,0,0,0,
0,0,0,0,0,0,0,0,0,0,0,0,0,0,0,0,
0,0,0,0,0,0,0,0,0,0,0,0,0,0,0,0,
0,0,0,0,0,0,0,0,0,0,0,0,0,0,0,0,
0,0,0,0,0,0,0,0,0,0,0,0,0,0,0,0,
0,0,0,0,0,0,0,0,0,0,0,0,0,0,0,0,
0,0,0,0,0,0,0,0,0,0,0,0,0,0,0,0,
0,0,0,0,0,0,0,0,0,0,0,0,0,0,0,0,
0,0,0,0,0,0,0,0,0,0,0,0,0,0,0,0,
0,0,0,0,0,0,0,0,0,0,0,0,0,0,0,0,
0,0,0,0,0,0,0,0,0,0,0,0,0,0,0,0
</data>
 </layer>
 <layer id="11" name="troncos" width="16" height="38">
  <data encoding="csv">
4898,4899,4900,4901,4902,4903,4904,0,0,0,0,0,0,0,0,0,
4943,4944,4945,4946,4947,4948,4949,0,0,0,0,0,0,0,0,0,
4988,4989,4990,4991,4992,4993,4994,0,0,0,0,0,0,0,0,0,
5033,5034,5035,5036,5037,5038,5039,0,0,0,0,0,0,0,0,0,
5078,5079,5080,5081,5082,5083,5084,0,0,0,0,0,0,0,0,0,
5123,5124,5125,5126,5127,5128,5129,0,0,0,0,0,0,0,0,0,
0,0,0,0,0,0,0,0,0,0,0,0,0,0,0,0,
0,0,0,0,0,0,0,0,0,0,0,0,0,0,0,0,
0,0,0,0,0,0,0,0,0,0,0,0,0,0,0,0,
0,0,0,0,0,0,0,0,0,0,0,0,0,4749,4750,4751,
0,0,0,0,0,0,0,0,0,0,0,0,0,0,0,4796,
4749,4750,4751,0,0,0,0,0,0,0,0,0,0,0,0,0,
4794,4795,4796,0,0,0,0,0,0,0,0,4662,4663,2147488147,2147488146,2147488145,
4794,4795,4796,0,0,0,0,0,0,0,0,4662,4663,2147488192,2147488191,2147488190,
4484,4485,4486,4487,4488,0,0,0,0,0,0,0,0,0,0,4762,
4529,4530,4531,4532,4533,0,0,4804,0,0,0,0,0,0,0,4807,
4619,4620,4621,4622,4623,0,0,4804,0,0,0,0,0,0,0,4762,
4664,4665,4666,4667,4668,0,0,0,0,0,4749,4750,4751,0,0,4807,
4794,4795,4796,0,0,0,0,0,0,0,4794,4795,4796,0,0,4807,
4794,4795,4796,0,0,0,0,0,2147488407,2147488406,2147488405,4795,4796,0,0,4796,
4749,4750,4751,0,0,0,0,0,2147488452,2147488451,4749,4750,4751,0,0,4762,
4794,4795,4796,0,0,0,0,0,2147488452,2147488451,4794,4795,4796,0,4760,4761,
4614,4615,4616,0,0,0,0,0,0,4483,4484,4485,4486,4487,4805,4806,
4659,4660,4661,0,0,0,0,0,0,4528,4529,4530,4531,4532,4900,4901,
4889,4890,4891,4892,4893,0,0,0,0,3221230139,4614,4615,4616,4944,4945,4946,
4934,4935,4936,4937,4938,0,0,0,0,0,4659,4660,4661,4989,4990,4991,
4979,4980,4981,4982,4983,0,0,0,0,0,4614,4615,4616,5034,5035,5036,
5024,5025,5026,5027,5028,0,0,0,0,0,4659,4660,4661,5079,5080,5081,
5069,5070,5071,5072,5073,0,0,0,0,0,4749,4750,4751,5124,5125,5126,
5114,5115,5116,5117,5118,0,0,0,0,0,4794,4795,4796,0,0,0,
0,0,0,0,0,0,0,0,4887,4888,4889,4890,4891,4892,4893,0,
0,0,0,0,0,0,0,0,4932,4933,4934,4935,4936,4937,4938,0,
0,0,0,0,0,0,0,0,4977,4978,4979,4980,4981,4982,4983,0,
0,0,0,0,0,0,0,0,5022,5023,5024,5025,5026,5027,5028,0,
0,0,0,0,0,0,0,0,5067,5068,5069,5070,5071,5072,5073,0,
0,0,0,0,0,0,0,0,5112,5113,5114,5115,5116,5117,5118,0,
0,0,0,0,0,0,0,0,0,0,0,0,0,0,0,0,
0,0,0,0,0,0,0,0,0,0,0,0,0,0,0,0
</data>
 </layer>
 <layer id="15" name="Setas" width="16" height="38">
  <data encoding="csv">
0,0,0,0,4434,0,0,0,0,0,0,0,0,0,0,0,
0,0,0,0,0,0,0,0,0,0,0,0,0,0,0,0,
0,0,0,0,0,0,0,0,0,0,0,0,0,0,0,0,
0,0,0,0,0,0,0,0,0,0,0,0,0,0,0,0,
0,7434,0,0,0,0,0,0,0,0,0,0,0,0,0,0,
0,0,0,0,0,0,0,0,0,0,0,0,0,0,0,0,
0,0,0,0,0,0,0,0,0,0,0,0,0,0,0,0,
0,0,0,0,0,0,0,0,0,0,0,0,0,0,0,0,
0,0,0,0,0,0,0,0,0,0,0,0,0,0,0,0,
0,0,0,0,0,0,0,0,0,0,0,0,0,0,0,0,
0,0,0,0,0,0,0,0,0,0,0,0,0,0,0,0,
0,0,0,0,0,0,0,0,0,0,0,0,0,0,0,0,
0,0,0,0,0,0,0,0,0,0,0,0,0,0,0,0,
0,0,0,0,0,0,0,0,0,0,0,0,0,0,0,0,
0,0,0,0,0,0,0,0,0,0,0,0,0,0,0,0,
0,0,0,0,0,0,0,0,0,0,0,0,0,0,0,0,
0,4434,0,0,0,0,0,0,0,0,0,0,0,0,0,0,
0,4434,0,0,0,0,0,0,0,0,0,0,0,0,0,0,
0,4434,0,0,0,0,0,0,0,0,0,0,0,0,0,0,
0,4400,4401,0,0,0,0,0,0,0,0,0,0,0,0,0,
0,4445,4446,0,0,0,0,0,0,0,0,0,0,0,0,0,
0,0,0,0,0,0,0,0,0,0,0,0,0,0,0,0,
0,0,0,0,0,0,0,0,0,0,0,0,0,0,0,0,
0,0,0,0,0,0,0,0,0,0,0,4389,0,0,4400,4401,
0,0,0,0,0,0,0,0,0,0,0,4434,0,0,4445,4446,
0,0,0,0,0,0,0,0,0,0,0,0,0,0,0,0,
0,0,0,0,0,0,0,0,0,0,0,0,0,0,0,0,
0,0,0,0,0,0,0,0,0,0,0,4407,4408,0,0,0,
0,0,0,0,0,0,0,0,0,0,0,4452,4453,0,0,0,
0,0,0,0,0,0,0,0,0,0,4164,0,0,0,0,0,
0,0,0,0,0,0,0,0,0,0,4209,0,0,0,0,0,
0,0,0,0,0,0,0,0,0,0,4254,0,0,0,0,0,
0,0,0,0,0,0,0,0,0,0,0,0,0,0,0,0,
0,0,0,0,0,0,0,0,0,0,0,0,0,0,0,0,
0,0,0,0,0,0,0,0,0,0,0,0,0,0,0,0,
0,0,0,0,0,0,0,0,0,0,0,0,0,0,0,0,
0,0,0,0,0,0,0,0,0,0,0,0,0,0,0,0,
0,0,0,0,0,0,0,0,0,0,0,0,0,0,0,0
</data>
 </layer>
 <layer id="16" name="copas" width="16" height="38">
  <data encoding="csv">
0,0,0,0,0,0,0,0,0,0,0,0,0,0,0,0,
0,0,0,0,0,0,0,0,0,0,0,0,0,0,0,0,
0,0,0,0,0,0,0,0,0,0,0,0,0,0,0,0,
0,0,0,0,0,0,0,0,0,0,0,0,0,0,0,0,
0,0,0,0,0,0,0,0,0,0,0,0,0,0,0,0,
0,0,0,0,0,0,0,0,0,0,0,0,0,0,0,0,
4643,4644,4645,0,0,0,0,0,0,0,0,0,0,0,0,0,
4688,4689,4690,0,0,0,0,0,0,0,0,0,0,0,0,0,
4733,4734,4735,0,0,0,0,0,0,0,0,0,4639,4640,4641,4642,
4778,4779,4780,4639,4640,4641,4642,4643,4644,4645,0,0,4684,4685,4686,4687,
4823,4824,4825,4684,4685,4686,4687,4688,4689,4690,0,0,4729,4730,4731,4732,
4733,4734,4735,4729,4730,4731,4732,4733,4734,4735,0,0,4774,4775,4776,4777,
4778,4779,4780,4774,4775,4776,4777,4778,4779,4780,0,0,4819,4820,4821,4822,
4823,4824,4825,4819,4820,4821,4822,4823,4824,4825,0,0,0,0,0,0,
0,0,0,0,0,0,0,0,0,4864,4865,4866,0,0,0,0,
0,0,0,0,0,0,0,0,0,4909,4910,4911,0,0,0,0,
0,0,0,0,0,0,0,0,0,4954,4955,4956,0,0,0,0,
0,0,0,0,0,0,0,0,0,0,0,0,0,0,0,0,
0,0,0,0,0,4459,4460,4461,4462,4463,0,0,0,0,0,0,
0,0,0,0,0,4504,4505,4506,4507,4508,0,0,0,0,0,0,
0,0,0,0,0,4549,4550,4551,4552,4553,0,0,0,0,0,0,
0,0,0,0,0,4594,4595,4596,4597,4598,0,0,0,0,0,0,
0,0,0,0,0,0,0,0,0,0,0,0,0,0,0,0,
0,0,0,0,0,0,0,0,4864,4865,4866,0,0,0,0,0,
0,0,0,0,0,0,0,0,4909,4910,4911,0,0,0,0,0,
0,0,0,0,0,0,0,0,4954,4955,4956,0,0,0,0,0,
0,0,0,0,0,0,0,0,0,0,0,0,0,0,0,0,
0,0,0,0,0,0,0,0,0,0,0,0,0,0,0,0,
0,0,0,0,0,0,0,0,0,0,0,0,0,0,0,0,
0,0,0,0,0,0,0,0,0,0,0,0,0,0,0,0,
0,0,0,0,0,0,0,0,0,0,0,0,0,0,0,0,
0,0,0,0,0,0,0,0,0,0,0,0,0,0,0,0,
0,0,0,0,0,0,0,0,0,0,0,0,0,0,0,0,
0,0,0,0,0,0,0,0,0,0,0,0,0,0,0,0,
0,0,0,0,0,0,0,0,0,0,0,0,0,0,0,0,
0,0,0,0,0,0,0,0,0,0,0,0,0,0,0,0,
0,0,0,0,0,0,0,0,0,0,0,0,0,0,0,0,
0,0,0,0,0,0,0,0,0,0,0,0,0,0,0,0
</data>
 </layer>
 <layer id="20" name="copas4" width="16" height="38">
  <data encoding="csv">
0,0,0,0,0,0,0,0,0,0,0,0,0,0,0,0,
0,0,0,0,0,0,0,0,0,0,0,0,0,0,0,0,
0,0,0,0,0,0,0,0,0,0,0,0,0,0,0,0,
0,0,0,0,0,0,0,0,0,0,0,0,0,0,0,0,
0,0,0,0,0,0,0,0,0,0,0,0,0,0,0,0,
4865,4866,0,0,0,0,0,0,0,0,0,0,0,0,0,0,
4910,4911,0,0,0,0,0,0,0,4639,4640,4641,4642,4643,4644,4645,
4955,4956,0,0,0,0,0,0,0,4684,4685,4686,4687,4688,4689,4690,
0,0,0,0,0,0,0,0,0,4729,4730,4731,4732,4733,4734,4735,
4865,4866,0,0,0,0,0,0,0,4774,4775,4776,4777,4778,4779,4780,
4910,4911,0,0,0,0,0,0,0,4819,4820,4821,4822,4823,4824,4825,
4955,4956,0,0,0,0,0,0,0,0,0,0,0,0,0,0,
0,0,0,0,0,0,0,0,0,0,0,0,0,0,0,0,
0,0,0,0,0,0,0,0,0,0,0,0,0,0,0,0,
0,0,0,0,0,0,0,0,0,0,0,0,0,0,0,0,
0,0,0,0,0,0,0,0,0,0,0,0,0,0,0,0,
0,0,0,0,0,0,0,0,0,0,0,0,0,0,0,0,
0,0,0,0,0,4639,4640,4641,4642,4643,4644,4645,0,4459,4460,4461,
0,0,0,0,0,4684,4685,4686,4687,4688,4689,4690,0,4504,4505,4506,
0,0,0,0,4459,4460,4461,4462,4463,4733,4734,4735,0,4549,4550,4551,
0,0,0,0,4504,4505,4506,4507,4508,4778,4779,4780,0,4594,4595,4596,
0,0,0,0,4549,4550,4551,4552,4553,4823,4824,4825,0,0,0,0,
0,0,0,0,4594,4595,4596,4597,4598,0,0,0,0,0,0,0,
0,0,0,0,0,0,0,0,0,0,0,0,0,0,0,0,
0,0,0,0,0,0,0,0,0,0,0,0,0,0,0,0,
0,0,0,0,0,0,0,0,0,0,0,0,0,0,0,0,
0,0,0,0,0,0,0,0,0,0,0,0,0,0,0,0,
0,0,0,0,0,0,0,0,0,0,0,0,0,0,0,0,
0,0,0,0,0,0,0,0,0,0,0,0,0,0,0,0,
0,0,0,0,0,0,0,0,0,0,0,0,0,0,0,0,
0,0,0,0,0,0,0,0,0,0,0,0,0,0,0,0,
0,0,0,0,0,0,0,0,0,0,0,0,0,0,0,0,
0,0,0,0,0,0,0,0,0,0,0,0,0,0,0,0,
0,0,0,0,0,0,0,0,0,0,0,0,0,0,0,0,
0,0,0,0,0,0,0,0,0,0,0,0,0,0,0,0,
0,0,0,0,0,0,0,0,0,0,0,0,0,0,0,0,
0,0,0,0,0,0,0,0,0,0,0,0,0,0,0,0,
0,0,0,0,0,0,0,0,0,0,0,0,0,0,0,0
</data>
 </layer>
 <layer id="17" name="copas1" width="16" height="38">
  <data encoding="csv">
0,0,0,0,0,0,0,0,0,0,0,0,0,0,0,0,
0,0,0,0,0,0,0,0,0,0,0,0,0,0,0,0,
0,0,0,0,0,0,0,0,0,0,0,0,0,0,4864,4865,
0,0,0,0,0,0,0,0,0,0,0,0,0,0,4909,4910,
0,0,0,0,0,0,0,0,0,0,0,0,0,0,4954,4955,
0,0,0,0,0,0,0,0,0,0,0,0,0,4639,4640,4641,
0,0,0,0,0,0,0,0,0,0,0,0,0,4684,4685,4686,
4639,4640,4641,4642,4643,4644,4645,0,0,0,0,0,0,4729,4730,4731,
4684,4685,4686,4687,4688,4689,4690,0,0,0,0,0,0,4774,4775,4776,
4729,4730,4731,4732,4733,4734,4735,0,0,0,0,0,0,4819,4820,4821,
4774,4775,4776,4777,4778,4779,4780,0,0,0,0,0,0,0,0,0,
4819,4820,4821,4822,4823,4824,4825,0,0,0,0,0,0,0,0,0,
4729,4730,4731,4732,4733,4734,4735,0,0,0,0,0,0,0,0,0,
4774,4775,4776,4777,4778,4779,4780,0,0,0,0,0,0,0,0,0,
4819,4820,4821,4822,4823,4824,4825,0,0,0,4639,4640,4641,4642,4643,4644,
0,0,0,0,0,0,0,0,0,0,4684,4685,4686,4687,4688,4689,
0,0,0,0,0,0,4864,4865,4866,0,4729,4730,4731,4732,4733,4734,
0,0,0,0,0,0,4909,4910,4911,0,4774,4775,4776,4777,4778,4779,
0,0,0,0,0,0,4954,4955,4956,0,4819,4820,4821,4822,4823,4824,
0,0,0,0,0,0,0,0,0,0,0,4684,4685,4686,4687,4688,
0,0,0,0,0,0,0,0,0,0,0,4729,4730,4731,4732,4733,
0,0,0,0,0,0,0,0,0,0,0,4774,4775,4776,4777,4778,
0,0,0,0,0,0,0,0,0,0,0,4819,4820,4821,4822,4823,
0,0,0,0,0,0,0,0,0,0,0,0,0,0,0,0,
0,0,0,0,0,0,0,0,0,0,0,0,0,0,0,0,
0,0,0,0,0,0,0,0,0,0,0,0,0,0,0,0,
0,0,0,0,0,0,0,0,0,0,0,0,0,0,0,0,
0,0,0,0,0,0,0,0,0,0,0,0,0,0,0,0,
0,0,0,0,0,0,0,0,0,0,0,0,0,0,0,0,
0,0,0,0,0,0,0,0,0,0,0,0,0,0,0,0,
0,0,0,0,0,0,0,0,0,0,0,0,0,0,0,0,
0,0,0,0,0,0,0,0,0,0,0,0,0,0,0,0,
0,0,0,0,0,0,0,0,0,0,0,0,0,0,0,0,
0,0,0,0,0,0,0,0,0,0,0,0,0,0,0,0,
0,0,0,0,0,0,0,0,0,0,0,0,0,0,0,0,
0,0,0,0,0,0,0,0,0,0,0,0,0,0,0,0,
0,0,0,0,0,0,0,0,0,0,0,0,0,0,0,0,
0,0,0,0,0,0,0,0,0,0,0,0,0,0,0,0
</data>
 </layer>
 <layer id="18" name="copas2" width="16" height="38">
  <data encoding="csv">
0,0,0,0,0,0,0,0,0,0,0,0,0,0,0,0,
0,0,0,0,0,0,0,0,0,0,0,0,0,0,0,0,
0,0,0,0,0,0,0,0,0,0,0,0,0,0,0,0,
0,0,0,0,0,0,0,0,0,0,0,0,0,0,0,4864,
0,0,0,0,0,0,0,0,0,0,0,0,0,0,0,4909,
4640,4641,4642,4643,4644,4645,0,0,4459,4460,4461,4462,4463,0,0,4954,
4685,4686,4687,4688,4689,4690,0,0,4504,4505,4506,4507,4508,0,0,0,
4730,4731,4732,4733,4734,4735,0,0,4549,4550,4551,4552,4553,0,0,0,
4775,4776,4777,4778,4779,4780,0,0,4594,4595,4596,4597,4598,0,0,0,
4820,4821,4822,4823,4824,4825,0,4864,4865,4866,0,0,0,0,0,0,
0,0,0,0,0,0,0,4909,4910,4911,0,0,0,0,0,0,
0,0,0,0,0,0,0,4954,4955,4956,0,0,0,0,0,0,
4644,4645,0,0,0,0,0,0,0,0,0,0,0,0,0,0,
4689,4690,0,0,0,0,0,0,0,0,0,0,0,0,0,0,
4734,4735,0,0,0,0,4459,4460,4461,4462,4463,0,0,0,0,0,
4779,4780,0,0,0,0,0,4505,4506,4507,4508,0,0,0,0,0,
4824,4825,0,0,0,0,0,4550,4551,4552,4553,0,0,0,0,0,
0,0,0,0,0,0,0,4595,4596,4597,4598,0,0,0,0,0,
0,0,0,0,0,0,0,0,0,0,0,0,0,0,0,0,
0,0,0,0,0,0,0,4639,4640,4641,4642,4643,4644,4645,0,0,
0,0,0,0,0,0,0,4684,4685,4686,4687,4688,4689,4690,0,0,
0,0,0,0,0,0,0,4729,4730,4731,4732,4733,4734,4735,0,0,
0,0,0,0,0,0,0,4774,4775,4776,4777,4778,4779,4780,0,0,
0,0,0,0,0,0,0,4819,4820,4821,4822,4823,4824,4825,0,0,
0,0,0,0,0,0,0,0,0,0,0,0,0,0,0,0,
0,0,0,0,0,0,0,0,0,0,0,0,0,0,0,0,
0,0,0,0,0,0,0,0,0,0,0,0,0,0,0,0,
0,0,0,0,0,0,0,0,0,0,0,0,0,0,0,0,
0,0,0,0,0,0,0,0,0,0,0,0,0,0,0,0,
0,0,0,0,0,0,0,0,0,0,0,0,0,0,0,0,
0,0,0,0,0,0,0,0,0,0,0,0,0,0,0,0,
0,0,0,0,0,0,0,0,0,0,0,0,0,0,0,0,
0,0,0,0,0,0,0,0,0,0,0,0,0,0,0,0,
0,0,0,0,0,0,0,0,0,0,0,0,0,0,0,0,
0,0,0,0,0,0,0,0,0,0,0,0,0,0,0,0,
0,0,0,0,0,0,0,0,0,0,0,0,0,0,0,0,
0,0,0,0,0,0,0,0,0,0,0,0,0,0,0,0,
0,0,0,0,0,0,0,0,0,0,0,0,0,0,0,0
</data>
 </layer>
 <layer id="19" name="copas3" width="16" height="38">
  <data encoding="csv">
0,0,0,4207,4208,0,0,0,0,0,0,0,0,0,0,0,
0,0,0,4252,4253,0,0,0,0,0,0,0,0,0,0,0,
0,0,0,4297,4298,0,0,0,0,0,0,0,0,0,0,0,
0,0,0,0,0,0,0,0,0,0,4639,4640,4641,4642,4643,4644,
0,0,0,0,0,0,0,0,0,0,4684,4685,4686,4687,4688,4689,
0,0,0,0,0,0,0,0,0,0,4729,4730,4731,4732,4733,4734,
0,0,4639,4640,4641,4642,4643,4644,4645,0,4819,4820,4821,4822,4823,4824,
0,0,4684,4685,4686,4687,4688,4689,4690,0,0,0,0,0,0,0,
0,0,4729,4730,4731,4732,4733,4734,4735,0,0,0,0,0,0,0,
0,0,4774,4775,4776,4777,4778,4779,4780,0,0,0,0,0,0,0,
4639,4640,4641,4642,4643,4644,4645,4824,4825,0,0,0,0,0,0,0,
4684,4685,4686,4687,4688,4689,4690,0,0,0,0,0,0,0,0,0,
4729,4730,4731,4732,4733,4734,4735,0,0,0,0,0,0,0,0,0,
4774,4775,4776,4777,4778,4779,4780,0,4639,4640,4641,4642,4643,4644,4645,0,
4819,4820,4821,4822,4823,4824,4825,0,4684,4685,4686,4687,4688,4689,4690,0,
0,0,0,0,0,0,0,0,4729,4730,4731,4732,4733,4734,4735,0,
0,0,0,0,4459,4460,4461,4462,4463,4640,4641,4642,4643,4644,4645,0,
0,0,0,0,4504,4505,4506,4507,4508,4685,4686,4687,4688,4689,4690,0,
4207,4208,0,0,4549,4550,4551,4552,4553,4730,4731,4732,4733,4734,4735,0,
4252,4253,0,0,4594,4595,4596,4597,4598,4775,4776,4777,4778,4779,4780,0,
4297,2147487856,2147487855,0,0,0,0,0,4819,4820,4821,4822,4823,4824,4825,0,
0,2147487901,2147487900,0,0,0,0,0,0,0,0,0,0,0,0,0,
0,4299,2147487945,0,0,0,0,0,0,0,0,0,0,0,0,0,
0,4344,0,0,0,0,0,0,0,0,0,0,0,0,0,0,
0,0,0,0,0,0,0,0,0,0,4207,4208,0,0,0,0,
0,0,0,0,0,0,0,0,0,0,4252,4253,0,0,0,0,
0,0,0,0,0,0,0,0,0,0,4297,4298,0,0,0,0,
0,0,0,0,0,0,0,0,0,0,0,0,0,0,0,0,
0,0,0,0,0,0,0,0,0,0,0,0,0,0,0,0,
0,0,0,0,0,0,0,0,0,0,0,0,0,0,0,0,
0,0,0,0,0,0,0,0,0,0,0,0,0,0,0,0,
0,0,0,0,0,0,0,0,0,0,0,0,0,0,0,0,
0,0,0,0,0,0,0,0,0,0,0,0,0,0,0,0,
0,0,0,0,0,0,0,0,0,0,0,0,0,0,0,0,
0,0,0,0,0,0,0,0,0,0,0,0,0,0,0,0,
0,0,0,0,0,0,0,0,0,0,0,0,0,0,0,0,
0,0,0,0,0,0,0,0,0,0,0,0,0,0,0,0,
0,0,0,0,0,0,0,0,0,0,0,0,0,0,0,0
</data>
 </layer>
 <layer id="22" name="Deco" width="16" height="38">
  <data encoding="csv">
0,0,4452,4453,0,0,0,0,0,0,0,0,0,0,0,0,
0,0,0,0,0,0,0,0,0,0,0,0,0,0,0,0,
0,0,0,0,0,0,0,0,0,0,0,0,0,0,0,0,
0,0,0,0,2147488212,0,0,0,0,0,0,0,0,0,0,0,
0,0,0,0,2147488257,0,0,0,0,0,0,0,0,0,0,0,
0,0,0,0,0,0,0,0,0,0,0,4864,4865,4866,0,0,
0,0,0,0,0,0,0,0,0,0,0,4909,4910,4911,0,0,
0,0,0,0,0,0,0,0,0,0,0,4954,4955,4956,0,0,
0,0,0,4864,4865,4866,0,0,0,0,0,0,0,0,0,0,
0,0,0,4909,4910,4911,0,0,0,0,0,0,0,0,0,0,
0,0,0,4954,4955,4956,0,0,0,0,0,0,0,0,0,0,
0,0,0,0,0,0,0,0,0,0,0,0,0,0,0,0,
0,0,0,0,0,0,0,0,0,0,0,0,0,0,0,0,
0,0,0,0,0,0,0,0,0,0,0,0,0,0,0,0,
0,0,0,0,0,0,0,0,0,0,0,0,0,0,0,0,
0,4389,0,0,0,0,0,0,0,4864,4865,4866,0,0,0,0,
0,4389,0,4390,4391,0,0,0,0,4909,4910,4911,0,0,0,0,
0,4389,0,4435,4436,0,0,0,0,4954,4955,4956,0,0,0,0,
0,4398,4399,0,0,0,0,0,0,0,0,0,0,0,0,0,
0,4443,4444,0,0,0,0,0,0,0,0,0,0,0,0,0,
0,536875167,0,0,0,0,0,0,0,0,0,0,0,0,0,0,
2147488047,2147488046,0,0,0,0,0,0,0,0,0,0,0,0,0,0,
2147488092,2147488091,0,0,0,0,0,0,0,0,0,0,0,0,0,0,
0,0,0,0,0,0,0,0,0,0,0,0,0,0,0,0,
0,0,4402,0,0,0,0,0,0,0,0,0,0,0,0,0,
0,0,0,0,0,0,0,0,0,0,0,0,0,0,0,0,
0,0,0,4136,0,0,0,0,0,0,0,0,0,0,0,0,
0,4564,0,0,0,0,0,0,0,0,0,0,0,0,4229,4230,
0,4609,0,0,0,0,0,0,0,0,0,0,0,0,4274,4275,
0,0,0,0,0,0,0,0,0,0,0,4398,4399,0,0,0,
0,0,0,0,0,0,0,0,0,0,0,4443,4444,0,0,0,
0,0,0,0,0,0,0,0,0,0,0,0,0,0,0,0,
0,0,0,0,0,0,0,0,0,0,0,0,0,4564,0,0,
0,0,0,0,0,0,0,0,0,0,0,0,0,4609,0,0,
0,0,0,0,0,0,0,0,0,0,4136,0,0,0,0,0,
0,0,0,0,0,0,0,0,0,0,0,0,0,0,0,0,
0,0,0,0,0,0,0,0,0,0,0,0,0,0,0,0,
0,0,0,0,0,0,0,0,0,0,0,0,0,0,0,0
</data>
 </layer>
 <objectgroup id="38" name="CollisionMask">
  <object id="8" x="0.414676" y="466.29">
   <polygon points="0,0 11.9722,10.4203 12.9679,11.4714 23.9197,11.3294 25.2122,10.1946 28.6814,12.6062 36.164,12.5353 42.3542,8.56317 47.0479,5.15853 52.4218,0.619025 72.138,-16.9248 71.4685,-28.7459 68.1538,-42.5772 59.9044,-48.3935 54.5532,-70.4054 -1.74801,-77.1438"/>
  </object>
  <object id="9" x="13.2727" y="472.364">
   <polygon points="0,0 -0.210227,120.793 -0.147727,124.886 87.3523,124.886 94.8523,135.261 -13.2727,135.386 -12.7727,-9.36364"/>
  </object>
  <object id="10" x="162.75" y="608">
   <polygon points="0,0 10.25,-11.75 78.5,-12.75 78.75,-152.75 93.25,-153.5 93.25,-0.25"/>
  </object>
  <object id="11" x="137.651" y="529.445">
   <polygon points="-1.35825,0.285171 2.19058,7.75145 -1.89332,15.3042 -0.992395,21.5174 3.99702,26.037 12.9834,31.3644 26.5065,41.9373 38.0448,44.8063 45.8925,43.2466 56.1686,44.9187 67.8212,36.7525 76.6568,29.8133 86.6721,23.4531 95.0869,15.1054 91.3825,9.98529 96.3491,3.18008 76.7939,-25.4911 12.7228,-23.4185"/>
  </object>
  <object id="12" x="255.766" y="458.365">
   <polygon points="0,0 -13.5167,1.13488 -22.0094,0 -28.9472,-8.32243 -29.306,-10.8444 -35.0476,-10.7183 -44.3777,-19.5451 -46.6504,-26.2283 -43.3011,-32.6592 -45.0954,-39.3424 -42.7031,-44.8907 -29.7127,-71.8271 -6.3427,-119.947 -9.65382,-441.989 -75.8368,-445.754 -88.5162,-458.49 0.358849,-458.49"/>
  </object>
  <object id="13" x="14.6667" y="419.667">
   <polygon points="0,0 -1.33333,-408.333 89.3333,-408 98.6667,-419.667 -14.3333,-419 -14.6667,0"/>
  </object>
  <object id="14" x="24.985" y="83.2456">
   <polygon points="0,0 4.69347,0 8.36663,4.72892 14.3954,7.63421 22.5979,8.95723 31.2618,8.86784 43.958,9.66344 50.599,2.65499 56.3039,0.0536361 59.8085,-4.64846 69.6613,-11.42 76.7369,-17.9369 73.2235,-26.8672 77.1362,-35.7753 72.3895,-39.5119 66.8132,-42.1982 -7.55037,-42.149 -13.3262,-38.0146 -11.503,-26.818 -14.5951,-20.2565 -13.0601,-15.8316"/>
  </object>
 </objectgroup>
</map>
