<?xml version="1.0" encoding="UTF-8"?>
<map version="1.10" tiledversion="1.11.2" orientation="orthogonal" renderorder="right-down" width="31" height="35" tilewidth="16" tileheight="16" infinite="0" nextlayerid="20" nextobjectid="11">
 <tileset firstgid="1" source="Tilesheet_Shadow_colorShadow_v2.tsx"/>
 <tileset firstgid="2913" source="rama.tsx"/>
 <tileset firstgid="3361" source="rama2.tsx"/>
 <tileset firstgid="3541" source="Decorations_c1.tsx"/>
 <tileset firstgid="5161" source="U1_decorations_c1.tsx"/>
 <tileset firstgid="5805" source="House_exterior.tsx"/>
 <tileset firstgid="6774" source="32x32_WaterPlants_5.tsx"/>
 <tileset firstgid="6798" source="32x32_WaterPlants_4.tsx"/>
 <tileset firstgid="6822" source="32x32_WaterPlants_3.tsx"/>
 <tileset firstgid="6846" source="32x32_WaterPlants_2.tsx"/>
 <tileset firstgid="6870" source="16x16_Water_Plants_1.tsx"/>
 <tileset firstgid="6876" source="16x16_Water_Plants_2.tsx"/>
 <tileset firstgid="6882" source="16x32_Rock_9.tsx"/>
 <tileset firstgid="6894" source="32x32_Rock_8.tsx"/>
 <tileset firstgid="6918" source="48x48_Rock_10.tsx"/>
 <layer id="1" name="Ground" width="31" height="35">
  <data encoding="csv">
131,131,131,131,131,131,131,131,131,131,131,131,131,131,131,131,131,131,678,678,678,678,678,678,678,678,678,597,597,597,2147484193,
131,131,131,131,131,131,131,131,131,131,131,131,131,131,131,131,131,131,131,131,678,678,678,678,678,678,131,597,2147484193,2147484135,2147484135,
131,131,131,131,131,131,131,131,131,131,131,131,131,131,131,131,131,131,131,131,131,678,678,678,678,131,131,2147484135,2147484134,2147484239,2147484239,
131,131,131,131,131,131,131,131,131,131,131,131,131,131,131,131,131,131,131,131,131,131,131,131,131,131,131,2147484187,2147484186,2147484140,2147484245,
131,131,131,131,131,131,131,131,131,131,131,131,131,131,131,131,131,131,131,131,131,131,131,131,131,131,131,2147484187,2147484135,2147484134,2147484244,
131,131,131,131,131,131,131,131,131,131,131,131,131,131,131,131,131,131,131,131,131,678,597,597,2147484187,536871453,2147484242,2147484188,2147484187,2147484186,2147484245,
131,131,131,131,131,131,131,131,131,131,131,131,131,131,131,131,131,131,131,131,131,131,597,597,597,597,597,2147484240,2147484238,2147484238,2147484188,
131,131,131,131,131,131,131,131,131,131,131,131,131,131,131,131,131,131,131,131,131,131,597,597,597,486,487,2147484134,597,2147484188,597,
131,131,131,131,131,131,131,131,131,131,131,131,131,131,131,131,131,131,131,131,131,131,486,487,487,489,2147484187,2147484186,2147484244,597,597,
131,131,131,131,131,131,131,131,131,131,131,131,131,131,131,131,131,131,131,131,131,131,2684355101,539,539,539,2147484187,597,597,597,2147484135,
131,131,131,131,131,131,131,131,131,131,131,131,131,131,131,131,131,131,131,131,131,131,539,539,539,539,539,2147484136,2147484135,2147484134,2147484239,
131,131,131,131,131,131,131,131,131,131,131,131,131,131,131,131,131,131,131,131,131,131,539,539,539,539,2147484244,2147484188,2147484187,2147484186,2147484140,
131,131,131,131,131,131,131,131,131,131,131,131,131,131,131,131,131,131,131,131,131,131,539,539,542,2147484193,2147484245,2147484188,2147484187,490,2147484134,
131,131,131,131,131,131,131,131,131,131,131,131,131,131,131,131,131,131,131,131,131,131,539,539,487,489,536871453,2147484242,2147484188,2147484187,2147484186,
131,131,131,131,131,131,131,131,131,131,131,131,131,131,131,131,131,131,131,131,131,131,2147484187,2147484187,2147484187,2147484187,2147484187,2147484186,2147484240,2147484238,2147484238,
131,131,131,131,131,131,131,131,131,131,131,131,131,131,131,131,131,131,131,131,131,131,2147484187,2147484187,2147484187,2147484187,2147484187,540,597,2147484192,2147484244,
131,131,131,131,131,131,131,131,131,131,131,131,131,131,131,131,131,131,131,131,131,131,2147484239,2147484239,591,1610613225,2147484187,488,597,2147484193,2147484245,
131,131,131,131,131,131,131,131,131,131,131,131,131,131,131,131,131,131,131,131,131,131,131,131,590,538,2147484187,540,2147484193,2147484187,536871453,
131,131,131,131,131,131,131,131,131,131,131,131,131,131,131,131,131,131,131,131,131,131,131,131,2147484193,2147484188,2147484187,490,489,2147484187,2147484187,
131,131,131,131,131,131,131,131,131,131,131,131,131,131,131,131,131,131,131,131,131,131,131,131,2147484244,2147484188,2147484187,2147484187,2147484187,2147484187,2147484187,
131,131,131,131,131,131,131,131,131,131,131,131,131,131,131,131,131,597,597,597,597,597,597,597,2147484140,2147484240,2147484239,2147484239,2147484190,2147484187,2147484187,
131,131,131,131,131,131,131,131,131,131,1046,131,131,5654,131,131,597,597,597,597,493,597,597,597,2147484244,2147484245,2147484244,2147484192,2147484188,2147484187,2147484187,
131,131,131,131,131,131,131,131,487,545,493,493,493,545,545,596,597,597,597,597,597,597,597,2147484193,597,597,597,2147484141,2147484188,597,597,
131,131,131,131,131,131,131,591,591,486,539,539,486,487,597,597,597,597,597,597,597,597,2147484135,2147484135,2147484135,2147484134,597,597,597,544,597,
131,131,131,131,131,131,131,597,492,538,539,539,1610613226,2684355050,597,597,597,596,488,597,596,2147484193,2147484239,2147484239,536871402,3758096874,2147484134,2147484244,597,597,597,
131,131,131,131,131,131,131,596,486,538,539,539,539,540,596,597,597,597,2147484136,2147484135,2147484134,597,597,2147484245,2147484188,2147484187,2147484186,2147484192,597,545,597,
131,131,131,131,544,597,488,597,538,539,539,590,591,592,596,597,597,597,2147484188,2147484187,2147484186,597,597,2147484244,2147484240,2147484239,2147484238,493,597,597,597,
131,131,131,131,597,597,597,597,590,590,591,544,597,488,597,538,597,597,2147484188,2147484187,1610613278,2147484135,488,597,597,2147484192,597,597,597,597,597,
131,131,131,487,488,597,597,596,540,544,486,489,539,539,540,2147484193,2147484187,597,2147484242,2147484188,2147484187,2147484186,597,597,597,597,597,597,597,597,597,
131,131,131,539,540,596,597,597,597,596,538,539,2147484188,2147484187,2147484187,2147484187,2147484187,2147484187,2147484186,2147484240,2147484238,2147484238,2147484188,539,540,596,131,131,597,2147484193,597,
597,131,487,539,540,597,487,487,488,597,590,591,2147484188,2147484187,2147484187,2147484187,2147484187,2147484187,2147484137,2147484134,2147484192,2147484188,591,591,592,492,131,2147484193,2147484135,2147484135,2147484135,
597,538,539,540,594,2684355101,539,539,490,487,488,2147484140,2147484240,2147484239,2147484239,2147484190,2147484187,2147484187,2147484187,2147484186,2147484244,540,544,596,597,2147484136,489,490,591,590,536871402,
597,590,590,592,538,539,539,539,539,539,540,545,2147484245,2147484244,2147484192,2147484188,2147484187,2147484187,2147484187,597,597,540,596,596,2147484244,544,541,542,2147484140,2147484245,2147484188,
493,597,597,486,489,539,539,539,539,539,540,596,2147484244,2147484244,2147484244,2147484188,597,597,597,486,487,487,487,487,488,486,593,594,2147484134,2147484244,2147484240,
597,597,596,538,539,539,539,542,591,591,592,492,597,597,597,597,597,597,486,489,539,539,539,2147484187,540,489,540,489,2147484186,2147484245,2147484136
</data>
 </layer>
 <layer id="15" name="Shadows" width="31" height="35">
  <data encoding="csv">
0,0,0,0,0,0,0,0,0,0,0,0,0,0,0,0,0,0,0,0,0,0,0,0,0,0,0,0,0,0,0,
0,0,0,0,0,0,0,0,0,0,0,0,0,0,0,0,0,0,0,0,0,0,0,0,0,0,0,0,0,0,0,
0,0,0,0,0,0,0,0,0,0,0,0,0,0,0,0,0,0,0,0,0,0,0,0,0,0,0,0,0,0,0,
0,0,0,0,0,0,0,0,0,0,0,0,0,0,0,0,0,0,0,0,0,0,0,0,0,0,0,0,0,0,0,
0,2147483831,183,183,183,183,183,0,0,0,0,0,0,0,0,0,0,0,0,0,0,0,0,0,0,0,0,0,0,0,0,
0,2147483837,189,2147483837,2147484330,2147483832,2147483831,2147483831,2147483831,0,0,0,0,0,0,0,0,0,0,0,0,0,0,0,0,0,0,0,0,0,0,
0,2147484330,2147484330,682,2147484330,2147483838,2147483837,2147483837,2147483837,2147483832,2147483831,2147483831,2147483831,0,0,0,0,0,0,0,0,0,0,0,0,0,0,0,0,0,0,
0,682,682,682,682,682,2147484330,2147484330,2147484330,2147483838,2147483837,2147483837,2147483788,2147483832,0,0,0,0,0,0,0,0,0,0,0,0,0,0,0,0,0,
0,682,682,682,2147484330,2147484330,2147484330,2147484330,2147484330,2147483733,2147483733,2147483733,2147483736,2147483728,0,0,0,0,0,0,0,0,0,0,0,0,0,0,0,0,0,
0,2147484330,2147484330,2147484330,2147484330,2147483734,2147483733,2147483733,2147483733,2147483728,2147483727,2147483727,2147483727,0,0,0,0,0,0,0,0,0,0,0,0,0,0,0,0,0,0,
0,2147483733,2147483733,2147483733,2147483733,2147484328,2147483728,2147483727,2147483727,81,0,0,0,0,0,0,0,0,0,0,0,0,0,0,0,0,0,0,0,0,0,
0,2147483727,2147483727,2147483727,2147483727,2147483727,2147483730,0,0,0,0,0,0,0,0,0,0,0,0,0,0,0,0,0,0,0,0,0,0,0,0,
0,0,0,0,0,0,0,0,0,0,0,0,0,0,0,0,0,0,0,0,0,0,0,0,0,0,0,3221225961,1610613225,0,0,
0,0,0,0,0,0,0,0,0,0,0,0,0,0,0,0,0,0,0,0,0,0,0,0,0,0,0,0,0,0,0,
0,0,0,0,0,0,0,0,0,0,0,0,0,0,0,0,0,0,0,0,0,0,0,0,0,0,0,0,0,0,0,
0,0,0,0,0,0,0,0,0,0,0,0,0,0,0,0,0,0,0,0,0,0,0,0,0,0,0,0,0,0,0,
0,0,0,0,0,0,0,0,0,0,0,0,0,0,0,0,0,0,0,0,0,0,0,0,0,0,0,0,0,0,0,
0,0,0,0,0,0,0,0,0,0,0,0,0,0,0,0,0,0,0,0,0,0,0,0,0,0,0,0,0,0,487,
0,0,0,0,0,0,0,0,0,0,0,0,0,0,0,0,0,0,0,0,0,0,0,0,0,0,0,0,0,0,0,
0,0,0,0,0,0,0,0,0,0,0,0,0,0,0,0,0,0,0,0,0,0,0,0,0,0,0,0,0,0,0,
0,0,0,0,0,0,0,0,0,0,0,0,0,0,0,0,0,0,0,0,0,0,0,0,0,0,0,0,0,0,0,
0,0,0,0,0,0,0,0,0,0,0,0,0,0,0,0,0,0,0,0,0,0,0,0,0,0,0,0,0,0,0,
0,0,0,0,0,0,0,0,0,0,0,0,0,0,0,0,0,0,0,0,0,0,0,0,0,0,0,0,0,0,0,
0,0,0,0,0,0,0,0,0,0,489,0,0,0,0,0,0,0,0,0,0,0,0,0,0,0,0,0,0,0,0,
0,0,0,0,0,0,0,0,597,0,0,0,0,0,0,0,0,0,0,0,0,0,0,0,0,0,0,0,0,0,0,
0,0,0,0,0,0,0,0,0,0,0,0,0,0,0,0,0,0,0,0,0,0,0,0,0,0,0,0,0,0,0,
0,0,0,0,0,0,0,0,0,0,0,0,0,0,0,0,0,0,0,0,0,0,0,0,0,0,0,0,0,0,0,
0,0,0,0,0,0,0,0,0,0,0,0,0,0,0,0,0,0,0,0,0,0,0,0,0,0,0,0,0,0,0,
0,0,0,0,0,0,0,0,0,0,0,0,0,0,0,0,0,0,0,0,0,0,0,0,0,0,0,0,0,0,0,
0,0,0,0,0,0,0,0,0,0,0,0,0,0,0,0,0,0,0,0,0,0,0,0,0,0,0,0,0,0,0,
788,0,0,0,0,0,0,0,0,0,0,0,0,0,0,0,0,0,0,0,0,0,0,0,0,0,0,0,0,0,0,
0,0,0,0,0,0,0,0,0,0,0,0,0,0,0,0,0,0,0,0,0,0,0,0,0,0,0,0,0,0,1610613225,
0,0,0,0,0,0,0,0,0,0,0,0,0,0,0,0,0,0,0,0,0,0,0,0,0,0,0,0,597,0,0,
0,0,0,0,0,0,0,0,0,0,0,0,0,0,0,0,0,0,0,0,0,0,0,0,0,0,0,0,597,0,0,
0,0,0,0,0,0,0,0,0,0,0,0,0,0,0,0,0,0,0,0,0,0,0,0,0,0,0,0,0,0,0
</data>
 </layer>
 <layer id="16" name="BorderShadows" width="31" height="35">
  <data encoding="csv">
0,0,0,0,0,0,0,0,0,0,0,0,0,0,0,0,0,0,0,0,0,0,0,0,0,0,0,0,0,0,0,
0,0,0,0,0,0,0,0,0,0,0,0,0,0,0,0,0,0,0,0,0,0,0,0,0,0,0,0,0,0,0,
0,0,0,0,0,0,0,0,0,0,0,0,0,0,0,0,0,0,0,0,0,0,0,0,0,0,0,0,0,0,0,
0,0,0,0,0,0,0,0,0,0,0,0,0,0,0,0,0,0,0,0,0,0,0,0,0,0,0,0,0,0,0,
183,0,0,0,0,2147483782,0,133,0,0,0,0,0,0,0,0,0,0,0,0,0,0,0,0,0,0,0,0,0,0,0,
140,0,0,0,0,0,137,182,0,2147483782,0,0,0,0,0,0,0,0,0,0,0,0,0,0,0,0,0,0,0,0,0,
190,0,0,0,0,0,0,0,0,2147483996,0,0,0,2147483782,0,0,0,0,0,0,0,0,0,0,0,0,0,0,0,0,0,
682,0,0,0,0,0,0,0,0,0,0,0,0,0,2147483782,0,0,0,0,0,0,0,0,0,0,0,0,0,0,0,0,
682,0,0,0,0,0,0,0,0,347,0,0,0,0,2147483730,0,0,0,0,0,0,0,0,0,0,0,0,0,0,0,0,
86,0,0,0,0,0,0,0,0,295,0,0,0,2147483938,0,0,0,0,0,0,0,0,0,0,0,0,0,0,0,0,0,
88,0,0,0,0,0,0,0,0,0,0,0,0,0,0,0,0,0,0,0,0,0,0,0,0,0,0,0,0,0,0,
79,0,0,0,0,0,0,0,0,0,0,0,0,0,0,0,0,0,0,0,0,0,0,0,0,0,0,0,0,0,0,
0,6748,0,0,0,0,0,0,6745,0,0,0,0,0,0,0,0,0,0,0,0,0,0,0,0,0,0,0,0,0,0,
0,0,0,0,0,0,0,0,0,0,0,0,0,0,0,0,0,0,0,0,0,0,0,0,0,0,0,0,0,0,0,
0,0,0,0,0,0,0,0,0,0,0,0,0,0,0,0,0,0,0,0,0,0,0,0,0,0,0,0,0,0,0,
0,0,0,0,0,0,0,0,0,0,0,0,0,0,0,0,0,0,0,0,0,0,0,0,0,0,0,0,0,0,0,
0,0,0,0,0,0,0,0,0,0,0,0,0,0,0,0,0,0,0,0,0,0,0,0,0,0,0,0,0,0,0,
0,0,0,0,0,0,0,0,0,0,0,0,0,0,0,0,0,0,0,0,0,0,0,0,0,0,0,0,0,0,0,
0,0,0,0,6745,0,0,0,0,0,0,0,0,0,0,0,0,0,0,0,0,0,0,0,0,0,0,0,0,0,0,
0,0,0,0,0,0,0,0,0,0,0,0,0,0,0,0,0,0,0,0,0,0,0,0,0,0,0,0,0,0,0,
0,0,0,0,0,0,0,0,0,0,0,0,0,0,0,0,0,0,0,0,0,0,0,0,0,0,0,0,0,0,0,
0,0,0,0,0,0,0,0,0,0,0,0,0,0,0,0,0,0,0,0,0,0,0,0,0,0,0,0,0,0,0,
0,0,0,0,0,0,0,0,0,0,0,0,0,0,0,0,0,0,0,0,0,0,0,0,0,0,0,0,0,0,0,
0,0,0,0,0,0,0,0,0,0,0,0,0,0,0,0,0,0,0,0,0,0,0,0,0,0,0,0,0,0,0,
0,0,0,0,0,0,0,0,0,0,0,0,0,0,0,0,0,0,0,0,0,0,0,0,0,0,0,0,0,0,0,
0,0,0,0,0,0,0,0,0,0,0,0,0,0,0,0,0,0,0,0,0,0,0,0,0,0,0,0,0,0,0,
0,0,0,0,0,0,0,0,0,0,0,0,0,0,0,0,0,0,0,0,0,0,0,0,0,0,0,0,0,0,0,
0,0,0,0,0,0,0,0,0,0,0,0,0,0,0,0,0,0,0,0,0,0,0,0,0,0,0,0,0,0,0,
0,0,0,0,0,0,0,0,597,0,0,0,0,0,0,0,0,0,0,0,0,0,0,0,0,0,0,0,0,0,0,
0,0,0,0,0,0,0,0,0,0,0,0,0,0,0,0,0,0,0,0,0,0,0,0,0,0,0,0,0,0,0,
0,0,0,0,0,0,0,0,0,0,0,0,0,0,0,0,0,0,0,0,0,0,0,0,0,0,0,0,0,0,0,
0,0,0,0,0,0,0,0,0,0,0,0,0,0,0,0,0,0,0,0,0,0,0,0,0,0,0,0,0,0,0,
0,0,0,0,0,0,0,0,0,0,0,0,0,0,0,0,0,0,0,0,0,0,0,0,0,0,0,0,0,0,0,
0,0,0,0,0,0,0,0,0,0,0,0,0,0,0,0,0,0,0,0,0,0,0,0,0,0,0,0,0,0,0,
0,0,0,0,0,0,0,0,0,0,0,0,0,0,0,0,0,0,0,0,0,0,0,0,0,0,0,0,0,0,0
</data>
 </layer>
 <layer id="6" name="Borders" width="31" height="35">
  <data encoding="csv">
280,281,281,281,281,281,281,281,281,281,281,283,0,0,0,0,0,284,281,281,281,281,281,281,281,281,283,788,791,0,0,
332,0,0,0,0,0,0,0,0,0,0,0,0,0,0,0,0,0,0,0,0,0,0,0,0,0,0,840,0,0,0,
332,0,6745,0,0,0,0,0,0,0,0,0,0,0,0,0,0,0,0,0,0,0,0,0,0,0,0,840,0,0,0,
332,0,0,0,0,0,0,0,0,0,0,0,0,0,0,6748,0,0,0,0,0,0,0,0,0,0,0,840,0,0,0,
332,0,0,0,0,0,0,0,0,0,0,0,0,0,0,0,0,0,0,0,0,0,0,0,0,0,0,840,0,0,0,
332,0,0,0,0,0,0,0,0,0,0,0,0,0,0,0,0,0,0,0,0,0,788,789,789,789,789,791,0,0,0,
332,0,0,0,0,0,0,0,0,0,0,0,0,0,0,0,0,0,0,0,0,0,840,0,0,0,0,0,0,0,0,
332,0,0,0,0,0,0,0,0,0,0,0,0,0,0,0,0,0,0,0,0,0,840,0,0,0,0,0,0,0,0,
332,0,0,0,0,0,0,0,0,0,0,0,0,0,0,0,0,0,0,0,0,0,840,0,0,0,0,0,0,0,0,
332,0,0,0,0,0,0,0,0,0,0,0,0,0,0,0,0,0,0,6745,0,0,840,0,0,0,0,0,0,0,0,
283,0,0,0,0,295,0,0,0,0,0,0,0,0,0,0,0,0,0,0,0,0,840,0,0,0,0,0,0,0,0,
0,0,0,0,0,0,0,0,0,0,0,0,0,0,0,0,0,0,0,0,0,0,840,0,0,0,540,0,0,0,0,
0,0,0,0,0,0,0,0,0,0,0,0,0,0,0,0,0,0,0,0,0,0,840,0,0,592,0,0,0,0,0,
0,0,0,0,0,0,0,0,0,0,0,0,0,0,0,0,0,0,0,0,4099,0,840,0,540,3221225962,0,0,0,0,0,
0,0,0,0,0,0,0,0,0,0,0,0,0,0,0,0,0,0,0,0,0,0,840,0,490,489,0,0,0,0,0,
0,0,0,0,0,0,0,0,0,0,0,0,0,0,0,6748,0,0,0,0,0,0,840,0,0,0,0,0,0,0,0,
335,0,0,0,0,0,0,0,0,0,0,0,0,0,0,0,0,0,0,0,0,0,892,893,843,0,0,3221226010,0,0,0,
332,0,0,0,0,0,0,0,0,0,0,0,0,0,0,0,0,6745,0,0,0,0,0,0,840,0,0,0,486,487,0,
332,0,0,0,0,0,0,0,0,0,0,0,0,0,0,0,0,0,0,0,0,0,0,4098,840,0,0,0,0,0,0,
332,0,0,0,0,0,0,0,0,0,0,0,0,0,0,0,0,0,0,0,0,0,4099,0,840,0,0,0,0,0,0,
332,0,0,0,0,0,0,0,0,6748,0,0,0,0,0,0,0,788,789,789,789,789,789,789,791,0,0,0,0,0,0,
332,0,0,0,0,0,0,0,0,0,0,0,0,0,0,788,789,791,0,0,0,0,0,0,0,0,0,0,0,0,0,
332,0,0,0,0,0,0,788,789,789,790,0,0,789,789,791,0,544,544,597,0,0,0,0,0,0,0,0,590,591,591,
332,0,0,0,0,0,0,840,0,0,792,0,0,0,0,0,597,597,0,0,0,0,486,0,0,0,0,0,0,0,0,
332,0,0,0,0,0,0,840,0,0,0,0,0,0,0,493,597,544,0,0,0,0,590,0,0,0,0,0,0,0,0,
332,0,0,0,0,0,0,840,0,0,0,0,0,0,0,545,0,0,0,0,0,0,0,0,0,0,0,0,0,0,0,
332,0,0,0,788,789,789,791,0,0,0,0,0,0,0,0,545,0,0,0,0,0,0,0,0,0,0,0,0,0,0,
332,0,0,788,791,0,0,0,0,0,0,0,0,0,0,0,0,597,0,0,0,0,0,0,0,0,0,0,0,0,0,
332,0,0,840,0,0,0,0,0,0,0,0,0,0,0,0,0,0,0,0,0,0,0,0,0,0,0,0,0,0,0,
283,0,0,840,0,0,0,0,0,0,0,0,0,0,0,0,0,0,0,0,0,0,0,0,0,0,0,0,0,0,0,
788,789,789,791,0,0,0,0,0,0,0,0,0,0,0,0,0,0,0,0,0,0,0,0,0,0,0,0,0,0,0,
840,0,0,0,0,0,0,0,0,0,0,0,0,0,0,489,0,0,540,0,0,0,0,0,0,0,0,0,591,591,0,
840,0,0,0,0,0,0,0,0,0,0,0,0,0,0,1610613225,0,0,540,0,0,0,0,0,0,0,0,0,0,0,0,
840,0,0,0,0,0,0,0,0,0,0,0,0,0,0,590,591,591,592,0,0,0,0,0,0,0,0,545,0,0,0,
840,0,0,0,0,0,0,0,0,0,0,0,0,0,0,0,0,0,0,0,0,0,0,0,0,0,0,0,0,0,0
</data>
 </layer>
 <layer id="5" name="Rama" width="31" height="35">
  <data encoding="csv">
0,0,0,0,0,0,0,0,0,0,0,0,0,0,0,0,0,0,0,0,0,0,0,0,0,0,0,0,0,0,0,
0,0,0,0,0,0,0,0,0,0,0,0,0,0,0,0,0,0,0,0,0,0,0,0,0,0,0,0,0,0,0,
0,0,0,0,0,0,0,0,0,0,0,0,0,0,0,0,0,0,0,0,0,0,0,0,0,0,0,0,0,0,0,
0,0,0,0,0,0,0,0,0,0,0,0,0,0,0,0,0,0,0,0,0,0,0,0,0,0,0,0,0,0,0,
0,0,0,0,0,0,0,0,0,0,0,0,0,0,0,0,0,0,0,0,0,0,0,0,0,0,0,0,0,0,0,
0,0,0,0,0,0,0,0,0,0,0,0,0,0,0,0,0,0,0,0,0,0,0,0,0,0,0,0,0,0,0,
0,0,0,0,0,0,0,0,0,0,0,0,0,0,0,0,0,0,0,0,0,0,0,0,0,0,0,0,0,0,0,
0,0,0,0,0,0,0,0,0,0,0,0,0,0,0,0,0,0,0,0,0,0,0,0,0,0,0,0,0,0,0,
0,0,0,0,0,0,0,0,0,0,0,0,0,0,0,0,0,0,0,0,0,0,0,0,0,0,0,0,0,0,0,
0,0,0,0,0,0,0,0,0,0,0,0,0,0,0,0,0,0,0,0,0,0,0,0,0,0,0,0,0,0,0,
0,0,0,0,0,0,0,0,0,0,0,0,0,0,0,0,0,0,0,0,0,0,0,0,0,0,0,0,0,0,0,
0,0,0,0,0,0,0,0,0,0,0,0,0,0,0,0,0,0,0,0,0,0,0,0,0,0,0,0,0,0,0,
0,0,0,0,0,0,0,0,0,0,0,0,0,0,0,0,0,0,0,0,0,0,0,0,0,0,0,0,0,0,0,
0,0,0,0,0,0,0,0,0,0,0,0,0,0,0,0,0,0,0,0,0,0,0,0,0,0,0,0,0,0,0,
0,0,0,0,0,0,0,0,0,0,0,0,0,0,0,0,0,0,0,0,0,0,0,0,0,0,0,0,0,0,0,
0,0,0,0,0,0,0,0,0,0,0,0,0,0,0,0,0,0,0,0,0,0,0,0,0,0,0,0,0,0,0,
0,0,0,0,0,0,0,0,0,0,0,0,0,0,0,0,0,0,0,0,0,0,0,0,0,0,0,0,0,0,0,
0,0,0,0,0,0,0,0,0,0,0,0,0,0,0,0,0,0,0,0,0,0,0,0,0,0,0,0,0,0,0,
0,0,0,0,0,0,0,0,0,0,0,0,0,0,0,0,0,0,0,0,0,0,0,0,0,0,0,0,0,0,0,
0,0,0,0,0,0,0,0,0,0,0,0,0,0,0,0,0,0,0,0,0,0,0,0,0,0,0,0,0,0,0,
0,0,0,0,0,0,0,0,0,0,0,0,0,0,0,0,0,0,0,0,0,0,0,0,0,0,0,0,0,0,0,
0,0,0,0,0,0,2147486586,2147486585,2147486584,2147486583,2147486582,2147486581,2147486580,2147486579,2147486578,2147486577,2147486576,2147486575,2147486574,2147486573,2147486572,0,0,0,2147486568,2147486567,2147486566,2147486565,2147486564,2147486563,2147486562,
0,0,0,0,0,0,2147486614,2147486613,2147486612,2147486611,2147486610,2147486609,2147486608,2147486607,2147486606,2147486605,2147486604,2147486603,2147486602,2147486601,2147486600,2147486599,2147486598,0,0,2147486595,2147486594,2147486593,2147486592,2147486591,2147486590,
0,0,0,0,0,0,2147486642,2147486641,2147486640,2147486639,2147486638,2147486637,2147486636,2147486635,2147486634,2147486633,2147486632,2147486631,2147486630,2147486629,2147486628,2147486627,2147486626,2147486625,2147486624,2147486623,2147486622,2147486621,2147486620,2147486619,2147486618,
0,0,0,0,0,0,2147486670,2147486669,2147486668,2147486667,2147486666,2147486665,2147486664,2147486663,2147486662,2147486661,2147486660,2147486659,2147486658,2147486657,2147486656,2147486655,2147486654,2147486653,2147486652,2147486651,2147486650,2147486649,2147486648,2147486647,2147486646,
0,0,0,0,0,0,2147486698,2147486697,2147486696,2147486695,2147486694,2147486693,2147486692,2147486691,2147486690,2147486689,2147486688,2147486687,2147486686,2147486685,2147486684,2147486683,2147486682,2147486681,2147486680,2147486679,2147486678,2147486677,2147486676,2147486675,2147486674,
0,0,0,0,0,0,2147486726,2147486725,2147486724,2147486723,2147486722,2147486721,2147486720,2147486719,2147486718,2147486717,2147486716,2147486715,2147486714,2147486713,2147486712,2147486711,2147486710,2147486709,2147486708,2147486707,2147486706,2147486705,2147486704,2147486703,2147486702,
0,0,0,0,0,0,2147486754,2147486753,2147486752,2147486751,2147486750,2147486749,2147486748,2147486747,2147486746,2147486745,2147486744,2147486743,2147486742,2147486741,2147486740,2147486739,2147486738,2147486737,2147486736,2147486735,2147486734,2147486733,2147486732,2147486731,2147486730,
0,0,0,0,0,0,2147486782,2147486781,2147486780,2147486779,2147486778,2147486777,2147486776,2147486775,2147486774,2147486773,2147486772,2147486771,2147486770,2147486769,2147486768,2147486767,2147486766,2147486765,2147486764,2147486763,2147486762,2147486761,2147486760,2147486759,2147486758,
0,0,0,0,0,0,2147486810,2147486809,2147486808,2147486807,2147486806,2147486805,2147486804,2147486803,2147486802,2147486801,2147486800,2147486799,2147486798,2147486797,2147486796,2147486795,2147486794,2147486793,2147486792,2147486791,2147486790,2147486789,2147486788,2147486787,2147486786,
0,0,0,0,0,0,2147486838,2147486837,2147486836,2147486835,2147486834,2147486833,2147486832,2147486831,2147486830,2147486829,2147486828,2147486827,2147486826,2147486825,2147486824,2147486823,2147486822,2147486821,2147486820,2147486819,2147486818,2147486817,2147486816,2147486815,2147486814,
0,0,0,0,0,0,2147486866,2147486865,2147486864,2147486863,2147486862,2147486861,2147486860,2147486859,2147486858,2147486857,2147486856,2147486855,2147486854,2147486853,2147486852,2147486851,2147486850,2147486849,2147486848,2147486847,2147486846,2147486845,2147486844,2147486843,2147486842,
0,0,0,0,0,0,2147486894,2147486893,2147486892,2147486891,2147486890,2147486889,2147486888,2147486887,2147486886,2147486885,2147486884,2147486883,2147486882,2147486881,2147486880,2147486879,2147486878,2147486877,2147486876,2147486875,2147486874,2147486873,2147486872,2147486871,2147486870,
0,0,0,0,0,0,2147486922,2147486921,2147486920,2147486919,2147486918,2147486917,2147486916,2147486915,2147486914,2147486913,2147486912,2147486911,2147486910,2147486909,2147486908,2147486907,2147486906,2147486905,2147486904,2147486903,2147486902,2147486901,2147486900,2147486899,2147486898,
0,0,0,0,0,0,0,0,0,0,0,0,0,0,0,0,0,0,0,0,0,0,0,0,0,0,0,0,0,0,0
</data>
 </layer>
 <layer id="7" name="Grass" width="31" height="35">
  <data encoding="csv">
0,0,0,0,0,0,0,0,0,0,0,0,0,0,0,0,0,0,0,0,0,0,0,0,0,0,0,0,0,0,0,
0,0,0,0,0,0,0,0,0,0,0,0,0,0,0,0,0,0,0,0,0,0,0,0,0,0,0,0,0,4549,4550,
0,0,0,0,0,0,0,0,0,0,0,0,0,0,0,0,0,0,0,0,0,0,0,0,0,0,0,0,0,4594,4595,
0,0,0,0,0,0,0,0,0,0,0,0,0,0,0,0,0,0,0,0,0,0,0,0,0,4099,0,0,4461,4462,0,
0,0,0,0,0,0,0,0,0,0,0,0,0,0,0,0,0,0,0,0,0,0,0,0,0,0,0,0,4506,4507,0,
0,0,0,0,0,0,0,0,0,0,0,0,0,0,0,0,0,0,0,0,0,0,0,0,0,0,0,0,0,4414,0,
0,0,0,0,0,0,0,0,0,0,0,0,0,0,0,0,0,0,0,0,0,0,0,0,0,0,0,0,0,0,597,
0,0,0,0,0,0,0,0,0,0,0,0,0,0,0,0,0,0,0,0,0,0,0,0,0,0,0,0,545,597,545,
0,0,0,0,0,0,0,0,0,0,0,0,0,0,0,0,0,0,0,0,0,0,0,0,0,0,0,0,0,0,0,
0,0,6745,0,0,0,0,0,0,0,0,0,0,0,0,0,0,0,0,0,0,0,0,0,0,0,2684355050,592,0,0,597,
0,0,0,0,0,0,0,0,0,0,0,0,0,0,0,0,0,0,0,0,0,0,0,0,0,0,540,0,0,0,597,
0,0,0,0,0,0,0,0,0,0,0,0,0,0,0,0,0,0,0,0,0,0,0,0,0,0,0,0,0,0,0,
0,0,0,0,0,0,0,0,0,0,0,0,0,0,0,0,0,0,0,0,0,0,0,0,0,0,0,0,0,0,0,
0,0,0,0,0,0,0,0,0,0,0,0,0,0,0,0,0,0,0,0,0,0,0,4227,4228,0,0,0,0,0,0,
0,0,0,0,0,0,0,0,0,0,0,0,0,0,0,0,0,0,0,0,0,0,0,0,0,4229,0,0,0,0,0,
0,0,0,0,0,0,0,0,0,0,0,0,0,0,0,0,0,0,0,0,0,0,0,0,0,0,0,0,0,0,0,
0,0,0,0,0,0,0,0,0,0,0,0,0,0,0,0,0,0,0,0,0,0,0,0,0,0,0,0,0,0,0,
0,0,0,0,0,0,0,0,0,0,0,0,0,0,0,0,0,0,0,0,0,0,0,0,0,0,0,0,0,0,0,
0,0,0,0,0,0,0,0,0,0,0,0,0,0,0,0,0,0,0,0,0,0,0,0,0,0,0,0,0,0,0,
0,0,0,0,0,0,0,0,0,0,0,0,0,0,0,0,0,0,0,0,0,0,0,0,0,0,0,0,0,0,0,
0,0,0,0,0,0,0,0,0,0,0,0,4123,4124,0,0,0,0,0,0,0,0,0,0,0,0,0,0,0,0,0,
0,0,0,0,0,0,0,0,0,0,0,0,4168,4169,0,0,0,0,0,0,0,0,0,0,0,0,0,0,0,0,0,
0,0,0,0,0,0,0,0,0,0,0,0,0,0,0,0,0,0,0,0,0,0,0,0,0,0,0,0,0,0,0,
0,0,0,0,0,0,0,0,0,0,0,0,0,0,0,0,0,0,0,4461,4462,0,0,2147488200,2147488199,0,0,0,0,0,0,
0,0,0,0,0,0,0,0,0,0,0,0,0,0,0,0,0,4549,4550,4506,4507,0,0,2147488245,2147488244,0,0,0,0,0,0,
0,0,0,0,0,0,0,0,0,0,0,0,0,0,0,0,0,4594,4595,0,0,0,0,0,0,0,0,0,0,0,0,
0,0,0,0,0,0,0,0,0,0,0,0,0,0,0,0,0,0,0,0,0,0,0,0,0,0,0,0,0,0,0,
0,0,0,0,0,0,0,0,0,0,0,0,0,0,0,0,0,0,4548,0,0,0,0,0,0,0,0,0,0,0,0,
0,0,0,0,0,2147488061,0,0,4551,4552,0,0,0,0,0,0,0,0,4593,0,0,0,0,0,0,0,0,0,0,0,0,
0,0,0,0,0,0,0,0,4596,4597,0,0,0,0,0,0,0,0,0,0,0,0,0,0,0,0,0,0,0,0,0,
0,0,0,0,0,0,0,0,0,0,0,0,0,0,0,0,0,0,0,0,0,0,0,0,0,0,0,0,0,0,0,
0,0,0,0,0,0,0,0,0,0,0,0,0,0,0,0,0,0,0,0,0,0,0,0,0,0,0,0,0,0,0,
0,0,0,0,0,0,0,0,0,0,0,0,0,0,0,0,0,0,0,0,0,0,0,0,0,0,0,0,0,0,0,
0,0,0,0,0,0,0,0,0,0,0,0,0,0,0,0,0,0,0,0,0,0,0,0,0,0,0,0,0,0,0,
0,0,0,0,0,0,0,0,0,0,0,0,0,0,0,0,0,0,0,0,0,0,0,0,0,0,0,0,0,0,0
</data>
 </layer>
 <layer id="19" name="Details" width="31" height="35">
  <data encoding="csv">
0,0,0,0,0,0,0,0,0,0,0,0,0,0,0,0,0,0,0,0,0,0,0,0,0,0,0,0,0,0,0,
0,0,0,0,0,0,0,0,0,0,0,0,0,0,0,0,0,0,0,0,0,0,0,0,0,0,0,0,0,6846,6847,
0,0,0,0,0,0,0,0,0,0,0,0,0,0,0,0,0,0,0,0,0,0,0,0,0,0,0,0,0,6858,6859,
0,0,0,0,0,0,0,0,0,0,0,0,0,0,0,0,0,0,0,0,0,0,0,0,0,0,0,0,6822,6823,0,
0,0,0,0,0,0,0,0,0,0,0,0,0,0,0,0,0,0,0,0,0,0,0,0,0,0,0,0,6834,6835,0,
0,0,0,0,0,0,0,0,0,0,0,0,0,0,0,0,0,0,0,0,0,0,0,0,0,0,0,0,0,6876,0,
0,0,0,0,0,0,0,0,0,0,0,0,0,0,0,0,0,0,0,0,0,0,0,0,0,0,0,0,0,0,0,
0,0,0,0,0,0,0,0,0,0,0,0,0,0,0,0,6616,6617,0,0,0,0,0,0,0,0,0,0,0,0,0,
0,0,0,0,0,0,0,0,0,0,0,0,0,0,0,0,6633,6634,0,0,0,0,0,6774,6775,0,0,0,0,0,0,
0,0,0,0,0,0,0,0,0,0,0,0,0,0,0,0,0,0,0,0,0,0,0,6786,6787,0,0,0,0,0,0,
0,0,0,0,0,0,0,0,0,0,0,0,0,0,0,0,0,0,0,0,0,0,0,0,0,0,0,0,0,0,0,
0,0,0,0,0,0,0,0,0,0,0,0,0,0,0,0,0,0,0,0,0,0,0,0,0,0,0,0,0,0,0,
0,0,0,0,0,0,0,0,0,0,0,0,0,0,0,0,0,0,0,0,0,0,0,0,0,0,0,0,0,0,0,
0,0,0,0,0,0,0,0,0,0,0,0,0,0,0,0,0,0,0,0,0,0,0,0,0,0,0,0,0,0,0,
0,0,0,0,0,0,0,0,0,0,0,0,0,0,0,0,0,0,0,0,0,0,0,0,0,0,0,0,0,0,0,
0,0,0,0,0,0,0,0,0,0,0,0,0,0,0,0,0,0,0,0,0,0,0,0,0,0,0,0,0,0,0,
0,0,0,0,0,0,0,0,0,0,0,0,0,0,0,0,0,0,0,0,0,0,0,0,0,0,0,0,0,0,0,
0,0,0,0,0,0,0,0,0,0,0,0,0,0,0,0,0,0,0,0,0,0,0,0,0,0,0,0,0,0,0,
0,0,0,0,0,0,0,0,0,0,0,0,0,0,0,0,0,0,0,0,0,0,0,0,0,0,0,0,0,0,0,
0,0,0,0,0,0,0,0,0,0,0,0,0,0,0,0,0,0,0,0,0,0,0,0,0,0,0,0,0,0,0,
0,0,0,0,0,0,0,0,0,0,0,0,0,4286,4287,0,0,0,0,0,0,0,0,0,0,0,0,0,0,0,0,
0,0,0,0,0,0,0,0,0,0,266,263,265,4331,4332,0,0,0,0,0,0,0,0,0,0,0,0,0,0,0,0,
0,0,0,0,0,0,0,0,0,0,4122,0,0,0,0,0,0,0,0,0,0,0,0,0,0,0,0,0,0,0,0,
0,0,0,0,0,0,0,0,0,0,0,0,0,0,0,0,0,0,0,6822,6823,0,0,2147490447,2147490446,0,0,0,0,0,0,
0,0,0,0,0,4456,4457,0,0,0,0,0,0,0,0,0,0,6846,6847,6834,6835,0,0,2147490459,2147490458,0,0,0,0,0,0,
0,0,0,0,0,4501,4502,0,0,0,0,0,0,0,0,0,0,6858,6859,0,0,0,0,0,0,0,0,0,0,0,0,
0,0,0,0,0,0,0,0,0,0,0,0,0,0,0,0,0,0,0,0,0,0,0,0,0,0,0,0,0,0,0,
0,0,0,0,0,0,0,0,0,0,0,0,0,0,0,0,0,0,0,0,0,0,0,0,0,0,0,0,0,0,0,
0,0,0,0,0,2147490518,0,0,6798,6799,0,0,0,0,0,0,0,0,0,0,0,0,0,0,0,0,0,0,0,0,0,
0,0,0,0,0,0,0,0,6810,6811,0,0,0,0,0,0,0,0,0,0,0,0,0,0,0,0,0,0,0,0,0,
0,0,0,0,0,0,0,0,0,0,0,0,0,0,0,0,0,0,0,0,0,0,0,0,0,0,0,0,0,0,0,
0,0,0,0,0,0,0,0,0,0,0,0,0,0,0,0,0,0,0,0,0,0,0,0,0,0,0,0,0,0,0,
0,0,0,0,0,0,0,0,0,0,0,0,0,0,0,0,0,0,0,0,0,0,0,0,0,0,0,0,0,0,0,
0,0,0,0,0,0,0,0,0,0,0,0,0,0,0,0,0,0,0,0,0,0,0,0,0,0,0,0,0,0,0,
0,0,0,0,0,0,0,0,0,0,0,0,0,0,0,0,0,0,0,0,0,0,0,0,0,0,0,596,596,0,0
</data>
 </layer>
 <layer id="18" name="Player" width="31" height="35">
  <data encoding="csv">
0,0,0,0,0,0,0,0,0,0,0,0,0,0,0,0,0,0,0,0,0,0,0,0,0,0,0,0,0,0,0,
0,0,0,0,0,0,0,0,0,0,0,0,0,0,0,0,0,0,0,0,0,0,0,0,0,0,0,0,0,0,0,
0,0,0,0,0,0,0,0,0,0,0,0,0,0,0,0,0,0,0,0,0,0,0,0,0,0,0,0,0,0,0,
0,0,0,0,0,0,0,0,0,0,0,0,0,0,0,0,0,0,0,0,0,0,0,0,0,0,0,0,0,0,0,
0,0,0,0,0,0,0,0,0,0,0,0,0,0,0,0,0,0,0,0,0,0,0,0,0,0,0,0,0,0,0,
0,0,0,0,0,0,0,0,0,0,0,0,0,0,0,0,0,0,0,0,0,0,0,0,0,0,0,0,0,0,0,
0,0,0,0,0,0,0,0,0,0,0,0,0,0,0,0,0,0,0,0,0,0,0,0,0,0,0,0,0,0,0,
0,0,0,0,0,0,0,0,0,0,0,0,0,0,0,0,0,0,0,0,0,0,0,0,0,0,0,0,0,0,0,
0,0,0,0,0,0,0,0,0,0,0,0,0,0,0,0,0,0,0,0,0,0,0,0,0,0,0,0,0,0,0,
0,0,0,0,0,0,0,0,0,0,0,0,0,0,0,0,0,0,0,0,0,0,0,0,0,0,0,0,0,0,0,
0,0,0,0,0,0,0,0,0,0,0,0,0,0,0,0,0,0,0,0,0,0,0,0,0,0,0,0,0,0,0,
0,0,0,0,0,0,0,0,0,0,0,0,0,0,0,0,0,0,0,0,0,0,0,0,0,0,0,0,0,0,0,
0,0,0,0,0,0,0,0,0,0,0,0,0,0,0,0,0,0,0,0,0,0,0,0,0,0,0,0,0,0,0,
0,0,0,0,0,0,0,0,0,0,0,0,0,0,0,0,0,0,0,0,0,0,0,0,0,0,0,0,0,0,0,
0,0,0,0,0,0,0,0,0,0,0,0,0,0,0,0,0,0,0,0,0,0,0,0,0,0,0,0,0,0,0,
0,0,0,0,0,0,0,0,0,0,0,0,0,0,0,0,0,0,0,0,0,0,0,0,0,0,0,0,0,0,0,
0,0,0,0,0,0,0,0,0,0,0,0,0,0,0,0,0,0,0,0,0,0,0,0,0,0,0,0,0,0,0,
0,0,0,0,0,0,0,0,0,0,0,0,0,0,0,0,0,0,0,0,0,0,0,0,0,0,0,0,0,0,0,
0,0,0,0,0,0,0,0,0,0,0,0,0,0,0,0,0,0,0,0,0,0,0,0,0,0,0,0,0,0,0,
0,0,0,0,0,0,0,0,0,0,0,0,0,0,0,0,0,0,0,0,0,0,0,0,0,0,0,0,0,0,0,
0,0,0,0,0,0,0,0,0,0,0,0,0,0,0,0,0,0,0,0,0,0,0,0,0,0,0,0,0,0,0,
0,0,0,0,0,0,0,0,0,0,0,0,0,0,0,0,0,0,0,0,0,0,0,0,0,0,0,0,0,0,0,
0,0,0,0,0,0,0,0,0,0,0,0,0,0,0,0,0,0,0,0,0,0,0,0,0,0,0,0,0,0,0,
0,0,0,0,0,0,0,0,0,0,0,0,0,0,0,0,0,0,0,0,0,0,0,0,0,0,0,0,0,0,0,
0,0,0,0,0,0,0,0,0,0,0,0,0,0,0,0,0,0,0,0,0,0,0,0,0,0,0,0,0,0,0,
0,0,0,0,0,0,0,0,0,0,0,0,0,0,0,0,0,0,0,0,0,0,0,0,0,0,0,0,0,0,0,
0,0,0,0,0,0,0,0,0,0,0,0,0,0,0,0,0,0,0,0,0,0,0,0,0,0,0,0,0,0,0,
0,0,0,0,0,0,0,0,0,0,0,0,0,0,0,0,0,0,0,0,0,0,0,0,0,0,0,0,0,0,0,
0,0,0,0,0,0,0,0,0,0,0,0,0,0,0,0,0,0,0,0,0,0,0,0,0,0,0,0,0,0,0,
0,0,0,0,0,0,0,0,0,0,0,0,0,0,0,0,0,0,0,0,0,0,0,0,0,0,0,0,0,0,0,
0,0,0,0,0,0,0,0,0,0,0,0,0,0,0,0,0,0,0,0,0,0,0,0,0,0,0,0,0,0,0,
0,0,0,0,0,0,0,0,0,0,0,0,0,0,0,0,0,0,0,0,0,0,0,0,0,0,0,0,0,0,0,
0,0,0,0,0,0,0,0,0,0,0,0,0,0,0,0,0,0,0,0,0,0,0,0,0,0,0,0,0,0,0,
0,0,0,0,0,0,0,0,0,0,0,0,0,0,0,0,0,0,0,0,0,0,0,0,0,0,0,0,0,0,0,
0,0,0,0,0,0,0,0,0,0,0,0,0,0,0,0,0,0,0,0,0,0,0,0,0,0,0,0,0,0,0
</data>
 </layer>
 <layer id="10" name="Trees" width="31" height="35">
  <data encoding="csv">
0,0,0,4463,4464,4465,0,0,0,0,0,0,0,0,0,0,0,0,0,0,0,0,0,0,0,0,0,0,0,0,0,
0,0,0,4508,4509,4510,0,0,0,0,0,0,0,0,0,0,0,0,0,0,0,0,0,0,0,0,0,0,0,0,0,
0,0,0,4733,4734,4735,0,0,0,0,0,0,0,0,0,0,0,0,0,0,0,0,0,0,0,0,0,0,0,0,0,
0,0,0,4778,4779,4780,0,0,0,0,0,0,0,0,0,0,0,0,0,0,0,0,0,0,0,0,0,0,0,0,0,
0,4871,4872,4873,4874,4875,4876,4877,0,0,0,0,0,0,0,0,0,0,0,0,0,0,0,0,0,0,0,0,0,0,0,
0,4916,4917,4918,4919,4920,4921,4922,0,0,0,0,0,0,0,0,0,0,0,0,0,0,0,0,0,0,0,0,0,0,0,
0,4961,4962,4963,4964,4965,4966,4967,0,0,0,0,0,0,0,0,0,0,0,0,0,0,0,0,0,0,0,0,0,0,0,
0,5006,5007,5008,5009,5010,5011,5012,0,0,0,0,0,0,0,0,0,0,0,0,0,0,0,0,0,0,0,0,0,0,0,
0,5051,5052,5053,5054,5055,5056,5057,0,0,0,0,0,0,0,0,0,0,0,0,0,0,0,0,0,0,0,0,0,0,0,
0,5096,5097,5098,5099,5100,5101,5102,0,0,0,0,0,0,0,0,0,0,0,0,0,0,0,0,0,0,0,0,0,0,0,
0,0,0,0,0,0,0,0,0,0,0,0,0,0,0,0,0,0,0,0,0,0,0,0,0,0,0,0,0,0,0,
0,0,0,0,0,0,0,0,0,0,0,0,0,0,0,0,0,0,0,0,0,0,0,0,0,0,0,0,0,0,0,
0,0,0,0,0,0,0,0,0,0,0,0,0,0,0,0,0,0,0,0,0,0,0,0,0,0,0,0,0,0,0,
0,0,0,0,0,0,0,0,0,0,0,0,0,0,0,0,0,0,0,0,0,0,0,0,0,0,0,0,0,0,0,
0,0,0,0,0,0,0,0,0,0,0,0,0,0,0,0,0,0,0,0,0,0,0,0,0,0,0,0,0,0,0,
0,0,0,0,0,0,0,0,0,0,0,0,0,0,0,0,0,0,0,0,0,0,0,0,0,0,0,0,0,0,0,
0,0,0,0,0,0,0,0,0,0,0,0,0,0,0,0,0,0,0,0,0,0,0,0,0,0,0,0,0,0,0,
0,0,0,0,0,0,0,0,0,0,0,0,0,0,0,0,0,0,0,0,0,0,0,0,0,0,0,0,0,0,0,
0,0,0,0,0,0,0,0,0,0,0,0,0,0,0,0,0,0,0,0,0,0,0,0,0,0,0,0,0,0,0,
0,0,0,0,0,0,0,0,0,0,0,0,0,0,0,0,0,0,0,0,0,0,0,0,0,0,0,0,0,0,0,
0,0,0,0,0,0,0,0,0,0,0,0,0,0,0,0,0,0,0,0,0,0,0,0,0,0,0,0,0,0,0,
0,0,0,0,0,0,0,0,0,0,0,0,0,0,0,0,0,0,0,0,0,0,0,0,0,0,0,0,0,0,0,
0,0,0,0,0,0,0,0,0,0,0,0,0,0,0,0,0,0,0,0,0,0,0,0,0,0,0,0,0,0,0,
0,0,0,0,0,0,0,0,0,0,0,0,0,0,0,0,0,0,0,0,0,0,0,0,0,0,0,0,0,0,0,
0,0,0,0,0,0,0,0,0,0,0,0,0,0,0,0,0,0,0,0,0,0,0,0,0,0,0,0,0,0,0,
0,0,0,0,0,0,0,0,0,0,0,0,0,0,0,0,0,0,0,0,0,0,0,0,0,0,0,0,0,0,0,
0,0,0,0,0,0,0,0,0,0,0,0,0,0,0,0,0,0,0,0,0,0,0,0,0,0,0,0,0,0,0,
0,0,0,0,0,0,0,0,0,0,0,0,0,0,0,0,0,0,0,0,0,0,0,0,0,0,0,0,0,0,0,
0,0,0,0,0,0,0,0,0,0,0,0,0,0,0,0,0,0,0,0,0,0,0,0,0,0,0,0,0,0,0,
0,0,0,0,0,0,0,0,0,0,0,0,0,0,0,0,0,0,0,0,0,0,0,0,0,0,0,0,0,0,0,
0,0,0,0,0,0,0,0,0,0,0,0,0,0,0,0,0,0,0,0,0,0,0,0,0,0,0,0,0,0,0,
0,0,0,0,0,0,0,0,0,0,0,0,0,0,0,0,0,0,0,0,0,0,0,0,0,0,0,0,0,0,0,
0,0,0,0,0,0,0,0,0,0,0,0,0,0,0,0,0,0,0,0,0,0,0,0,0,0,0,0,0,0,0,
0,0,0,0,0,0,0,0,0,0,0,0,0,0,0,0,0,0,0,0,0,0,0,0,0,0,0,0,0,0,0,
0,0,0,0,0,0,0,0,0,0,0,0,0,0,0,0,0,0,0,0,0,0,0,0,0,0,0,0,0,0,0
</data>
 </layer>
 <layer id="8" name="Deco" width="31" height="35">
  <data encoding="csv">
0,0,0,0,0,0,5352,5353,5354,5355,5356,0,0,0,0,0,0,0,0,5240,5241,5242,5243,5244,0,0,0,0,0,0,0,
0,0,0,0,0,0,5380,5381,5382,5383,5384,0,0,0,0,0,0,0,0,0,5269,5270,5271,5272,0,0,0,0,0,0,0,
0,0,0,0,0,0,5408,5409,5410,5411,5412,0,0,0,0,0,0,0,0,0,5297,5298,5299,5300,0,0,0,0,0,0,0,
0,0,0,0,4290,4291,5436,5437,5438,5439,5440,0,0,0,0,0,0,0,0,5324,5325,5326,5327,5328,0,0,0,0,0,0,0,
0,0,0,0,4335,4336,5464,5465,5466,5467,5468,0,0,0,0,0,0,0,0,5352,5353,5354,5355,5356,0,0,0,0,0,0,0,
0,0,0,4292,4293,0,0,0,0,0,0,0,0,0,0,0,0,0,0,5380,5381,5382,5383,5384,0,0,0,0,0,0,0,
0,0,0,4337,4338,0,0,0,0,0,0,0,0,0,0,0,0,0,0,5408,5409,5410,5411,5412,0,0,0,0,0,0,0,
0,0,0,0,0,0,0,0,0,0,0,0,0,0,0,0,0,0,0,5436,5437,5438,5439,5440,0,0,0,0,0,0,0,
0,0,0,0,0,0,0,0,0,0,0,0,0,0,0,0,0,0,0,5464,5465,5466,5467,4543,4544,0,0,0,0,0,0,
0,0,0,0,0,0,0,0,0,0,0,0,0,0,0,0,0,0,0,0,0,0,0,4588,4589,0,0,0,0,0,0,
0,0,0,0,0,0,0,0,0,0,0,0,0,0,0,0,0,0,0,0,0,0,0,0,0,0,0,0,0,0,0,
0,0,0,0,0,0,0,0,0,0,0,0,0,0,0,0,0,0,0,0,0,0,0,0,0,0,0,0,0,0,0,
0,0,0,0,0,0,0,0,0,0,0,0,0,0,0,0,0,0,0,0,0,0,0,0,0,0,0,0,0,0,0,
0,0,0,0,0,0,0,0,0,0,0,0,0,0,0,0,0,0,0,0,0,0,0,0,0,0,0,0,0,0,0,
0,0,0,0,0,0,0,0,0,0,0,0,0,0,0,0,0,0,0,0,0,0,0,0,0,0,0,0,0,0,0,
0,0,0,0,0,0,0,0,0,0,0,0,0,0,0,0,0,0,0,0,0,0,0,0,0,0,0,0,0,0,0,
5184,5185,5186,5187,5188,0,0,0,0,0,0,0,0,0,0,0,0,0,0,0,0,0,0,0,0,0,0,0,0,0,0,
5212,5213,5214,5215,5216,0,0,0,0,0,0,0,0,0,0,0,0,0,0,0,0,0,0,0,0,0,0,0,0,0,0,
5240,5241,5242,5243,5244,0,0,0,0,0,0,0,0,0,0,0,0,0,0,0,0,0,0,0,0,0,0,0,0,0,0,
5268,5269,5270,5271,5272,0,0,0,0,0,0,0,0,0,0,0,0,0,0,0,0,0,0,0,0,0,0,0,0,0,0,
5296,5297,5298,5299,5300,0,0,0,0,0,0,0,0,0,0,0,0,0,0,0,0,0,0,0,0,0,0,0,0,0,0,
5324,5325,5326,5327,5328,0,0,0,0,0,0,0,0,0,0,0,0,0,0,0,0,0,0,0,0,0,0,0,0,0,0,
5352,5353,5354,5355,5356,0,0,0,0,0,0,0,0,0,0,0,0,0,0,0,0,0,0,0,0,0,0,0,0,0,0,
5380,5381,5382,5383,5384,0,0,0,0,0,0,0,0,0,0,0,0,0,0,0,0,0,0,0,0,0,0,0,0,0,0,
5408,5409,5410,5411,5412,0,0,0,0,0,0,0,0,0,0,0,0,0,0,0,0,0,0,0,0,0,0,0,0,0,0,
5436,5437,5438,5439,5440,0,0,0,0,0,0,0,0,0,0,0,0,0,0,0,0,0,0,0,0,0,0,0,0,0,0,
5464,5465,5466,5467,5468,0,0,0,0,0,0,0,0,0,0,0,0,0,0,0,0,0,0,0,0,0,0,0,0,0,0,
0,0,0,0,0,0,0,0,0,0,0,0,0,0,0,0,0,0,0,0,0,0,0,0,0,0,0,0,0,0,0,
0,0,0,0,0,0,0,0,0,0,0,0,0,0,0,0,0,0,0,0,0,0,0,0,0,0,0,0,0,0,0,
0,0,0,0,0,0,0,0,0,0,0,0,0,0,0,0,0,0,0,0,0,0,0,0,0,0,0,0,4122,0,0,
0,0,0,0,0,0,0,0,0,0,0,0,0,0,0,0,0,0,0,0,0,0,0,0,0,0,0,0,0,0,0,
0,0,0,0,0,0,0,0,0,0,0,0,0,0,0,0,0,0,0,0,0,0,0,0,0,0,0,0,0,0,0,
0,0,0,0,0,0,0,0,0,0,0,0,0,0,0,0,0,0,0,0,0,0,0,0,0,0,0,0,0,0,0,
0,0,0,0,0,0,0,0,0,0,0,0,0,0,0,0,0,0,0,0,0,0,0,0,0,0,0,0,0,0,0,
0,0,0,0,0,0,0,0,0,0,0,0,0,0,0,0,0,0,0,0,0,0,0,0,0,0,0,0,0,0,0
</data>
 </layer>
 <layer id="11" name="Deco1" width="31" height="35">
  <data encoding="csv">
0,0,0,0,0,0,0,0,0,0,0,0,0,0,0,0,0,0,0,0,0,0,3787,3788,3789,3790,0,0,0,0,0,
0,0,0,0,4341,0,0,0,0,0,0,0,0,0,0,0,0,0,0,0,0,0,3832,3833,3834,3835,0,0,0,0,0,
0,0,0,4294,4295,0,0,0,0,0,0,0,0,0,0,0,0,0,0,0,0,0,3877,3878,3879,3880,0,0,0,0,0,
0,0,0,4339,4340,0,0,0,0,0,0,0,0,0,0,0,0,0,0,0,0,0,3922,3923,3924,0,0,0,0,0,0,
0,0,0,0,0,0,0,0,0,0,0,0,0,0,0,0,0,0,0,0,0,0,0,0,0,0,0,0,0,0,0,
0,0,0,0,0,0,0,0,0,0,0,0,0,0,0,0,0,0,0,0,0,0,0,0,0,0,0,0,0,0,0,
0,0,0,0,0,0,0,0,0,0,0,0,0,0,0,0,0,0,0,0,0,0,0,0,0,0,0,0,0,0,0,
0,0,0,0,0,0,0,0,0,0,0,0,0,0,0,0,0,0,0,0,0,0,0,0,0,0,0,0,0,0,0,
0,0,0,0,0,0,0,0,0,0,0,0,0,0,0,0,0,0,0,0,0,4289,0,0,0,0,0,0,0,0,0,
0,0,0,0,0,0,0,0,0,0,0,0,0,0,0,0,0,0,0,0,0,0,0,0,0,0,0,0,0,0,0,
0,0,0,0,0,0,0,0,0,0,0,0,0,0,0,0,0,3746,3747,3748,0,0,0,0,0,0,0,0,0,0,0,
0,0,0,0,0,0,0,0,0,0,0,0,0,0,0,0,0,3791,3792,3793,0,0,0,0,0,6918,6919,6920,0,0,0,
0,0,0,0,0,0,0,0,0,0,0,0,0,0,0,0,0,3836,3837,3838,0,0,0,0,0,6936,6937,6938,0,0,0,
0,0,0,0,0,0,0,0,0,0,0,0,0,0,0,0,0,3881,3882,3883,0,0,0,0,0,6954,6955,6956,0,0,0,
0,0,0,0,0,0,0,0,0,0,0,0,0,0,0,0,0,3926,3927,3928,0,0,0,6906,6907,0,0,0,0,0,0,
0,0,0,0,0,0,0,0,0,0,0,0,0,0,0,0,0,0,0,0,0,0,0,0,0,6888,0,0,0,0,0,
0,0,0,0,0,0,0,0,0,0,0,0,0,0,0,0,0,0,0,0,0,0,0,0,0,0,0,0,0,0,0,
0,0,0,0,0,0,0,0,0,0,0,0,0,0,0,0,0,0,0,0,0,0,0,0,0,0,0,0,0,0,0,
0,0,0,0,0,3747,3748,0,0,0,0,0,0,0,0,0,0,0,0,0,0,0,0,0,0,0,0,0,0,0,0,
0,0,0,0,3791,3792,3793,0,0,0,0,0,0,0,0,0,0,0,0,0,0,0,0,0,0,0,0,0,0,0,0,
0,0,0,0,3836,3837,3838,0,0,0,0,0,0,0,0,0,0,0,0,0,0,0,0,0,0,0,0,0,0,0,0,
0,0,0,0,3881,3882,3883,0,0,0,0,0,0,0,0,0,0,0,0,0,0,0,0,0,0,0,0,0,0,0,0,
0,0,0,0,3926,3927,3928,0,0,0,0,0,0,0,0,0,0,0,0,0,0,0,0,0,0,0,0,0,0,0,0,
0,0,0,0,0,0,0,0,0,0,0,0,0,0,0,0,0,0,0,0,0,0,0,0,0,0,0,0,0,0,0,
0,0,0,0,0,0,0,0,0,0,0,0,0,0,0,0,0,0,0,0,0,0,0,0,0,0,0,0,0,0,0,
0,0,0,0,0,0,0,0,0,0,0,0,0,0,0,0,0,0,0,0,0,0,0,0,0,0,0,0,0,0,0,
0,0,0,0,0,0,0,0,0,0,0,0,0,0,0,0,0,0,0,0,0,0,0,0,0,0,0,0,0,0,0,
0,0,0,0,0,0,0,0,0,0,0,0,0,4288,0,0,0,0,0,0,0,0,0,0,0,0,0,0,0,0,0,
0,0,0,0,0,0,0,0,0,0,0,0,0,4333,0,0,0,0,0,0,0,0,0,0,0,0,0,0,0,0,0,
0,0,0,0,0,0,0,0,0,0,0,0,0,0,0,0,0,0,0,0,0,0,0,0,0,0,0,0,0,0,0,
0,0,0,0,0,0,0,0,0,0,0,0,0,0,0,0,0,0,0,0,0,0,0,0,0,0,0,0,0,0,0,
0,0,0,0,0,0,0,0,0,0,0,0,0,0,0,0,0,0,0,0,0,0,0,0,0,0,0,0,0,0,0,
0,0,0,0,0,0,0,0,0,0,0,0,0,0,0,0,0,0,0,0,0,0,0,0,0,0,0,0,0,0,0,
0,0,0,0,0,0,0,0,0,0,0,0,0,0,0,0,0,0,0,0,0,0,0,0,0,0,0,0,0,0,0,
0,0,0,0,0,0,0,0,0,0,0,0,0,0,0,0,0,0,0,0,0,0,0,0,0,0,0,0,0,0,0
</data>
 </layer>
 <objectgroup id="17" name="CollisionMask">
  <object id="1" x="-1.33333" y="474.667">
   <polygon points="1,6.75 9.09203,-0.693669 12.8864,5.20982 24.4583,5.58333 33.5649,4.50943 41.0892,7.32235 46.6667,3.33333 49.4092,-2.66227 46.8883,-15.4163 51.3333,-37.9167 55.8269,-42.291 62.0423,-42.9793 66.1978,-47.6914 70.9167,-58.3333 85.0478,-59.3683 92.0818,-58.9281 98.9695,-59.9887 103.828,-57.1129 112.542,-59.25 112.729,-111.179 115.708,-119.542 122.712,-123.101 135.5,-120.846 176.034,-127.696 180.736,-57.1173 281.125,14.709 320.94,3.947 362.85,-1.951 408.487,12.343 453.862,9.25933 445.096,-17.603 420.853,-12.637 360.046,-31.5573 300.205,-18.4103 230.904,-66.2853 232.055,-142.735 245.119,-140.518 258.181,-140.717 268.25,-138.417 272.64,-144.182 275.186,-151.571 281.689,-156.969 290.908,-156.898 307.573,-156.493 382.833,-155.625 383.833,-168.417 383.542,-202.5 364.168,-202.139 355.042,-204.833 351.419,-211.917 351.833,-329.542 341.73,-327.446 328.87,-335.074 330.166,-346.958 335.013,-355.386 350.458,-351.208 353.206,-352.873 352.718,-357.529 352.72,-370.779 350.519,-386.29 349.718,-390.632 351.083,-392.792 354.408,-393.455 357.091,-393.764 423.336,-393.59 427.6,-393.664 431.333,-394.667 432.339,-398.696 432.248,-402.185 432.021,-452.917 432.64,-459.417 433.106,-462.846 430.75,-464.542 425.48,-465.6 422.083,-462.626 415.209,-460.33 292.954,-460.504 283.125,-462.208 278.589,-467.363 278.542,-474.875 497.333,-474.667 496,85.3333 -4,86.6667"/>
  </object>
  <object id="2" x="0" y="264">
   <polygon points="10,0.75 14,18.5 12,206.167 -0.75,217.417 -2.75,-2.33333"/>
  </object>
  <object id="3" x="4" y="180">
   <polygon points="-4.25,-3.75 8.66278,-17.448 8.41667,-48.75 10,-164.667 152.748,-165.537 173.333,-165.333 181.443,-171.98 185.333,-181.333 -4.66667,-180.917"/>
  </object>
  <object id="4" x="294" y="243.225">
   <polygon points="0.09375,-1.75316 -1.83095,-3.99585 -6.1875,-5.73996 -6.30764,-15.0324 11.4271,-14.1681 12.4121,-4.12275 7.12883,-2.69409 3.9243,-1.55587"/>
  </object>
  <object id="5" x="270.602" y="142.012">
   <polygon points="-0.0954289,-3.09529 -12.2847,-6.04411 -12.7159,-19.369 -2.65804,-24.4384 3.05042,-24.7512 6.67028,-24.2681 15.4356,-18.8062 14.9838,-8.2702"/>
  </object>
  <object id="6" x="370.77" y="54.2441">
   <polygon points="-1.10306,-3.67505 3.73933,4.67125 12.961,11.7142 22.2893,9.05573 27.4386,-3.21567 15.4404,-5.83771"/>
  </object>
  <object id="7" x="119.744" y="63.5074">
   <polygon points="3.10429,0.982858 1.42059,3.98559 2.84745,9.33164 8.70428,14.1792 16.2733,17.6669 26.0458,13.3889 33.2264,6.92982 30.7519,-0.0982858"/>
  </object>
  <object id="8" x="24.3699" y="105.165">
   <polygon points="14.5526,-8.58119 10.7182,-1.1475 3.95891,7.21772 2.9339,24.3185 9.2883,33.1866 16.4375,36.1571 21.7126,43.4871 32.628,50.8609 44.9947,54.0438 61.6062,51.751 72.8171,44.3213 75.1551,37.5396 82.534,30.8822 89.2524,25.832 90.6434,14.9267 93.011,8.71479 86.494,-2.34858 78.8376,-7.91452"/>
  </object>
  <object id="9" x="25" y="422">
   <polygon points="-2.14583,-1.41667 4.92443,6.78395 15.625,9.8125 22.5634,7.04585 28.8075,3.70076 30.6766,-2.75892 28.75,-12.5 3.1875,-12.7708"/>
  </object>
  <object id="10" x="70.6788" y="363.987">
   <polygon points="8.44845,-0.547104 12.004,4.84017 18.3189,5.47104 25.8494,0.996953 26.3213,-6.96646 7.86291,-6.96646"/>
  </object>
 </objectgroup>
</map>
