<?xml version="1.0" encoding="UTF-8"?>
<map version="1.10" tiledversion="1.11.2" orientation="orthogonal" renderorder="right-down" width="17" height="15" tilewidth="32" tileheight="32" infinite="0" nextlayerid="13" nextobjectid="31">
 <tileset firstgid="1" source="floors.tsx"/>
 <tileset firstgid="2049" source="walls.tsx"/>
 <tileset firstgid="8193" source="tavern-cooking.tsx"/>
 <tileset firstgid="8449" source="tavern-deco.tsx"/>
 <tileset firstgid="9345" source="tavern-furniture.tsx"/>
 <tileset firstgid="10369" source="flautist.tsx"/>
 <tileset firstgid="11461" source="lutist.tsx"/>
 <tileset firstgid="12553" source="drummer.tsx"/>
 <layer id="2" name="Floor" width="17" height="15">
  <data encoding="csv">
1869,1869,1869,1869,1869,1869,1869,1869,1869,1869,1869,1869,1869,1869,1869,1869,1869,
1869,1869,1869,1869,1869,1869,1869,1869,1869,1869,1869,1869,1869,1869,1869,1869,1869,
1869,1869,1869,1869,1869,1869,1869,1869,1869,1869,1869,1869,1869,1869,1869,1869,1869,
1869,1869,1869,1869,1869,1869,1869,1869,1869,1869,1869,1869,1869,1869,1869,1869,1869,
1869,1869,1869,1869,1869,1869,1869,1869,1869,1869,1869,1869,1869,1869,1869,1869,1869,
1869,1869,1869,1869,1869,1869,1869,1869,1869,1869,1869,1869,1869,1869,1869,1869,1869,
1869,1869,1869,1869,1869,1869,1869,1869,1869,1869,1869,1869,1869,1869,1869,1869,1869,
1869,1869,1869,1869,1869,1869,1869,1869,1869,1869,1869,1869,1869,1869,1869,1869,1869,
1869,1869,1869,1869,1869,1869,1869,1869,1869,1869,1869,1869,1869,1869,1869,1869,1869,
1869,1869,1869,1869,1869,1869,1869,1869,1869,1869,1869,1869,1869,1869,1869,1869,1869,
1869,1869,1869,1869,1869,1869,1869,1869,1869,1869,1869,1869,1869,1869,1869,1869,1869,
1869,1869,1869,1869,1869,1869,1869,1869,1869,1869,1869,1869,1869,1869,1869,1869,1869,
1869,1869,1869,1869,1869,1869,1869,1869,1869,1869,1869,1869,1869,1869,1869,1869,1869,
0,0,0,0,0,0,0,0,0,0,0,0,0,0,0,0,0,
0,0,0,0,0,0,0,0,0,0,0,0,0,0,0,0,0
</data>
 </layer>
 <layer id="1" name="Walls" width="17" height="15">
  <data encoding="csv">
2443,2634,2634,2634,2634,2634,2634,2634,2634,2634,2634,2634,2634,2634,2634,2634,2442,
2571,3925,3926,3926,3926,3926,3927,3925,3926,3926,3926,3926,3926,3926,3926,3927,2569,
2571,3989,3990,3990,3990,3990,3991,3989,3990,3990,3990,3990,3990,3990,3990,3991,2569,
2571,4053,4054,4054,4054,4054,4055,4053,4054,4054,4054,4054,4054,4054,4054,4055,2569,
2571,0,0,0,0,0,0,0,0,0,0,0,0,0,0,0,2569,
2571,0,0,0,0,0,0,0,0,0,0,0,0,0,0,0,2569,
2571,0,0,0,0,0,0,0,0,0,0,0,0,0,0,0,2569,
2571,0,0,0,0,0,0,0,0,2684355588,2684355556,2684355524,2684355492,0,0,0,2569,
2571,0,0,0,0,0,0,0,0,2684355589,2684355557,2684355525,2684355493,0,0,0,2569,
2571,0,0,0,0,0,0,0,0,2684355590,2684355558,2684355526,2684355494,0,0,0,2569,
2571,0,0,0,0,0,0,0,0,0,0,0,0,0,0,0,2569,
2571,0,0,0,0,0,0,0,0,0,0,0,0,0,0,0,2569,
2379,2506,2506,2506,2506,2506,2506,2506,2506,2506,2506,2506,2506,2506,2506,2506,2378,
0,0,0,0,0,0,0,0,0,0,0,0,0,0,0,0,0,
0,0,0,0,0,0,0,0,0,0,0,0,0,0,0,0,0
</data>
 </layer>
 <layer id="3" name="Furniture" width="17" height="15">
  <data encoding="csv">
0,0,0,8194,8195,0,0,0,0,0,0,0,0,0,0,0,0,
0,0,8209,8210,8211,8212,0,0,0,0,0,0,0,0,0,0,0,
0,0,8225,8226,8227,8228,0,0,0,0,0,0,0,0,0,0,0,
0,0,8241,8242,8243,8244,0,0,0,0,0,0,0,0,0,0,0,
0,0,8257,8258,8259,8260,0,0,0,0,0,0,0,0,0,0,0,
0,0,0,0,0,0,0,0,0,0,0,0,0,0,0,0,0,
0,0,0,0,0,0,0,0,0,0,0,0,0,0,0,0,0,
0,0,0,0,0,0,0,0,0,0,0,0,0,0,0,0,0,
0,0,0,0,0,0,0,0,0,0,0,0,0,0,0,0,0,
0,0,0,0,0,0,0,0,0,0,0,0,0,0,0,0,0,
0,0,0,0,0,0,0,0,0,0,0,0,0,0,0,0,0,
0,0,0,0,0,0,0,0,0,0,0,0,0,0,0,0,0,
0,0,0,0,0,0,0,0,0,0,0,0,0,0,0,0,0,
0,0,0,0,0,0,0,0,0,0,0,0,0,0,0,0,0,
0,0,0,0,0,0,0,0,0,0,0,0,0,0,0,0,0
</data>
 </layer>
 <layer id="4" name="Fire" width="17" height="15">
  <data encoding="csv">
0,0,0,0,0,0,0,0,0,0,0,0,0,0,0,0,0,
0,0,0,0,0,0,0,0,0,0,0,0,0,0,0,0,0,
0,0,0,0,0,0,0,0,0,0,0,0,0,8229,8230,8231,0,
0,0,0,0,0,0,0,9735,9736,9737,8466,8467,0,8245,8246,8247,0,
0,9742,0,8312,8291,0,0,9767,9768,9769,8482,8483,0,8261,8262,8263,0,
0,9774,0,9745,0,9712,0,0,0,0,0,0,0,0,0,0,0,
0,0,0,0,0,0,0,0,0,0,0,0,0,0,0,0,0,
0,0,0,0,0,0,0,0,0,0,0,0,0,0,0,0,0,
0,9665,0,0,0,0,0,0,0,0,0,0,0,0,0,0,0,
0,9697,0,0,0,0,0,0,0,0,0,0,0,0,0,0,0,
0,9729,0,0,0,0,0,0,0,0,0,0,0,0,0,0,0,
0,9761,0,0,0,0,0,0,0,0,0,0,0,0,0,0,0,
0,0,0,0,0,0,0,0,0,0,0,0,0,0,0,0,0,
0,0,0,0,0,0,0,0,0,0,0,0,0,0,0,0,0,
0,0,0,0,0,0,0,0,0,0,0,0,0,0,0,0,0
</data>
 </layer>
 <layer id="5" name="Deco" width="17" height="15">
  <data encoding="csv">
0,0,0,0,0,0,0,0,0,0,0,0,0,0,0,0,0,
0,0,0,0,0,0,0,0,0,0,0,0,0,0,0,0,0,
0,0,0,0,0,0,0,0,0,8929,8930,8931,8932,0,0,0,0,
0,0,0,0,8305,0,0,8791,8874,8630,0,0,0,0,0,0,0,
0,8884,0,0,8321,0,0,0,0,0,0,0,0,0,8275,0,0,
0,0,0,0,0,0,0,0,0,0,0,0,8452,0,0,0,0,
0,0,0,0,0,0,0,0,0,0,0,0,0,0,0,0,0,
0,0,0,0,0,0,0,0,0,0,0,0,0,0,0,9546,0,
0,8808,0,0,0,0,0,0,0,0,0,0,0,0,9620,9578,0,
0,0,0,0,0,0,0,0,0,0,0,0,0,0,9555,9610,0,
0,0,0,0,0,0,0,0,0,0,0,0,0,0,9587,9642,0,
0,0,0,0,0,0,0,0,0,0,0,0,0,0,0,0,0,
0,0,0,0,0,0,0,0,0,0,0,0,0,0,0,0,0,
0,0,0,0,0,0,0,0,0,0,0,0,0,0,0,0,0,
0,0,0,0,0,0,0,0,0,0,0,0,0,0,0,0,0
</data>
 </layer>
 <layer id="6" name="Ajedrez" width="17" height="15">
  <data encoding="csv">
0,0,0,0,0,0,0,0,0,0,0,0,0,0,0,0,0,
0,0,0,9173,9174,0,0,0,0,0,0,0,0,0,0,0,0,
0,0,0,0,0,0,0,0,0,0,0,0,0,0,8993,0,0,
0,0,0,0,0,0,0,0,0,0,0,0,0,0,0,0,0,
0,0,0,0,0,0,0,0,0,0,0,0,0,0,0,0,0,
0,0,0,0,0,0,0,833,834,835,0,0,0,0,0,0,0,
0,0,0,0,0,0,0,0,0,0,0,0,0,0,0,0,0,
0,0,0,0,0,0,0,0,0,0,0,0,0,0,0,0,0,
0,0,0,0,0,0,0,0,0,0,0,0,0,0,0,8491,0,
0,0,0,0,0,0,0,0,0,0,0,0,0,0,0,0,0,
0,8455,0,0,0,0,0,0,0,0,0,0,0,0,0,0,0,
0,0,0,0,0,0,0,0,0,0,0,0,0,0,0,0,0,
0,0,0,0,0,0,0,0,2684355975,2684355975,2684355975,0,0,0,0,0,0,
0,0,0,0,0,0,0,0,0,0,0,0,0,0,0,0,0,
0,0,0,0,0,0,0,0,0,0,0,0,0,0,0,0,0
</data>
 </layer>
 <layer id="11" name="Player" width="17" height="15">
  <data encoding="csv">
0,0,0,0,0,0,0,0,0,0,0,0,0,0,0,0,0,
0,0,0,0,0,0,0,0,0,0,0,0,0,0,0,0,0,
0,0,0,0,0,0,0,0,0,0,0,0,0,0,0,0,0,
0,0,0,0,0,0,0,0,0,0,0,0,0,0,0,0,0,
0,0,0,0,0,0,0,0,0,0,0,0,0,0,0,0,0,
0,0,0,0,0,0,0,0,0,0,0,0,0,0,0,0,0,
0,0,0,0,0,0,0,0,0,0,0,0,0,0,0,0,0,
0,0,0,0,0,0,0,0,0,0,0,0,0,0,0,0,0,
0,0,0,0,0,0,0,0,0,0,0,0,0,0,0,0,0,
0,0,0,0,0,0,0,0,0,0,0,0,0,0,0,0,0,
0,0,0,0,0,0,0,0,0,0,0,0,0,0,0,0,0,
0,0,0,0,0,0,0,0,0,0,0,0,0,0,0,0,0,
0,0,0,0,0,0,0,0,0,0,0,0,0,0,0,0,0,
0,0,0,0,0,0,0,0,0,0,0,0,0,0,0,0,0,
0,0,0,0,0,0,0,0,0,0,0,0,0,0,0,0,0
</data>
 </layer>
 <layer id="12" name="Up" width="17" height="15">
  <data encoding="csv">
0,0,0,0,0,0,0,0,0,0,0,0,0,0,0,0,0,
0,0,0,0,0,0,0,0,0,0,0,0,0,0,0,0,0,
0,0,0,0,0,0,0,0,0,0,0,0,0,0,0,0,0,
0,0,0,0,0,0,0,0,0,0,0,0,0,0,0,0,0,
0,0,0,0,0,0,0,0,0,0,0,0,0,0,0,0,0,
0,0,0,0,0,0,0,0,0,0,0,0,0,0,0,0,0,
0,8654,0,0,0,0,0,2147494336,2147494335,0,0,0,0,0,0,8670,0,
0,0,0,8409,8410,0,0,2147494362,2147494361,0,0,0,0,0,0,0,0,
0,0,0,8417,8418,0,0,0,0,0,0,0,0,0,0,0,0,
0,0,0,8433,8434,0,0,0,0,0,0,0,0,0,0,0,0,
0,0,0,0,0,0,0,0,0,0,0,0,0,0,0,0,0,
0,0,0,0,0,0,0,0,0,0,0,0,0,0,0,0,0,
0,0,0,0,0,0,0,0,0,0,0,0,0,0,0,0,0,
0,0,0,0,0,0,0,0,0,0,0,0,0,0,0,0,0,
0,0,0,0,0,0,0,0,0,0,0,0,0,0,0,0,0
</data>
 </layer>
 <layer id="8" name="Musicos" width="17" height="15">
  <data encoding="csv">
0,0,0,0,0,0,0,0,0,0,0,0,0,0,0,0,0,
0,0,0,0,0,0,0,0,0,0,0,0,0,0,0,0,0,
0,0,0,0,0,0,0,0,0,0,0,0,0,0,0,0,0,
0,0,0,0,0,0,0,0,0,0,0,0,0,0,0,0,0,
0,0,0,0,0,0,0,0,0,0,0,0,0,0,0,0,0,
0,0,0,0,0,0,0,0,0,0,0,0,0,0,0,0,0,
0,0,0,0,0,0,2147496930,2147496929,2147495838,2147495837,0,0,0,0,0,0,0,
0,0,0,0,0,0,2147496956,2147496955,2147495864,2147495863,0,0,0,0,0,0,0,
0,0,0,0,0,0,2147492158,2147492157,0,0,0,0,0,0,0,0,0,
0,0,0,0,0,0,0,0,0,0,0,0,0,0,0,0,0,
0,0,0,0,0,0,0,0,0,0,0,0,0,0,0,0,0,
0,0,0,0,0,0,0,0,0,0,0,0,0,0,0,0,0,
0,0,0,0,0,0,0,0,0,0,0,0,0,0,0,0,0,
0,0,0,0,0,0,0,0,0,0,0,0,0,0,0,0,0,
0,0,0,0,0,0,0,0,0,0,0,0,0,0,0,0,0
</data>
 </layer>
 <objectgroup id="10" name="CollisionMask">
  <object id="1" x="22" y="252" width="44" height="141.333"/>
  <object id="4" x="22" y="17.3333" width="13.3333" height="234.667"/>
  <object id="5" x="18.6667" y="130" width="50" height="52.6667"/>
  <object id="6" x="20" y="10.6667" width="177.333" height="152"/>
  <object id="7" x="416.667" y="14.6667" width="93.3333" height="146"/>
  <object id="8" x="178.667" y="13.3333" width="236.667" height="112.667"/>
  <object id="11" x="221.333" y="90.6667" width="160" height="66.6667"/>
  <object id="12" x="380" y="158.667" width="38" height="35.3333"/>
  <object id="14" x="509.333" y="8.66667" width="13.3333" height="390"/>
  <object id="15" x="352" y="384.667" width="170.667" height="12"/>
  <object id="16" x="18.6667" y="383.333" width="238" height="15.3333"/>
  <object id="17" x="238.667" y="384.667" width="18.6667" height="32"/>
  <object id="19" x="350.667" y="384.667" width="20.6667" height="32.6667"/>
  <object id="21" x="162.667" y="162" width="28" height="28.6667"/>
  <object id="22" x="96.6667" y="161.333" width="24" height="32"/>
  <object id="27" x="508" y="352">
   <polygon points="0,0 -31.3333,-1.33333 -31.3333,-14 -61.3333,-15.3333 -60,-53.3333 -32,-52 -31.3333,-62 -64,-68 -58,-100 -34,-97.3333 -32.6667,-131.333 0.666667,-130.667"/>
  </object>
  <object id="28" x="210" y="274.667">
   <polygon points="0,0 17.3333,10 42,5.33333 39.3333,-17.3333 93.3333,-14.6667 101.333,-52.6667 -8.66667,-50"/>
  </object>
  <object id="29" x="90.6667" y="269.333">
   <polygon points="2,-12.6667 0,26.6667 16.6667,39.3333 48,42.6667 74,30.6667 74,-10 35.3333,-17.3333"/>
  </object>
 </objectgroup>
</map>
