<?xml version="1.0" encoding="UTF-8"?>
<map version="1.10" tiledversion="1.11.2" orientation="orthogonal" renderorder="right-down" width="19" height="33" tilewidth="16" tileheight="16" infinite="0" nextlayerid="19" nextobjectid="17">
 <tileset firstgid="1" source="Tilesheet_Shadow.tsx"/>
 <tileset firstgid="2913" source="Tilesheet_Shadow_color.tsx"/>
 <tileset firstgid="5825" source="Decorations_c1.tsx"/>
 <tileset firstgid="7445" source="Decorations_c2.tsx"/>
 <tileset firstgid="9065" source="U1_decorations_c2.tsx"/>
 <tileset firstgid="9709" source="Overworld.tsx"/>
 <tileset firstgid="11149" source="U1_decorations_c1.tsx"/>
 <tileset firstgid="11793" source="Tilesheet_Shadow_colorShadow.tsx"/>
 <tileset firstgid="14705" source="Tilesheet_Shadow_colorShadow_v2.tsx"/>
 <tileset firstgid="17617" source="hada.tsx"/>
 <tileset firstgid="18037" source="House_exterior.tsx"/>
 <tileset firstgid="19006" source="32x32_WaterPlants_4.tsx"/>
 <tileset firstgid="19030" source="32x32_WaterPlants_2.tsx"/>
 <tileset firstgid="19054" source="Cliff_WorksForAll.tsx"/>
 <tileset firstgid="19090" source="16x16_Water_Plants_1.tsx"/>
 <layer id="1" name="Ground" width="19" height="33">
  <data encoding="csv">
12838,15382,15382,15382,15382,15382,15382,15382,15382,15382,15382,15382,15382,15382,15382,15382,15382,12838,15382,
15382,15382,15382,15382,15382,15382,15382,12838,12838,12838,12838,15382,15382,15382,15382,15382,15382,15382,15382,
15382,15382,15382,12838,12838,15382,15382,15382,12838,12838,15382,15382,15382,15382,15382,15382,15382,15382,15382,
15382,12838,15382,15382,15382,15382,12838,15382,15382,12838,12838,15382,15382,15382,15382,15382,15382,15382,15382,
15382,12838,12838,15382,12838,15382,12838,12838,15382,12838,12838,15382,15382,15382,15382,15382,15382,15382,12838,
12838,15382,15382,15382,12838,15382,12838,12838,15382,12838,12838,12838,12838,12838,12838,15382,12838,15382,12838,
12838,15382,15382,12838,15382,15382,12838,12838,15382,12838,12838,12838,14841,12838,12838,15382,14841,14841,14841,
12838,15382,15382,15382,15382,15382,12838,12838,15382,12838,14841,14841,14841,14841,14841,14841,14841,14841,14841,
12838,15382,15382,15382,15382,15382,15382,15382,15382,12838,14841,14841,14841,15258,15258,15258,15258,15258,15258,
12838,15382,15382,12838,15382,15382,15382,12838,14841,14841,14841,15258,15258,15258,15258,15258,15258,15258,15258,
12838,15382,15382,12838,15382,15382,15382,12838,12838,14841,14841,15258,15258,15258,15258,15258,15258,14841,14841,
12838,15382,15382,15382,12838,15382,15382,15382,12838,12838,14841,14841,14841,14841,14841,14841,14841,14841,12838,
12838,15382,15382,15382,12838,15382,15382,12838,15382,12838,12838,12838,12838,12838,12838,12838,14841,14841,12838,
12838,12838,15382,15382,15382,15382,12838,12838,15382,12838,12838,12838,12838,12838,12838,12838,12838,12838,12838,
12838,12838,12838,15382,15382,15382,12838,12838,15382,12838,12838,12838,12838,12838,12838,12838,12838,12838,12838,
12838,12838,15382,12838,12838,15382,15382,15382,12838,12838,12838,12838,12838,12838,12838,12838,12838,12838,12838,
12838,12838,15382,12838,12838,15382,12838,12838,12838,12838,12838,12838,12838,12838,12838,15382,15382,12838,12838,
12838,12838,15382,12838,12838,15382,12838,12838,12838,12838,12838,12838,12838,12838,12838,15382,15382,15382,12838,
12838,12838,15382,12838,15382,15382,12838,12838,12838,12838,12838,12838,12838,12838,15382,12838,15382,15382,12838,
12838,12838,15382,12838,15382,15382,12838,12838,12838,12838,12838,12838,12838,12838,15382,12838,15382,15382,12838,
12838,12838,15382,15382,15382,12838,12838,12838,12838,12838,12838,12838,12838,15382,12838,12838,12838,15382,12838,
12838,15382,15382,15382,15382,12838,12838,12838,12838,12838,12838,12838,15382,12838,12838,12838,12838,15382,12838,
12838,15382,15382,15382,15382,12838,12838,12838,12838,12838,12838,15382,12838,12838,15382,15382,12838,15382,12838,
15382,15382,15382,15382,15382,12838,15382,12838,12838,12838,15382,15382,12838,12838,15382,15382,12838,15382,12838,
15382,15382,15382,15382,15382,15382,15382,15382,15382,15382,12838,15382,12838,12838,15382,15382,12838,15382,12838,
12838,15382,15382,15382,15382,15382,15382,12838,15382,15382,15382,15382,15382,15382,15382,12838,15382,15382,12838,
12838,15382,15382,15382,15382,15382,15382,15382,12838,12838,12838,12838,15382,15382,15382,15382,15382,15382,12838,
15382,12838,12838,12838,15382,15382,15382,15382,15382,15382,12838,12838,12838,15382,12838,15382,15382,15382,15382,
15382,12838,12838,12838,12838,15382,15382,15382,15382,15382,15382,12838,12838,15382,12838,15382,15382,15382,12838,
15382,15382,15382,15382,15382,15382,15382,12838,15382,15382,15382,15382,12838,12838,15382,15382,15382,15382,12838,
15382,12838,12838,15382,15382,15382,15382,15382,15382,15382,15382,15382,15382,15382,15382,15382,15382,15382,12838,
15382,15382,15382,15382,15382,12838,15382,15382,12838,12838,15382,12838,12838,12838,15382,15382,15382,15382,12838,
12838,12838,15382,12838,12838,12838,12838,12838,15382,15382,15382,15382,12838,12838,12838,12838,12838,15382,12838
</data>
 </layer>
 <layer id="12" name="Ground2" width="19" height="33">
  <data encoding="csv">
0,0,0,0,0,0,0,0,0,0,0,0,0,0,0,0,0,0,0,
0,0,0,0,0,0,0,0,0,0,0,0,0,0,0,0,0,0,0,
0,0,0,0,0,0,0,0,0,0,0,0,0,0,0,0,0,0,0,
0,0,0,0,0,0,0,0,0,0,0,0,0,0,0,0,0,0,0,
0,0,0,0,0,0,0,0,0,0,0,0,0,0,0,0,0,0,0,
0,0,0,0,0,0,0,0,0,0,0,0,0,14837,0,0,0,0,0,
0,0,0,0,0,0,0,0,0,14838,0,0,0,0,14887,0,0,0,0,
0,0,0,0,0,0,0,0,0,14786,0,0,0,0,0,0,0,0,0,
0,0,0,3508,3502,0,0,14838,0,0,0,0,0,0,0,0,0,0,0,
0,0,3456,3456,3502,0,0,0,0,0,0,0,0,0,0,0,0,0,0,
3508,3508,3456,3508,0,0,0,0,14784,0,0,0,0,0,0,0,0,0,0,
3508,3456,3404,3508,0,0,0,0,14786,0,0,0,0,0,0,0,0,0,0,
3456,3457,3456,3457,0,0,0,0,0,14784,0,0,0,0,0,0,0,0,0,
3398,3399,3457,3509,9558,0,0,0,0,0,0,0,0,0,0,0,0,0,0,
3450,3451,3400,3509,0,0,0,0,0,0,0,0,0,0,0,0,0,0,0,
3450,3451,3452,3405,0,0,0,0,0,0,0,0,0,0,0,0,0,0,0,
3502,3503,3504,3405,0,0,0,0,0,0,0,0,0,0,0,0,0,0,0,
3401,3400,0,0,0,0,0,0,0,0,0,0,0,0,0,0,0,0,0,
3453,3454,0,0,0,0,0,0,0,0,0,0,0,0,0,0,0,0,0,
3505,3506,0,0,0,0,0,0,0,0,0,0,0,0,0,0,0,0,0,
3402,3508,0,0,0,0,0,0,0,0,0,0,0,0,0,0,0,0,0,
0,0,0,0,0,0,0,0,0,0,0,0,0,0,0,0,0,0,0,
0,0,0,0,0,0,0,0,0,0,0,0,0,0,0,0,0,0,0,
0,0,0,0,0,0,0,0,0,0,0,0,0,0,0,0,0,0,0,
0,0,0,0,0,0,0,0,0,0,0,0,0,0,0,0,0,0,0,
0,0,0,0,0,0,0,0,0,0,0,0,0,0,0,0,0,0,0,
0,0,0,0,0,0,0,0,0,0,0,0,0,0,0,0,0,0,0,
0,0,0,0,0,0,0,0,0,0,0,0,0,0,0,0,0,0,0,
0,0,0,0,0,0,0,0,0,0,0,0,0,0,0,0,0,0,0,
0,0,0,0,0,0,0,0,0,0,0,0,0,0,0,0,0,0,0,
0,0,0,0,0,0,0,0,0,0,0,0,0,0,0,0,0,0,0,
0,0,0,0,0,0,0,0,0,0,0,0,0,0,0,0,0,0,0,
0,0,0,0,0,0,0,0,0,0,0,0,0,0,0,0,0,0,0
</data>
 </layer>
 <layer id="9" name="Shadows" width="19" height="33">
  <data encoding="csv">
0,0,0,0,0,0,0,0,0,0,0,0,0,0,0,0,0,0,0,
0,0,0,0,0,0,0,0,0,0,0,0,0,0,0,0,0,0,0,
0,0,0,0,0,0,0,0,0,0,0,0,0,0,0,0,0,0,0,
0,0,0,0,0,0,0,0,0,0,0,0,0,0,0,0,0,0,0,
0,0,0,0,0,0,0,0,0,0,0,0,0,0,0,0,0,0,0,
0,0,0,0,0,0,0,0,0,0,0,14835,14835,14835,0,0,0,15095,0,
0,0,0,0,0,0,0,0,0,14835,14838,14887,14887,14887,15095,15095,15096,0,0,
0,0,0,0,0,0,14835,0,0,14838,14888,0,0,14893,0,15258,15386,15386,15386,
0,0,0,0,0,0,14835,0,14887,14888,15052,15101,15102,15386,15386,15386,15386,15386,15386,
0,0,0,0,0,0,14835,14836,0,0,15050,15386,15386,15386,14847,14847,0,15386,15386,
0,0,0,0,0,0,14835,14786,14783,0,0,14789,14790,15386,15386,15386,15386,15386,15386,
0,0,0,0,0,0,14835,0,0,14992,0,0,0,14789,14789,14789,14789,14789,14789,
0,0,0,0,0,9529,0,0,14835,0,14784,14783,14783,14783,14783,14784,0,0,0,
0,0,0,0,0,0,0,0,0,0,14835,14835,14835,0,0,14835,14783,14783,14783,
0,0,0,0,0,0,0,0,0,0,0,0,0,0,0,0,0,0,0,
0,0,0,0,0,0,0,0,0,0,0,0,0,0,0,0,0,0,0,
0,0,0,0,0,0,0,0,0,0,0,0,0,0,0,0,0,0,0,
0,0,0,0,0,0,0,0,0,0,0,0,0,0,0,0,0,0,0,
0,0,0,0,0,0,0,0,0,0,0,0,0,0,0,0,0,0,0,
0,0,0,0,0,0,0,0,0,0,0,0,0,0,0,0,0,0,0,
0,0,0,0,0,0,0,0,0,0,0,0,0,0,0,0,0,0,0,
0,0,0,0,0,0,0,0,0,0,0,0,0,0,0,0,0,0,0,
0,0,0,0,0,0,0,0,0,0,0,0,0,0,0,0,0,0,0,
0,0,0,0,0,0,0,0,0,0,0,0,0,0,0,0,0,0,0,
0,0,0,0,0,0,0,0,0,0,0,0,0,0,0,0,0,0,0,
0,0,0,0,0,0,0,0,0,0,0,0,0,0,0,0,0,0,0,
0,0,0,0,0,0,0,0,0,0,0,0,0,0,0,0,0,0,0,
0,0,0,0,0,0,0,0,0,0,0,0,0,0,0,0,0,0,0,
0,0,0,0,0,0,0,0,0,0,0,0,0,0,0,0,0,0,0,
0,0,0,0,0,0,0,0,0,0,0,0,0,0,0,0,0,0,0,
0,0,0,0,0,0,0,0,0,0,0,0,0,0,0,0,0,0,0,
0,0,0,0,0,0,0,0,0,0,0,0,0,0,0,0,0,0,0,
0,0,0,0,0,0,0,0,0,0,0,0,0,0,0,0,0,0,0
</data>
 </layer>
 <layer id="10" name="Decor" width="19" height="33">
  <data encoding="csv">
0,0,0,0,0,0,0,0,0,0,0,0,0,0,0,0,0,0,0,
0,0,0,0,0,8109,8110,0,0,0,0,0,0,0,0,0,0,0,0,
0,0,0,0,0,0,0,0,0,0,0,0,0,0,0,0,0,0,0,
0,0,0,0,0,0,0,0,0,0,0,0,0,0,0,0,0,0,0,
0,0,15803,0,0,0,0,0,0,0,0,0,0,0,0,0,0,0,0,
0,0,0,0,0,0,0,0,0,0,0,0,0,0,0,0,0,0,0,
0,0,0,0,0,0,0,0,0,0,0,0,0,0,0,0,0,0,0,
15854,0,0,0,0,0,0,0,0,0,0,0,0,0,0,0,0,0,0,
0,0,0,0,0,0,0,0,0,0,0,0,0,0,0,0,0,0,0,
0,0,0,0,0,0,0,0,0,0,0,0,0,0,0,0,0,0,0,
0,0,0,0,0,0,0,0,0,0,0,0,0,0,0,0,0,0,0,
0,0,0,0,0,0,0,0,0,0,0,0,0,0,0,0,0,0,0,
0,0,0,0,0,0,0,0,0,0,0,0,0,0,0,0,0,0,0,
0,0,0,0,0,0,0,0,0,0,0,0,0,0,0,0,0,0,0,
0,0,0,0,0,0,0,0,0,0,0,0,0,0,0,0,0,0,0,
0,0,0,0,0,0,0,0,0,0,0,0,0,0,0,0,0,0,0,
0,0,0,0,0,0,0,0,0,0,0,0,0,0,0,0,6404,0,0,
0,0,0,8044,8045,8046,0,0,0,0,0,0,0,0,0,0,0,0,0,
0,0,0,8089,8090,8091,0,0,0,0,0,0,0,0,0,0,0,0,0,
0,0,0,0,0,0,0,0,0,0,0,0,0,0,0,0,0,0,0,
0,0,0,0,0,0,0,0,0,0,0,0,0,0,0,6407,6408,0,0,
0,0,0,0,0,0,0,0,0,0,0,0,0,0,0,6452,6453,0,0,
0,0,0,0,0,0,0,0,0,0,0,0,0,0,0,0,6403,0,0,
0,0,5891,5892,5893,5894,0,0,0,0,0,0,0,0,0,0,0,0,0,
0,0,0,0,0,0,0,0,0,0,0,0,0,0,0,0,0,0,0,
0,0,0,0,0,0,0,0,0,0,0,0,0,0,0,0,0,0,0,
0,0,0,0,0,0,0,0,0,0,0,0,0,0,0,0,0,0,0,
0,0,0,0,0,0,0,0,0,0,0,0,0,0,7882,7883,7884,0,0,
0,0,0,0,0,0,0,0,0,0,0,0,0,0,7927,7928,7929,0,0,
0,0,0,0,0,0,0,0,0,0,0,0,0,0,0,0,0,0,0,
0,0,0,0,0,0,0,0,0,0,0,0,0,0,0,0,0,0,0,
0,0,0,0,0,0,0,0,0,0,0,0,0,0,0,0,0,0,0,
0,0,0,0,0,0,0,0,0,0,0,0,0,0,0,0,0,0,0
</data>
 </layer>
 <layer id="3" name="Water" width="19" height="33">
  <data encoding="csv">
0,0,0,0,10393,10393,10393,10393,10392,0,0,0,10391,10393,10393,0,10393,10393,0,
0,0,0,0,0,0,0,0,0,0,0,0,0,0,0,0,0,0,0,
0,0,0,0,0,0,0,0,0,0,0,0,0,0,0,0,0,0,0,
0,0,0,0,0,0,0,0,0,0,0,0,0,0,0,0,0,0,0,
0,0,0,0,0,0,0,0,0,0,0,0,0,0,0,0,0,0,0,
0,0,0,0,0,0,0,0,0,0,0,0,0,0,0,0,0,0,0,
0,0,0,0,0,0,0,0,0,0,0,0,0,0,0,0,0,0,0,
0,0,0,0,0,0,0,0,0,0,0,0,0,0,0,0,0,0,0,
0,0,0,0,0,0,0,0,0,0,0,0,0,0,0,0,0,0,0,
0,0,0,0,0,0,0,0,0,0,0,0,0,0,0,0,0,0,0,
0,0,0,0,0,0,0,0,0,0,0,0,0,0,0,0,0,0,0,
0,0,0,0,0,0,0,0,0,0,0,0,15000,0,0,0,0,0,0,
0,0,0,0,0,0,0,0,0,0,0,0,0,0,0,0,0,0,0,
0,0,0,0,0,0,0,0,0,0,0,0,0,0,0,0,0,0,0,
0,0,0,0,0,0,0,0,0,0,0,0,0,0,0,0,0,0,0,
0,0,0,0,0,0,0,0,0,0,0,0,0,0,0,0,0,0,0,
0,0,0,0,0,0,0,0,0,0,0,0,0,0,0,0,0,0,0,
0,0,0,0,0,0,0,0,0,0,0,0,0,0,0,0,0,0,0,
0,0,0,0,0,0,0,0,0,0,0,0,0,0,0,0,0,0,0,
0,0,0,0,0,0,0,0,0,0,0,0,0,0,0,0,0,0,0,
0,0,0,0,0,0,0,0,0,0,0,0,0,0,0,0,0,0,0,
0,0,0,0,0,0,0,0,0,0,0,0,0,0,0,0,0,0,0,
0,0,0,0,0,0,0,0,0,0,0,0,0,0,0,0,0,0,0,
0,0,0,0,0,0,0,0,0,0,0,0,0,0,0,0,0,0,0,
0,0,0,0,0,0,0,0,0,0,0,0,0,0,0,0,0,0,0,
0,0,0,0,0,0,0,0,0,0,0,0,0,0,0,0,0,0,0,
0,0,0,0,0,0,0,0,0,0,0,0,0,0,0,0,0,0,0,
0,0,0,0,0,0,0,0,0,0,0,0,0,0,0,0,0,0,0,
0,0,0,0,0,0,0,0,0,0,0,0,0,0,0,0,0,0,0,
0,0,0,0,0,0,0,0,0,0,0,0,0,0,0,0,0,0,0,
0,0,0,0,0,0,0,0,0,0,0,0,0,0,0,0,0,0,0,
0,0,0,0,0,0,0,0,0,0,0,0,0,0,0,0,0,0,0,
0,0,0,0,0,0,0,0,0,0,0,0,0,0,0,0,0,0,0
</data>
 </layer>
 <layer id="11" name="Decor2" width="19" height="33">
  <data encoding="csv">
0,0,0,0,0,0,0,0,0,0,0,0,0,0,0,0,0,0,0,
0,0,0,0,0,6406,6490,0,0,0,0,0,0,0,0,0,0,0,0,
0,0,0,0,0,0,0,0,0,0,0,0,0,18980,0,0,0,0,0,
0,0,0,0,0,6404,0,0,0,0,0,0,0,0,0,0,0,0,0,
0,0,0,0,0,0,0,0,18977,0,0,0,0,0,0,0,0,0,0,
0,0,0,0,0,0,0,0,0,0,0,0,0,0,0,0,0,0,0,
0,0,0,0,0,0,0,0,0,0,0,0,0,0,0,0,0,0,0,
0,0,0,0,0,0,0,0,0,0,0,0,14844,0,0,0,0,14893,0,
0,0,0,0,0,0,0,0,0,0,0,0,0,0,0,0,0,0,0,
0,0,0,0,0,0,0,0,0,0,0,0,6404,0,0,0,0,0,0,
0,0,0,0,0,0,0,0,0,14784,0,0,0,0,0,0,6497,6498,0,
0,0,0,0,0,0,0,0,14835,14786,14784,0,0,0,0,0,6542,6543,0,
0,0,0,0,0,0,0,0,14835,14835,14786,14783,14783,14783,14783,14784,0,0,0,
0,0,0,0,0,0,0,0,0,0,14835,14835,14835,14835,0,14786,0,0,0,
0,0,0,0,0,0,0,0,0,0,0,0,0,0,18977,0,0,0,0,
0,0,0,0,0,18977,0,0,0,0,0,0,0,0,0,0,6407,6408,0,
0,0,0,0,0,0,0,0,0,0,0,0,0,0,0,0,6452,6453,0,
0,0,0,0,0,6407,6408,0,0,0,18980,0,0,0,0,0,0,0,0,
0,0,0,0,6406,6452,6453,0,0,0,0,0,0,0,0,0,0,0,0,
0,0,0,0,0,0,0,0,0,0,0,0,0,0,0,0,0,0,0,
0,0,0,0,0,0,0,0,0,0,0,0,0,0,0,0,0,0,0,
0,0,0,0,0,0,0,0,0,0,0,0,0,0,0,0,7903,0,0,
0,0,0,0,0,0,0,0,0,0,0,0,0,0,0,0,6403,0,0,
0,0,0,0,0,0,0,0,0,0,0,0,0,0,0,0,0,0,0,
0,0,0,0,0,0,0,0,0,0,0,0,0,0,0,0,0,0,0,
0,0,0,0,0,0,0,0,18977,0,0,0,0,0,0,0,0,0,0,
0,0,0,0,0,0,0,0,0,0,0,0,0,0,0,0,0,0,0,
0,0,0,0,0,0,0,0,0,0,0,0,0,0,0,0,0,0,0,
0,0,0,0,0,0,0,0,0,0,0,0,0,0,8282,0,0,0,0,
0,0,0,0,0,0,0,0,0,0,0,0,0,0,0,0,0,0,0,
0,0,0,0,0,0,0,0,0,0,0,0,0,0,0,0,0,0,0,
0,0,0,0,0,0,0,0,0,0,0,0,0,0,0,0,0,0,0,
0,0,0,0,0,0,0,0,0,0,0,0,0,0,0,0,0,0,0
</data>
 </layer>
 <layer id="2" name="Grass" width="19" height="33">
  <data encoding="csv">
0,0,0,3960,4117,0,0,0,0,0,0,0,0,0,0,0,0,0,0,
0,0,0,3960,4117,0,0,0,0,0,0,0,0,0,0,0,0,0,0,
0,0,0,3960,4117,0,0,0,0,0,0,0,0,0,0,0,0,0,0,
0,0,0,3960,4117,0,0,0,0,0,0,0,0,0,0,0,0,0,0,
0,0,0,4012,4013,0,0,0,0,0,0,0,0,0,0,0,0,0,0,
4374,4375,4376,4064,4065,0,0,0,0,0,0,0,0,0,0,0,0,0,0,
4426,4427,4428,4116,4117,0,0,0,0,0,0,0,0,0,0,0,0,0,0,
4478,4479,4480,4532,3702,0,0,0,0,0,0,0,0,0,0,0,0,0,0,
4530,4531,4532,19084,3754,0,0,0,0,0,0,0,0,0,0,0,0,0,0,
4582,4583,19084,3756,3806,0,0,0,0,0,0,0,0,0,0,0,0,0,0,
19060,19084,4636,3754,0,0,0,0,0,0,0,0,0,0,0,0,0,0,0,
0,0,0,3754,0,0,0,0,0,0,0,0,0,0,0,0,0,0,0,
0,19090,0,3754,0,0,0,0,0,0,0,0,0,0,0,0,0,0,0,
0,19030,19031,3754,0,0,0,0,0,0,0,0,0,0,0,0,0,0,0,
0,19042,19043,3754,0,0,0,0,0,0,0,0,0,0,0,0,0,0,0,
19006,19007,0,3754,0,0,0,0,0,0,0,0,0,0,0,0,0,0,0,
19018,19019,3805,3806,0,0,0,0,0,0,0,0,0,0,0,0,0,0,0,
0,3754,0,0,0,0,0,0,0,0,0,0,0,0,0,0,0,0,0,
0,3754,0,0,0,0,0,0,0,0,0,0,0,0,0,0,0,0,0,
3753,3754,0,0,0,0,0,0,0,0,0,0,0,0,0,0,0,0,0,
3805,3806,0,0,0,0,0,0,0,0,0,0,0,0,0,0,0,0,0,
0,0,0,0,0,0,0,0,0,0,0,0,0,0,0,0,0,0,0,
0,0,0,0,0,0,0,0,0,0,0,0,0,0,0,0,0,0,0,
0,0,0,0,0,0,0,0,0,0,0,0,0,0,0,0,0,0,0,
0,0,0,0,0,0,0,0,0,0,0,0,0,0,0,0,0,0,0,
0,0,0,0,0,0,0,0,0,0,0,0,0,0,0,0,0,0,0,
0,0,0,0,0,0,0,0,0,0,0,0,0,0,0,0,0,0,0,
0,0,0,0,0,0,0,0,0,0,0,0,0,0,0,0,0,0,0,
0,0,0,0,0,0,0,0,0,0,0,0,0,0,0,0,0,0,0,
0,5891,0,0,5894,0,0,0,0,0,0,0,0,0,0,0,0,0,0,
0,5936,0,0,5939,0,0,0,0,0,0,0,0,0,0,0,0,0,0,
0,5981,0,0,5984,0,0,0,0,0,0,0,0,0,0,0,0,0,0,
0,6026,0,0,0,0,0,0,0,0,0,0,0,0,0,0,0,0,0
</data>
 </layer>
 <layer id="18" name="Player" width="19" height="33">
  <data encoding="csv">
0,0,0,0,0,0,0,0,0,0,0,0,0,0,0,0,0,0,0,
0,0,0,0,0,0,0,0,0,0,0,0,0,0,0,0,0,0,0,
0,0,0,0,0,0,0,0,0,0,0,0,0,0,0,0,0,0,0,
0,0,0,0,0,0,0,0,0,0,0,0,0,0,0,0,0,0,0,
0,0,0,0,0,0,0,0,0,0,0,0,0,0,0,0,0,0,0,
0,0,0,0,0,0,0,0,0,0,0,0,0,0,0,0,0,0,0,
0,0,0,0,0,0,0,0,0,0,0,0,0,0,0,0,0,0,0,
0,0,0,0,0,0,0,0,0,0,0,0,0,0,0,0,0,0,0,
0,0,0,0,0,0,0,0,0,0,0,0,0,0,0,0,0,0,0,
0,0,0,0,0,0,0,0,0,0,0,0,0,0,0,0,0,0,0,
0,0,0,0,0,0,0,0,0,0,0,0,0,0,0,0,0,0,0,
0,0,0,0,0,0,0,0,0,0,0,0,0,0,0,0,0,0,0,
0,0,0,0,0,0,0,0,0,0,0,0,0,0,0,0,0,0,0,
0,0,0,0,0,0,0,0,0,0,0,0,0,0,0,0,0,0,0,
0,0,0,0,0,0,0,0,0,0,0,0,0,0,0,0,0,0,0,
0,0,0,0,0,0,0,0,0,0,0,0,0,0,0,0,0,0,0,
0,0,0,0,0,0,0,0,0,0,0,0,0,0,0,0,0,0,0,
0,0,0,0,0,0,0,0,0,0,0,0,0,0,0,0,0,0,0,
0,0,0,0,0,0,0,0,0,0,0,0,0,0,0,0,0,0,0,
0,0,0,0,0,0,0,0,0,0,0,0,0,0,0,0,0,0,0,
0,0,0,0,0,0,0,0,0,0,0,0,0,0,0,0,0,0,0,
0,0,0,0,0,0,0,0,0,0,0,0,0,0,0,0,0,0,0,
0,0,0,0,0,0,0,0,0,0,0,0,0,0,0,0,0,0,0,
0,0,0,0,0,0,0,0,0,0,0,0,0,0,0,0,0,0,0,
0,0,0,0,0,0,0,0,0,0,0,0,0,0,0,0,0,0,0,
0,0,0,0,0,0,0,0,0,0,0,0,0,0,0,0,0,0,0,
0,0,0,0,0,0,0,0,0,0,0,0,0,0,0,0,0,0,0,
0,0,0,0,0,0,0,0,0,0,0,0,0,0,0,0,0,0,0,
0,0,0,0,0,0,0,0,0,0,0,0,0,0,0,0,0,0,0,
0,0,0,0,0,0,0,0,0,0,0,0,0,0,0,0,0,0,0,
0,0,0,0,0,0,0,0,0,0,0,0,0,0,0,0,0,0,0,
0,0,0,0,0,0,0,0,0,0,0,0,0,0,0,0,0,0,0,
0,0,0,0,0,0,0,0,0,0,0,0,0,0,0,0,0,0,0
</data>
 </layer>
 <layer id="16" name="Green" width="19" height="33">
  <data encoding="csv">
0,0,0,0,0,0,0,0,0,0,0,0,0,0,0,0,0,0,0,
0,0,0,0,0,0,0,0,0,0,0,0,0,0,0,0,0,0,0,
0,0,0,0,0,0,0,0,0,0,0,0,0,0,0,0,0,0,0,
0,0,0,6438,6439,0,0,0,0,0,0,0,0,0,0,0,0,0,0,
0,0,15803,6483,6484,0,0,0,0,0,0,0,0,0,0,0,0,0,0,
0,0,6567,6528,6529,0,0,0,0,0,0,0,0,0,0,0,0,0,0,
0,6433,6567,0,0,0,0,0,0,0,0,0,0,0,0,0,0,0,0,
0,6478,6612,0,0,0,0,0,0,0,0,0,0,0,0,0,0,0,0,
0,6567,0,0,0,0,0,0,0,0,0,0,0,0,0,0,0,0,0,
0,6612,0,0,0,0,0,0,0,0,0,0,0,0,0,0,0,0,0,
0,0,0,0,0,0,0,0,0,0,0,0,0,0,0,0,0,0,0,
0,0,0,0,0,0,0,0,0,0,0,0,0,0,0,0,0,0,0,
0,0,0,0,0,0,0,0,0,0,0,0,0,0,0,0,0,0,0,
0,0,0,0,0,0,0,0,0,0,0,0,0,0,0,0,0,0,0,
0,0,0,0,0,0,0,0,0,0,0,0,0,0,0,0,0,0,0,
0,0,0,0,0,0,0,0,0,0,0,0,0,0,0,0,0,0,0,
0,0,0,0,0,0,0,0,0,0,0,0,0,0,0,0,0,0,0,
0,2147489539,0,0,0,0,0,0,0,0,0,0,0,0,0,0,0,0,0,
0,2147489584,9530,0,0,0,0,0,0,0,0,0,0,0,0,0,0,0,0,
0,2147489629,0,0,0,0,0,0,0,0,0,0,0,0,0,0,0,0,0,
0,2147489674,0,0,0,0,0,0,0,0,0,0,0,0,0,0,0,0,0,
0,0,0,0,0,0,0,0,0,0,0,0,0,0,0,0,0,0,0,
0,0,0,0,0,0,0,0,0,0,0,0,0,0,0,0,0,0,0,
0,0,0,0,0,0,0,0,0,0,0,0,0,0,0,0,0,0,0,
0,0,0,0,0,0,0,0,0,0,0,0,0,0,0,0,0,0,0,
0,0,0,0,0,0,0,0,0,0,0,0,0,0,0,0,0,0,0,
0,0,0,0,0,0,0,0,0,0,0,0,0,0,0,0,0,0,0,
0,0,0,0,0,0,0,0,0,0,0,0,0,0,0,0,0,0,0,
0,0,0,0,0,0,0,0,0,0,0,0,0,0,0,0,0,0,0,
0,0,0,0,0,0,0,0,0,0,0,0,0,0,0,0,0,0,0,
0,0,0,0,0,0,0,0,0,0,0,0,0,0,0,0,0,0,0,
0,0,0,0,0,0,0,0,0,0,0,0,0,0,0,0,0,0,0,
0,0,0,0,0,0,0,0,0,0,0,0,0,0,0,0,0,0,0
</data>
 </layer>
 <layer id="4" name="Rocks" width="19" height="33">
  <data encoding="csv">
0,0,0,0,0,0,0,0,0,0,0,0,0,0,6747,6748,6749,0,0,
0,0,0,0,0,0,0,0,0,0,0,0,0,0,6792,6793,6794,0,0,
0,0,0,0,0,0,0,0,0,0,0,0,0,0,6882,6883,6884,0,0,
0,0,0,0,0,0,0,0,0,0,0,0,0,0,6927,6928,6929,0,0,
0,0,0,0,0,0,0,0,0,0,0,0,0,0,7017,7018,7019,0,0,
0,0,0,0,0,0,0,0,0,0,0,0,7110,7111,7062,7063,7064,7115,0,
0,0,0,0,0,0,0,0,0,0,0,0,7155,7156,7157,7158,7159,7160,0,
0,0,0,0,0,0,0,0,0,0,0,0,7200,7201,7202,7203,7204,7205,0,
0,0,0,0,0,0,0,0,0,0,0,0,7245,7246,7247,7248,7249,7250,0,
0,0,0,0,0,0,0,0,0,0,0,0,7290,7291,7292,7293,7294,7295,0,
0,0,0,0,0,0,0,0,0,0,0,0,7335,7336,7337,7338,7339,7340,4371,
0,0,0,0,0,0,0,0,0,0,0,0,7380,7381,7382,7383,7384,7385,0,
0,0,0,0,0,0,0,0,0,0,0,0,0,0,0,0,0,0,0,
0,0,0,0,0,0,0,0,0,0,0,0,0,0,0,0,0,0,0,
0,0,0,0,0,0,0,0,0,0,0,0,0,0,0,0,0,0,0,
0,0,0,0,0,0,0,0,0,0,0,0,0,0,0,0,0,0,0,
0,0,0,0,0,0,0,0,0,0,0,0,0,0,0,0,0,0,0,
0,0,0,0,0,0,0,0,0,0,0,0,0,0,0,0,0,0,0,
0,0,0,0,0,0,0,0,0,0,0,0,0,0,0,0,0,0,0,
0,0,0,0,0,0,0,0,0,0,0,0,0,0,0,0,0,0,0,
0,0,0,0,0,0,0,0,0,0,0,0,0,0,0,0,0,0,0,
0,0,0,0,0,0,0,0,0,0,0,0,0,0,0,0,0,0,0,
0,0,0,0,0,0,0,0,0,0,0,0,0,0,0,0,0,0,0,
0,0,0,0,0,0,0,0,0,0,0,0,0,0,0,0,0,0,0,
0,0,5936,5937,5938,5939,0,0,0,0,0,0,0,0,0,0,0,0,0,
0,0,5981,5982,5983,5984,0,0,0,0,0,0,0,6404,6404,0,0,0,0,
0,0,6026,6027,6028,6029,0,0,0,0,0,0,0,0,0,0,0,0,0,
0,0,6071,6072,6073,6074,0,0,0,0,0,0,0,0,0,0,0,0,0,
0,0,6116,6117,6118,6119,0,0,0,0,0,0,0,0,0,0,0,0,0,
0,0,6161,6162,6163,6164,0,0,0,0,0,0,0,0,0,0,0,0,0,
0,0,6206,6207,6208,6209,0,0,0,0,0,0,0,0,0,0,0,0,0,
0,0,0,0,0,0,0,0,0,0,0,0,0,0,0,0,0,0,0,
0,0,0,0,0,0,0,0,0,0,0,0,0,0,0,0,0,0,0
</data>
 </layer>
 <layer id="5" name="Mush" width="19" height="33">
  <data encoding="csv">
0,0,0,0,0,0,0,0,0,0,0,0,0,0,0,0,0,0,0,
0,0,0,0,0,0,0,0,0,0,0,0,0,0,0,0,0,0,0,
0,0,0,0,0,0,0,0,0,0,0,0,0,0,0,0,0,0,0,
0,0,0,0,0,0,0,0,0,0,0,0,0,0,0,0,0,0,0,
0,0,0,0,0,0,0,0,0,0,0,0,0,0,0,0,0,0,0,
0,0,0,0,0,0,0,0,0,0,0,0,0,0,0,0,0,0,0,
0,0,0,0,0,0,0,0,0,0,0,0,0,0,8286,8287,0,0,0,
0,0,0,0,0,0,0,0,0,0,0,0,0,0,8331,8332,0,0,0,
0,0,0,0,0,0,0,0,0,0,0,0,0,0,0,0,0,0,0,
0,0,0,0,0,0,0,0,0,0,0,0,0,0,0,0,0,0,0,
0,0,0,0,0,0,0,0,0,0,0,0,0,0,0,0,0,0,0,
0,0,0,0,0,0,0,0,0,0,0,0,0,0,0,0,0,0,0,
0,0,0,0,0,0,0,0,0,0,0,0,0,0,0,0,0,0,0,
0,0,0,0,0,0,0,0,0,0,0,0,0,0,0,0,0,0,0,
0,0,0,0,0,0,0,0,0,0,0,0,0,0,0,0,0,0,0,
0,0,0,0,0,0,0,0,0,0,0,0,0,0,0,0,0,0,0,
0,0,0,0,0,0,0,0,0,0,0,11200,11201,11202,11203,11204,0,0,0,
2147489540,0,0,0,0,0,0,0,0,0,0,11228,11229,11230,11231,11232,0,0,0,
2147489585,0,0,0,0,0,0,0,0,0,0,11256,11257,11258,11259,11260,0,0,0,
2147489630,0,0,0,0,0,0,0,0,0,0,11284,11285,11286,11287,11288,0,0,0,
2147489675,0,0,0,0,0,0,0,0,0,0,11312,11313,11314,11315,11316,0,0,0,
2147489720,2147489719,0,0,0,0,0,0,0,0,0,11340,11341,11342,11343,11344,0,0,0,
2147489765,2147489764,0,0,0,0,0,0,0,0,0,11368,11369,11370,11371,11372,0,0,0,
2147489810,2147489809,0,0,0,0,0,0,0,0,0,11396,11397,11398,11399,11400,0,0,0,
2147489855,2147489854,0,0,0,0,0,0,0,0,0,11424,11425,11426,11427,11428,0,0,0,
0,0,0,0,0,0,0,0,0,0,0,11452,11453,11454,11455,11456,0,0,0,
2147489541,2147489540,2147489539,0,0,0,0,0,0,0,0,0,0,0,0,0,0,0,0,
2147489586,2147489585,6708,0,0,0,0,0,0,0,0,0,0,0,0,0,0,0,0,
2147489631,2147489630,2147489629,0,0,0,0,0,0,0,0,0,0,0,0,0,0,0,0,
2147489676,2147489675,2147489674,0,5894,0,0,0,0,0,0,0,0,0,0,0,0,0,0,
2147489721,2147489720,2147489719,0,5939,0,0,0,0,0,0,0,0,0,0,0,0,0,0,
2147489766,2147489765,2147489764,0,0,0,0,0,0,0,0,0,0,0,0,0,0,0,0,
2147489811,2147489810,2147489809,0,0,0,0,0,0,0,0,0,0,0,0,0,0,0,0
</data>
 </layer>
 <layer id="17" name="Setas" width="19" height="33">
  <data encoding="csv">
0,0,0,0,0,0,0,0,0,0,0,0,0,0,0,0,0,0,0,
0,0,0,0,0,0,0,0,0,0,0,0,0,0,0,0,0,0,0,
0,0,0,0,0,0,0,0,0,0,0,0,0,0,0,0,0,4371,0,
0,0,0,0,0,0,0,0,0,0,0,0,0,0,0,0,0,4371,0,
0,0,0,0,0,0,0,0,0,0,0,0,0,0,0,8295,8296,4371,0,
0,0,0,0,0,0,0,0,0,0,0,0,0,0,0,8340,8341,4371,0,
0,0,0,0,0,0,0,0,0,0,0,0,0,0,0,0,0,4371,0,
0,0,0,0,0,0,0,0,0,0,0,0,0,0,0,8288,8289,4371,0,
0,0,0,0,0,0,0,0,0,0,0,0,0,0,0,8333,8334,4371,0,
0,0,0,0,0,0,0,0,0,0,0,0,0,0,0,0,0,4371,0,
0,0,0,0,0,0,0,0,0,0,0,0,0,0,0,0,0,0,0,
0,0,0,0,0,0,0,0,0,0,0,0,0,0,0,0,0,0,0,
0,0,0,0,0,0,0,0,0,0,0,0,0,0,0,0,0,0,0,
0,0,0,0,0,0,0,0,0,0,0,0,0,0,0,0,0,0,0,
0,0,0,0,0,0,0,0,0,0,0,0,0,0,0,0,0,0,0,
0,0,0,0,0,0,0,0,0,0,0,0,0,0,0,0,0,0,0,
0,0,0,0,0,0,0,0,0,0,0,0,0,0,0,0,0,0,0,
0,0,0,0,0,0,0,0,0,0,0,0,0,0,0,0,0,0,0,
0,0,0,0,0,0,0,0,0,0,0,0,0,0,0,0,0,0,0,
0,0,0,0,0,0,0,0,0,0,0,0,0,0,0,0,0,0,0,
0,0,0,0,0,0,0,0,0,0,0,0,0,0,0,0,0,0,0,
0,0,6254,6255,6256,6257,6258,0,0,0,0,0,0,0,0,0,0,0,0,
0,0,6299,6300,6301,6302,6303,0,0,0,0,0,0,0,0,0,0,0,0,
0,0,6344,6345,6346,6347,6348,0,0,0,0,0,0,0,0,0,0,0,0,
0,0,6389,6390,6391,6392,6393,0,0,0,0,0,0,0,0,0,0,0,0,
0,0,2147489632,2147489631,2147489630,2147489629,0,0,0,0,0,0,0,0,0,0,0,0,0,
0,0,2147489677,2147489676,2147489675,2147489674,0,0,0,0,0,0,0,0,0,0,0,0,0,
0,0,2147489722,2147489721,2147489720,2147489719,0,0,0,0,0,0,0,0,0,0,0,0,0,
0,0,2147489767,2147489766,2147489765,2147489764,0,0,0,0,0,0,0,0,0,0,0,0,0,
0,0,2147489812,2147489811,2147489810,2147489809,0,0,0,0,0,0,0,0,0,0,0,0,0,
0,0,2147489857,2147489856,2147489855,2147489854,0,0,0,0,0,0,0,0,0,0,0,0,0,
0,0,0,0,0,0,0,0,0,0,0,0,0,0,0,0,0,0,0,
0,0,0,0,0,0,0,0,0,0,0,0,0,0,0,0,0,0,0
</data>
 </layer>
 <layer id="7" name="Mush2" width="19" height="33">
  <data encoding="csv">
0,0,0,0,0,0,0,0,0,0,0,0,0,0,0,0,0,3955,4372,
0,0,0,0,0,0,0,0,0,0,0,0,0,0,0,0,0,3955,4372,
0,0,0,0,0,0,0,0,0,0,0,0,0,0,0,0,0,0,4372,
0,0,0,0,0,0,0,0,0,0,0,0,0,0,0,0,0,0,4372,
0,0,0,0,0,0,0,0,0,0,0,0,0,0,0,0,0,0,4372,
0,0,0,0,0,0,0,0,0,0,0,0,0,0,0,0,0,0,4372,
0,0,0,0,0,0,0,0,0,0,0,0,0,0,0,0,0,0,4372,
0,0,0,0,0,0,0,0,0,0,0,0,0,0,0,0,0,0,4372,
0,0,0,0,0,0,0,0,0,0,0,0,0,0,0,0,0,4371,4372,
0,0,0,0,0,0,0,0,0,0,0,0,8024,0,0,0,0,4371,4372,
0,0,0,0,0,0,0,0,0,0,0,0,0,6663,0,0,8117,3955,4372,
0,0,8357,8358,0,0,0,0,0,0,0,0,0,0,0,0,8162,3955,4372,
0,0,8402,8403,0,0,0,0,0,0,0,0,0,0,0,0,0,4371,4372,
0,0,0,0,0,0,0,0,0,0,0,0,0,0,0,0,0,4371,4372,
0,0,0,0,0,0,0,0,0,0,0,0,0,0,0,0,0,4371,4372,
0,0,0,0,0,0,0,0,0,0,0,0,0,0,0,0,0,4371,4372,
0,6740,6741,0,0,0,0,0,0,0,0,0,0,0,0,0,0,4371,4372,
0,6785,6786,0,0,0,0,0,0,0,0,0,0,0,0,0,0,4371,4372,
0,0,0,0,0,0,0,0,0,0,0,0,0,0,0,0,0,4371,4372,
0,0,0,0,0,0,0,0,0,0,0,0,0,0,0,0,0,4371,4372,
0,0,0,0,0,0,0,0,0,0,0,0,0,0,0,0,0,4371,4372,
0,0,0,0,0,0,0,0,0,0,0,0,0,0,0,0,0,4269,4321,
0,0,0,0,0,0,0,0,0,0,0,0,0,0,0,0,3955,3956,0,
0,0,0,0,0,0,0,0,0,0,0,0,0,0,0,0,3955,3956,0,
0,0,0,0,0,0,0,0,0,0,0,0,0,0,0,0,3955,3956,0,
0,0,0,0,0,0,0,0,0,0,0,0,0,8024,0,0,3955,3956,0,
0,0,0,0,0,0,0,0,0,0,0,0,0,0,0,0,3955,3956,0,
0,0,0,0,0,0,0,0,0,0,0,0,0,0,0,0,3955,3956,0,
0,0,0,0,0,0,0,0,0,0,0,0,0,0,0,0,3955,3956,0,
0,0,0,0,0,0,0,0,0,0,0,0,0,0,0,0,3955,3956,0,
0,0,0,0,0,0,0,0,0,0,0,0,0,0,0,0,3955,3956,0,
0,0,0,0,0,0,0,0,0,0,0,0,0,0,0,0,3955,3956,0,
0,0,0,0,0,0,0,0,0,0,0,0,0,0,0,0,3955,3956,0
</data>
 </layer>
 <layer id="8" name="Sand" width="19" height="33">
  <data encoding="csv">
0,0,0,0,0,0,0,0,0,0,0,0,0,0,0,0,0,0,0,
0,0,0,0,0,0,0,0,0,0,0,0,0,0,0,0,0,0,0,
0,0,0,0,0,0,0,0,0,0,0,0,0,0,0,0,0,0,0,
0,0,0,0,0,0,0,0,0,0,0,0,0,0,0,0,0,0,0,
0,0,0,0,0,0,0,0,0,0,0,0,0,0,0,0,0,0,0,
0,0,0,0,0,0,0,0,0,0,0,0,0,0,0,0,0,0,0,
0,0,0,0,0,0,0,0,0,0,0,0,0,0,0,0,0,0,0,
0,0,0,0,0,0,0,0,0,0,0,0,0,0,0,0,0,0,0,
0,0,0,0,0,0,0,0,0,0,0,0,0,0,0,0,0,0,0,
0,0,0,0,0,0,0,0,0,0,0,0,0,0,0,0,0,0,0,
0,0,0,0,0,0,0,0,0,0,0,0,0,0,0,0,0,0,0,
0,0,0,0,0,0,0,0,0,0,0,0,0,0,0,0,0,0,0,
0,0,0,0,0,0,0,0,0,0,0,0,0,0,0,0,0,0,0,
0,0,0,0,0,0,0,0,0,0,0,0,0,0,0,0,0,0,0,
0,0,0,0,0,0,0,0,0,0,0,0,0,0,0,0,0,0,0,
0,0,0,0,0,0,0,0,0,0,0,0,0,0,0,0,0,0,0,
0,0,0,0,0,0,0,0,0,0,0,0,0,0,0,0,0,0,0,
0,0,0,0,0,0,0,0,0,0,0,0,0,0,0,0,0,0,0,
0,0,0,0,0,0,0,0,0,0,0,0,0,0,0,0,0,0,0,
7513,7514,0,0,0,0,0,0,0,0,0,0,0,0,0,0,0,0,0,
2147489542,2147489541,2147489540,2147489539,0,0,0,0,0,0,0,0,0,0,0,0,0,0,0,
2147489587,2147489586,2147489585,2147489584,0,0,0,0,0,0,0,0,0,0,0,0,0,0,0,
2147489632,2147489631,2147489630,2147489629,0,0,0,0,0,0,0,0,0,0,0,0,0,0,0,
2147489677,2147489676,2147489675,2147489674,0,8190,8191,0,0,0,0,0,0,0,0,0,0,0,0,
2147489722,2147489721,2147489720,2147489719,0,8235,8236,0,0,0,0,0,0,0,0,0,0,0,0,
2147489767,2147489766,2147489765,2147489764,0,0,0,0,0,0,0,0,0,0,0,0,0,0,0,
2147489812,2147489811,2147489810,2147489809,0,0,0,0,0,0,0,0,0,0,0,0,0,0,0,
2147489857,2147489856,2147489855,2147489854,0,0,0,0,0,0,0,0,0,0,0,0,0,0,0,
0,2147489542,2147489541,2147489540,2147489539,0,0,0,0,0,0,0,0,0,0,0,0,0,0,
0,2147489587,2147489586,2147489585,2147489584,0,0,0,0,0,0,0,0,0,0,0,0,0,0,
0,2147489632,2147489631,2147489630,2147489629,0,0,0,0,0,0,0,0,0,0,0,0,0,0,
0,2147489677,2147489676,2147489675,2147489674,0,0,0,0,0,0,0,0,0,0,0,0,0,0,
0,2147489722,2147489721,2147489720,2147489719,0,0,0,0,0,0,0,0,0,0,0,0,0,0
</data>
 </layer>
 <objectgroup id="14" name="CollisionMask">
  <object id="8" x="266.667" y="525.333">
   <polygon points="-0.25,2.25 -0.352259,-7.16212 2.0077,-11.1008 1.31017,-15.0829 0.0911345,-22.0866 2.13311,-28.3293 0.42527,-31.5855 0.524508,-38.956 2.17253,-44.0835 0.574005,-47.8305 0.655508,-56.4776 1.77251,-62.2091 0.30978,-70.7163 1.54947,-77.5839 0.333817,-87.4579 2.34813,-92.3333 0.368651,-96.5841 0.390399,-103.209 2.14731,-107.583 0.406295,-111.834 -0.360926,-117.831 1.59602,-124.208 -0.0301469,-129.208 -0.0313244,-136.333 2.9398,-141.458 0.195327,-145.708 -0.341719,-152.217 2.2366,-157.218 0.0795043,-162.332 -0.184919,-167.586 2.01244,-173.837 -8.89419,-175.335 -11.2354,-177.802 -9.83422,-182.233 -7.97187,-186.325 3.33333,-186.667 7.51043,-182.308 14.9772,-185.587 19,-189.042 15.9126,-195.677 15.9595,-201.19 17.3829,-205.826 15.0504,-214.449 17.2718,-219.836 15.5308,-225.325 15.7191,-232.255 17.4381,-236.322 16.3619,-240.354 15.8946,-247.095 17.686,-252.087 15.6375,-254.832 15.3407,-263.451 18.2244,-268.199 15.2902,-273.545 15.2537,-281.081 17.5523,-284.582 15.2136,-289.45 16.4857,-300.333 15.2982,-307.581 16.7563,-314.323 14.7721,-320.581 17.0001,-332.209 15.6273,-340.821 15.625,-338.583 4.33289,-336.6 -34.4236,-340.63 -41.3599,-345.564 -50.75,-346.292 -61.7135,-354.684 -62.6978,-367.587 -59.7083,-374.458 -61.8044,-382.344 -59.959,-389.161 -52.6667,-392.75 -2.90949,-394.167 14.6667,-392 18.7784,-398.578 18.4203,-412.079 14.7213,-420.83 17.3454,-428.583 14.6519,-440.335 17.0034,-445.08 15.6242,-453.58 17.6714,-459.833 15.2114,-467.55 17.133,-475.338 14.3794,-483.605 17.2426,-491.57 14.9738,-498.598 16.25,-508.083 -44.6755,-508.459 -60,-508 -68.9242,-507.153 -72.6667,-509.667 -73,-515.333 -70,-525.667 38,-524.667 38,2.5"/>
  </object>
  <object id="9" x="71.3333" y="528">
   <polygon points="-9,0.666667 -14.8086,-10.664 -33.6667,-10.6667 -44.4419,-10.4574 -54.6599,-13.2697 -63.2035,-18.0372 -64.6667,-29.3333 -65.6356,-119.719 -66.5838,-125.708 -64.2148,-130.707 -59.4139,-133.666 -59.0089,-139.998 -60.7436,-141.63 -65.3636,-143.485 -66.5827,-188.356 -57.7267,-190.922 -50.697,-190.788 -41.2362,-194.989 -39.1515,-204.182 -39.235,-233.549 -37.3333,-246.667 -22.3025,-247.131 -23.0311,-232.955 -14.4556,-228.876 -2.93714,-225.408 8.12121,-226.697 20,-232 34.8471,-232.079 34.8118,-240.803 35.1818,-251.364 30.3607,-250.984 27.8589,-247.42 24.1957,-252.641 15.176,-254.004 -0.546164,-258.679 -7.0303,-260.394 -6.17252,-316.271 -5.50461,-333.176 -6.20235,-357.659 -6.55818,-362.647 -5.45455,-367.152 1.15018,-369.345 7.87879,-373.939 10.0267,-401.091 6.30303,-412.485 -0.311494,-416.352 -1.85669,-418.471 -1.33333,-423.333 -3.17079,-432.274 0,-440 4.63636,-452.091 5.27028,-463.823 0.460927,-466.838 -1.8026,-476.362 -0.396724,-486.731 -2.06798,-495.905 0.613845,-504.11 0,-511.333 67.9394,-510.788 69.9284,-514.872 70.3938,-521.947 68.827,-524.963 68.303,-528.121 -72.6667,-528.667 -74,-0.666667"/>
  </object>
  <object id="10" x="211.167" y="424.572">
   <polygon points="0.630682,-6.31409 -11.3261,-13.5777 -12.3334,-23.1517 -2.98348,-26.5371 13.5947,-26.5037 24.6666,-21.8265 18.8854,-10.4845"/>
  </object>
  <object id="11" x="240.805" y="459.722">
   <polygon points="-2,2.5 -8.22045,-10.4234 -1.96825,-24.4946 21.0927,-24.1863 25.4676,-10.1974 19.2061,5.92789"/>
  </object>
  <object id="12" x="84.0663" y="391.779">
   <polygon points="1.95802,7.11358 -11.248,10.8352 -27.5741,4.34996 -41.8697,-5.11102 -48.733,-16.1592 -47.8759,-38.4413 -41.0279,-39.291 -36.2016,-44.2623 -31.8772,-46.3098 -22.1962,-47.8604 -8.07925,-43.9162 4.78627,-38.0269 17.9426,-35.445 24.0681,-26.381 28.326,-17.4327 33.8151,-8.04254 27.733,0.821478 16.0212,5.01385 5.07582,2.18247"/>
  </object>
  <object id="13" x="54.5" y="494.813">
   <polygon points="0,0 6.6875,1 12.875,0.8125 18.9375,-2.125 22.75,-5.9375 23.25,-9.6875 19.5,-10.6875 -9.0625,-11.125 -9.4375,-8"/>
  </object>
  <object id="14" x="20.875" y="442.844">
   <polygon points="0,0 3.34375,2.5625 8.96875,5.09375 12.75,4.46875 18.6563,2.8125 24.6563,-1.34375 25.6875,-5.59375 19.3859,-7.84375 9.95109,-7.93071 0.603261,-7.45245 -0.788043,-4.01766"/>
  </object>
  <object id="16" x="-4" y="520" width="309" height="9"/>
 </objectgroup>
</map>
